test-footage/LUT/AlexaV3_EI0800_LogC2Video_Rec709_LE_aftereffects3d.cube
# Alexa conversion LUT, logc2video, itu709. Legal in/full out.
# created by alexalutconv (2.10)
LUT_3D_SIZE 5
0.000000 0.000000 0.000000
0.153273 0.000000 0.001554
0.745574 0.000000 0.042454
1.000000 0.000000 0.107703
1.000000 0.000000 0.111052
0.000000 0.140190 0.000000
0.125956 0.137882 0.000000
0.742507 0.052053 0.024863
1.000000 0.000000 0.096508
1.000000 0.000000 0.100190
0.000000 0.701528 0.000000
0.000000 0.701246 0.000000
0.653606 0.693758 0.000000
1.000000 0.678490 0.000000
1.000000 0.677420 0.000000
0.000000 1.000000 0.000000
0.000000 1.000000 0.000000
0.379976 1.000000 0.000000
1.000000 1.000000 0.000000
1.000000 1.000000 0.000000
0.000000 1.000000 0.000000
0.000000 1.000000 0.000000
0.348851 1.000000 0.000000
1.000000 1.000000 0.000000
1.000000 1.000000 0.000000
0.000000 0.000000 0.128012
0.147995 0.000000 0.128810
0.744935 0.000000 0.148284
1.000000 0.000000 0.180622
1.000000 0.000000 0.182618
0.000000 0.122120 0.118610
0.119468 0.119468 0.119468
0.741864 0.016134 0.140246
1.000000 0.000000 0.174183
1.000000 0.000000 0.176261
0.000000 0.699441 0.000000
0.000000 0.699158 0.000000
0.652827 0.691636 0.000000
1.000000 0.676295 0.000000
1.000000 0.675220 0.000000
0.000000 1.000000 0.000000
0.000000 1.000000 0.000000
0.378267 1.000000 0.000000
1.000000 1.000000 0.000000
1.000000 1.000000 0.000000
0.000000 1.000000 0.000000
0.000000 1.000000 0.000000
0.346930 1.000000 0.000000
1.000000 1.000000 0.000000
1.000000 1.000000 0.000000
0.000000 0.000000 0.660528
0.000000 0.000000 0.660626
0.727806 0.000000 0.663215
1.000000 0.000000 0.668320
1.000000 0.000000 0.668669
0.000000 0.000000 0.659410
0.000000 0.000000 0.659508
0.724624 0.000000 0.662104
1.000000 0.000000 0.667221
1.000000 0.000000 0.667571
0.000000 0.640693 0.628874
0.000000 0.640369 0.628981
0.631766 0.631766 0.631766
1.000000 0.614114 0.637252
1.000000 0.612871 0.637628
0.000000 1.000000 0.560489
0.000000 1.000000 0.560614
0.328809 1.000000 0.563915
1.000000 1.000000 0.570396
1.000000 1.000000 0.570838
0.000000 1.000000 0.555314
0.000000 1.000000 0.555441
0.290081 1.000000 0.558787
0.996789 1.000000 0.565355
1.000000 1.000000 0.565802
0.000000 0.000000 1.000000
0.000000 0.000000 1.000000
0.691782 0.000000 1.000000
1.000000 0.000000 1.000000
1.000000 0.000000 1.000000
0.000000 0.000000 1.000000
0.000000 0.000000 1.000000
0.688344 0.000000 1.000000
1.000000 0.000000 1.000000
1.000000 0.000000 1.000000
0.000000 0.490668 1.000000
0.000000 0.490190 1.000000
0.586434 0.477333 1.000000
1.000000 0.450171 1.000000
1.000000 0.448214 1.000000
0.000000 0.995558 0.978054
0.000000 0.995393 0.978108
0.178631 0.991055 0.979525
0.982337 0.982337 0.982337
1.000000 0.981732 0.982529
0.000000 1.000000 0.975849
0.000000 1.000000 0.975903
0.069071 1.000000 0.977326
0.975107 1.000000 0.980147
1.000000 1.000000 0.980340
0.000000 0.000000 1.000000
0.000000 0.000000 1.000000
0.689196 0.000000 1.000000
1.000000 0.000000 1.000000
1.000000 0.000000 1.000000
0.000000 0.000000 1.000000
0.000000 0.000000 1.000000
0.685738 0.000000 1.000000
1.000000 0.000000 1.000000
1.000000 0.000000 1.000000
0.000000 0.477685 1.000000
0.000000 0.477187 1.000000
0.583118 0.463808 1.000000
1.000000 0.435423 1.000000
1.000000 0.433371 1.000000
0.000000 0.991171 0.997784
0.000000 0.991006 0.997836
0.161961 0.986638 0.999210
0.980834 0.977857 1.000000
1.000000 0.977248 1.000000
0.000000 1.000000 0.995647
0.000000 1.000000 0.995700
0.026482 1.000000 0.997078
0.973587 1.000000 0.999813
1.000000 1.000000 1.000000
