test-footage/LUT/AlexaV3_EI0800_LogC2Video_DCIP3D65_LE_aftereffects3d.cube
# Alexa conversion LUT, logc2video, p3d65. Legal in/full out.
# created by alexalutconv (2.10)
LUT_3D_SIZE 9
0.000000 0.000000 0.000000
0.010460 0.000124 0.000263
0.159558 0.002805 0.005935
0.411454 0.020089 0.042509
0.705958 0.074530 0.127474
0.955256 0.131380 0.200461
1.000000 0.154490 0.230131
1.000000 0.158384 0.235130
1.000000 0.158449 0.235213
0.000000 0.010610 0.000000
0.009608 0.010733 0.000077
0.159233 0.013414 0.005749
0.411366 0.030698 0.042323
0.705922 0.082767 0.127383
0.955235 0.136335 0.200408
1.000000 0.158642 0.230087
1.000000 0.162419 0.235087
1.000000 0.162482 0.235169
0.000000 0.160852 0.000000
0.000000 0.160899 0.000000
0.151984 0.161912 0.001732
0.409464 0.168265 0.038306
0.705145 0.187270 0.125388
0.954779 0.214263 0.199242
1.000000 0.227812 0.229115
1.000000 0.230225 0.234143
1.000000 0.230265 0.234226
0.000000 0.413949 0.000000
0.000000 0.413961 0.000000
0.090917 0.414235 0.000000
0.396853 0.415990 0.012406
0.700102 0.421655 0.111634
0.951830 0.430776 0.191505
1.000000 0.435830 0.222713
1.000000 0.436764 0.227931
1.000000 0.436780 0.228017
0.000000 0.709856 0.000000
0.000000 0.709861 0.000000
0.000000 0.709973 0.000000
0.350449 0.710694 0.000000
0.683142 0.713046 0.047334
0.942062 0.716909 0.162929
1.000000 0.719091 0.199831
1.000000 0.719497 0.205822
1.000000 0.719504 0.205921
0.000000 0.960341 0.000000
0.000000 0.960344 0.000000
0.000000 0.960410 0.000000
0.242402 0.960834 0.000000
0.653368 0.962220 0.000000
0.925486 0.964505 0.095257
1.000000 0.965800 0.152212
1.000000 0.966041 0.160458
1.000000 0.966045 0.160592
0.000000 1.000000 0.000000
0.000000 1.000000 0.000000
0.000000 1.000000 0.000000
0.126554 1.000000 0.000000
0.635343 1.000000 0.000000
0.915816 1.000000 0.025344
1.000000 1.000000 0.114937
1.000000 1.000000 0.125925
1.000000 1.000000 0.126101
0.000000 1.000000 0.000000
0.000000 1.000000 0.000000
0.000000 1.000000 0.000000
0.086316 1.000000 0.000000
0.631879 1.000000 0.000000
0.913990 1.000000 0.010446
1.000000 1.000000 0.106459
1.000000 1.000000 0.118252
1.000000 1.000000 0.118440
0.000000 1.000000 0.000000
0.000000 1.000000 0.000000
0.000000 1.000000 0.000000
0.085492 1.000000 0.000000
0.631821 1.000000 0.000000
0.913959 1.000000 0.010196
1.000000 1.000000 0.106311
1.000000 1.000000 0.118119
1.000000 1.000000 0.118307
0.000000 0.000000 0.008546
0.009473 0.000000 0.008808
0.159181 0.000693 0.014481
0.411352 0.017977 0.051055
0.705917 0.072801 0.131608
0.955231 0.130370 0.202913
1.000000 0.153649 0.232180
1.000000 0.157567 0.237121
1.000000 0.157631 0.237202
0.000000 0.008498 0.008360
0.008622 0.008622 0.008622
0.158853 0.011303 0.014295
0.411265 0.028587 0.050869
0.705881 0.081183 0.131520
0.955210 0.135364 0.202860
1.000000 0.157826 0.232135
1.000000 0.161626 0.237078
1.000000 0.161689 0.237159
0.000000 0.160050 0.004343
0.000000 0.160097 0.004605
0.151584 0.161115 0.010278
0.409362 0.167504 0.046851
0.705103 0.186604 0.129593
0.954754 0.213702 0.201712
1.000000 0.227295 0.231175
1.000000 0.229716 0.236145
1.000000 0.229755 0.236226
0.000000 0.413733 0.000000
0.000000 0.413745 0.000000
0.090239 0.414019 0.000000
0.396745 0.415776 0.020951
0.700060 0.421446 0.116357
0.951805 0.430574 0.194101
1.000000 0.435632 0.224852
1.000000 0.436566 0.230006
1.000000 0.436582 0.230091
0.000000 0.709768 0.000000
0.000000 0.709773 0.000000
0.000000 0.709885 0.000000
0.350318 0.710606 0.000000
0.683098 0.712958 0.055880
0.942037 0.716823 0.166084
1.000000 0.719005 0.202293
1.000000 0.719411 0.208192
1.000000 0.719418 0.208290
0.000000 0.960290 0.000000
0.000000 0.960293 0.000000
0.000000 0.960359 0.000000
0.242180 0.960782 0.000000
0.653321 0.962168 0.000000
0.925460 0.964453 0.100726
1.000000 0.965748 0.155623
1.000000 0.965990 0.163669
1.000000 0.965994 0.163800
0.000000 1.000000 0.000000
0.000000 1.000000 0.000000
0.000000 1.000000 0.000000
0.126064 1.000000 0.000000
0.635293 1.000000 0.000000
0.915789 1.000000 0.033890
1.000000 1.000000 0.119526
1.000000 1.000000 0.130112
1.000000 1.000000 0.130282
0.000000 1.000000 0.000000
0.000000 1.000000 0.000000
0.000000 1.000000 0.000000
0.085606 1.000000 0.000000
0.631829 1.000000 0.000000
0.913963 1.000000 0.018991
1.000000 1.000000 0.111400
1.000000 1.000000 0.122715
1.000000 1.000000 0.122896
0.000000 1.000000 0.000000
0.000000 1.000000 0.000000
0.000000 1.000000 0.000000
0.084776 1.000000 0.000000
0.631771 1.000000 0.000000
0.913933 1.000000 0.018741
1.000000 1.000000 0.111258
1.000000 1.000000 0.122587
1.000000 1.000000 0.122768
0.000000 0.000000 0.141868
0.000000 0.000000 0.141983
0.150741 0.000000 0.144442
0.409147 0.000000 0.159265
0.705017 0.028904 0.199051
0.954703 0.106094 0.248544
1.000000 0.133977 0.271516
1.000000 0.138530 0.275511
1.000000 0.138604 0.275577
0.000000 0.000000 0.141787
0.000000 0.000000 0.141902
0.150392 0.000000 0.144361
0.409059 0.000000 0.159194
0.704981 0.039513 0.198997
0.954682 0.112216 0.248504
1.000000 0.138830 0.271480
1.000000 0.143212 0.275476
1.000000 0.143285 0.275542
0.000000 0.141398 0.140014
0.000000 0.141452 0.140131
0.142624 0.142624 0.142624
0.407139 0.149937 0.157643
0.704202 0.171397 0.197820
0.954226 0.201078 0.247630
1.000000 0.215716 0.270708
1.000000 0.218309 0.274719
1.000000 0.218352 0.274786
0.000000 0.409031 0.127935
0.000000 0.409044 0.128063
0.074310 0.409323 0.130810
0.394411 0.411111 0.147189
0.699147 0.416881 0.190009
0.951274 0.426163 0.241886
1.000000 0.431303 0.265651
1.000000 0.432252 0.269769
1.000000 0.432268 0.269837
0.000000 0.707856 0.075919
0.000000 0.707861 0.076129
0.000000 0.707974 0.080547
0.347487 0.708699 0.105121
0.682145 0.711062 0.161103
0.941495 0.714943 0.221649
1.000000 0.717135 0.248071
1.000000 0.717544 0.252594
1.000000 0.717550 0.252669
0.000000 0.959168 0.000000
0.000000 0.959171 0.000000
0.000000 0.959237 0.000000
0.237318 0.959662 0.000000
0.652292 0.961051 0.092014
0.924901 0.963341 0.181429
1.000000 0.964638 0.214500
1.000000 0.964881 0.219978
1.000000 0.964885 0.220068
0.000000 1.000000 0.000000
0.000000 1.000000 0.000000
0.000000 1.000000 0.000000
0.114939 1.000000 0.000000
0.634214 1.000000 0.020486
0.915219 1.000000 0.152515
1.000000 1.000000 0.191836
1.000000 1.000000 0.198136
1.000000 1.000000 0.198240
0.000000 1.000000 0.000000
0.000000 1.000000 0.000000
0.000000 1.000000 0.000000
0.068815 1.000000 0.000000
0.630740 1.000000 0.005587
0.913391 1.000000 0.146362
1.000000 1.000000 0.187210
1.000000 1.000000 0.193701
1.000000 1.000000 0.193808
0.000000 1.000000 0.000000
0.000000 1.000000 0.000000
0.000000 1.000000 0.000000
0.067822 1.000000 0.000000
0.630682 1.000000 0.005338
0.913361 1.000000 0.146257
1.000000 1.000000 0.187132
1.000000 1.000000 0.193625
1.000000 1.000000 0.193732
0.000000 0.000000 0.377355
0.000000 0.000000 0.377385
0.074654 0.000000 0.378053
0.394457 0.000000 0.382314
0.699165 0.000000 0.395770
0.951284 0.000000 0.416589
1.000000 0.000000 0.427735
1.000000 0.000000 0.429766
1.000000 0.000000 0.429800
0.000000 0.000000 0.377333
0.000000 0.000000 0.377364
0.073962 0.000000 0.378031
0.394364 0.000000 0.382293
0.699128 0.000000 0.395749
0.951262 0.000000 0.416570
1.000000 0.000000 0.427717
1.000000 0.000000 0.429748
1.000000 0.000000 0.429782
0.000000 0.000000 0.376859
0.000000 0.000000 0.376890
0.057544 0.000000 0.377558
0.392331 0.000000 0.381828
0.698338 0.000000 0.395309
0.950803 0.067416 0.416164
1.000000 0.105466 0.427328
1.000000 0.111245 0.429361
1.000000 0.111339 0.429395
0.000000 0.376447 0.373781
0.000000 0.376462 0.373812
0.000000 0.376779 0.374489
0.378812 0.378812 0.378812
0.693208 0.385352 0.392453
0.947832 0.395812 0.413530
1.000000 0.401574 0.424802
1.000000 0.402636 0.426856
1.000000 0.402654 0.426890
0.000000 0.695311 0.363425
0.000000 0.695316 0.363457
0.000000 0.695432 0.364164
0.328330 0.696180 0.368674
0.675947 0.698616 0.382871
0.937989 0.702618 0.404722
1.000000 0.704876 0.416369
1.000000 0.705296 0.418488
1.000000 0.705303 0.418523
0.000000 0.951882 0.345219
0.000000 0.951885 0.345254
0.000000 0.951952 0.346019
0.202105 0.952383 0.350888
0.645595 0.953790 0.366145
0.921281 0.956111 0.389446
1.000000 0.957426 0.401788
1.000000 0.957672 0.404028
1.000000 0.957676 0.404065
0.000000 1.000000 0.334181
0.000000 1.000000 0.334218
0.000000 1.000000 0.335021
0.000624 1.000000 0.340128
0.627183 1.000000 0.356083
0.911531 1.000000 0.380324
1.000000 1.000000 0.393110
1.000000 1.000000 0.395427
1.000000 1.000000 0.395466
0.000000 1.000000 0.332058
0.000000 1.000000 0.332096
0.000000 1.000000 0.332907
0.000000 1.000000 0.338061
0.623642 1.000000 0.354156
0.909690 1.000000 0.378583
1.000000 1.000000 0.391457
1.000000 1.000000 0.393789
1.000000 1.000000 0.393827
0.000000 1.000000 0.332022
0.000000 1.000000 0.332060
0.000000 1.000000 0.332871
0.000000 1.000000 0.338026
0.623583 1.000000 0.354123
0.909658 1.000000 0.378554
1.000000 1.000000 0.391429
1.000000 1.000000 0.393761
1.000000 1.000000 0.393800
0.000000 0.000000 0.652673
0.000000 0.000000 0.652686
0.000000 0.000000 0.652960
0.339160 0.000000 0.654720
0.679399 0.000000 0.660424
0.939937 0.000000 0.669684
1.000000 0.000000 0.674854
1.000000 0.000000 0.675812
1.000000 0.000000 0.675828
0.000000 0.000000 0.652664
0.000000 0.000000 0.652677
0.000000 0.000000 0.652951
0.339042 0.000000 0.654711
0.679360 0.000000 0.660415
0.939915 0.000000 0.669675
1.000000 0.000000 0.674846
1.000000 0.000000 0.675804
1.000000 0.000000 0.675820
0.000000 0.000000 0.652471
0.000000 0.000000 0.652484
0.000000 0.000000 0.652757
0.336476 0.000000 0.654518
0.678531 0.000000 0.660225
0.939446 0.000000 0.669489
1.000000 0.000000 0.674662
1.000000 0.000000 0.675621
1.000000 0.000000 0.675637
0.000000 0.215142 0.651218
0.000000 0.215174 0.651230
0.000000 0.215879 0.651505
0.319176 0.220356 0.653272
0.673138 0.234222 0.658997
0.936410 0.254992 0.668290
1.000000 0.265829 0.673480
1.000000 0.267784 0.674440
1.000000 0.267817 0.674457
0.000000 0.651256 0.647089
0.000000 0.651262 0.647102
0.000000 0.651392 0.647380
0.249653 0.652229 0.649166
0.654952 0.654952 0.654952
0.926349 0.659418 0.664342
1.000000 0.661935 0.669583
1.000000 0.662403 0.670554
1.000000 0.662411 0.670570
0.000000 0.927310 0.640154
0.000000 0.927313 0.640167
0.000000 0.927383 0.640450
0.000000 0.927834 0.642269
0.622803 0.929309 0.648160
0.909255 0.931739 0.657716
1.000000 0.933117 0.663047
1.000000 0.933374 0.664034
1.000000 0.933378 0.664050
0.000000 1.000000 0.636152
0.000000 1.000000 0.636165
0.000000 1.000000 0.636451
0.000000 1.000000 0.638289
0.603185 1.000000 0.644243
0.899270 1.000000 0.653895
1.000000 1.000000 0.659279
1.000000 1.000000 0.660276
1.000000 1.000000 0.660293
0.000000 1.000000 0.635400
0.000000 1.000000 0.635413
0.000000 1.000000 0.635700
0.000000 1.000000 0.637541
0.599400 1.000000 0.643506
0.897384 1.000000 0.653177
1.000000 1.000000 0.658571
1.000000 1.000000 0.659570
1.000000 1.000000 0.659587
0.000000 1.000000 0.635387
0.000000 1.000000 0.635400
0.000000 1.000000 0.635687
0.000000 1.000000 0.637529
0.599337 1.000000 0.643494
0.897352 1.000000 0.653165
1.000000 1.000000 0.658560
1.000000 1.000000 0.659559
1.000000 1.000000 0.659575
0.000000 0.000000 0.885731
0.000000 0.000000 0.885739
0.000000 0.000000 0.885900
0.194577 0.000000 0.886935
0.644330 0.000000 0.890309
0.920602 0.000000 0.895844
1.000000 0.000000 0.898965
1.000000 0.000000 0.899546
1.000000 0.000000 0.899556
0.000000 0.000000 0.885726
0.000000 0.000000 0.885734
0.000000 0.000000 0.885895
0.194321 0.000000 0.886930
0.644287 0.000000 0.890304
0.920579 0.000000 0.895839
1.000000 0.000000 0.898960
1.000000 0.000000 0.899540
1.000000 0.000000 0.899550
0.000000 0.000000 0.885613
0.000000 0.000000 0.885620
0.000000 0.000000 0.885780
0.188686 0.000000 0.886817
0.643379 0.000000 0.890191
0.920092 0.000000 0.895727
1.000000 0.000000 0.898849
1.000000 0.000000 0.899430
1.000000 0.000000 0.899440
0.000000 0.000000 0.884877
0.000000 0.000000 0.884885
0.000000 0.000000 0.885046
0.145853 0.000000 0.886083
0.637467 0.000000 0.889463
0.916940 0.000000 0.895007
1.000000 0.000000 0.898133
1.000000 0.000000 0.898715
1.000000 0.000000 0.898724
0.000000 0.564582 0.882464
0.000000 0.564589 0.882472
0.000000 0.564754 0.882633
0.000000 0.565818 0.883676
0.617436 0.569274 0.887072
0.906489 0.574920 0.892642
1.000000 0.578091 0.895784
1.000000 0.578679 0.896368
1.000000 0.578689 0.896378
0.000000 0.883882 0.878444
0.000000 0.883886 0.878452
0.000000 0.883961 0.878616
0.000000 0.884453 0.879666
0.581636 0.886058 0.883089
0.888704 0.888704 0.888704
1.000000 0.890202 0.891870
1.000000 0.890482 0.892458
1.000000 0.890487 0.892468
0.000000 0.999550 0.876143
0.000000 0.999553 0.876151
0.000000 0.999614 0.876314
0.000000 1.000000 0.877371
0.559504 1.000000 0.880810
0.878298 1.000000 0.886449
0.993588 1.000000 0.889630
1.000000 1.000000 0.890221
1.000000 1.000000 0.890231
0.000000 1.000000 0.875712
0.000000 1.000000 0.875720
0.000000 1.000000 0.875884
0.000000 1.000000 0.876941
0.555207 1.000000 0.880383
0.876331 1.000000 0.886028
0.992010 1.000000 0.889211
1.000000 1.000000 0.889802
1.000000 1.000000 0.889812
0.000000 1.000000 0.875705
0.000000 1.000000 0.875712
0.000000 1.000000 0.875877
0.000000 1.000000 0.876934
0.555134 1.000000 0.880376
0.876298 1.000000 0.886020
0.991983 1.000000 0.889204
1.000000 1.000000 0.889795
1.000000 1.000000 0.889805
0.000000 0.000000 0.980470
0.000000 0.000000 0.980476
0.000000 0.000000 0.980610
0.000000 0.000000 0.981474
0.622835 0.000000 0.984292
0.909272 0.000000 0.988924
1.000000 0.000000 0.991542
1.000000 0.000000 0.992029
1.000000 0.000000 0.992038
0.000000 0.000000 0.980465
0.000000 0.000000 0.980472
0.000000 0.000000 0.980606
0.000000 0.000000 0.981469
0.622791 0.000000 0.984287
0.909249 0.000000 0.988920
1.000000 0.000000 0.991538
1.000000 0.000000 0.992026
1.000000 0.000000 0.992033
0.000000 0.000000 0.980370
0.000000 0.000000 0.980376
0.000000 0.000000 0.980511
0.000000 0.000000 0.981375
0.621828 0.000000 0.984193
0.908750 0.000000 0.988827
1.000000 0.000000 0.991445
1.000000 0.000000 0.991932
1.000000 0.000000 0.991940
0.000000 0.000000 0.979758
0.000000 0.000000 0.979763
0.000000 0.000000 0.979898
0.000000 0.000000 0.980763
0.615559 0.000000 0.983585
0.905528 0.000000 0.988223
1.000000 0.000000 0.990844
1.000000 0.000000 0.991332
1.000000 0.000000 0.991340
0.000000 0.503309 0.977747
0.000000 0.503318 0.977753
0.000000 0.503518 0.977888
0.000000 0.504802 0.978756
0.594249 0.508971 0.981588
0.894837 0.515748 0.986243
1.000000 0.519539 0.988874
1.000000 0.520242 0.989363
1.000000 0.520253 0.989372
0.000000 0.857386 0.974402
0.000000 0.857390 0.974408
0.000000 0.857470 0.974545
0.000000 0.857989 0.975418
0.555854 0.859683 0.978267
0.876626 0.862473 0.982951
0.992247 0.864054 0.985597
1.000000 0.864348 0.986089
1.000000 0.864353 0.986098
0.000000 0.978445 0.972491
0.000000 0.978447 0.972497
0.000000 0.978511 0.972633
0.000000 0.978921 0.973510
0.531884 0.980261 0.976369
0.865961 0.982471 0.981068
0.983724 0.983724 0.983724
1.000000 0.983958 0.984218
1.000000 0.983962 0.984227
0.000000 0.998268 0.972133
0.000000 0.998270 0.972139
0.000000 0.998332 0.972276
0.000000 0.998727 0.973153
0.527206 1.000000 0.976014
0.863944 1.000000 0.980717
0.982118 1.000000 0.983374
1.000000 1.000000 0.983868
1.000000 1.000000 0.983877
0.000000 0.998594 0.972127
0.000000 0.998597 0.972133
0.000000 0.998658 0.972270
0.000000 0.999053 0.973147
0.527127 1.000000 0.976008
0.863909 1.000000 0.980711
0.982091 1.000000 0.983368
1.000000 1.000000 0.983862
1.000000 1.000000 0.983871
0.000000 0.000000 0.996434
0.000000 0.000000 0.996440
0.000000 0.000000 0.996570
0.000000 0.000000 0.997409
0.618681 0.000000 1.000000
0.907128 0.000000 1.000000
1.000000 0.000000 1.000000
1.000000 0.000000 1.000000
1.000000 0.000000 1.000000
0.000000 0.000000 0.996429
0.000000 0.000000 0.996436
0.000000 0.000000 0.996566
0.000000 0.000000 0.997404
0.618636 0.000000 1.000000
0.907105 0.000000 1.000000
1.000000 0.000000 1.000000
1.000000 0.000000 1.000000
1.000000 0.000000 1.000000
0.000000 0.000000 0.996337
0.000000 0.000000 0.996343
0.000000 0.000000 0.996473
0.000000 0.000000 0.997313
0.617662 0.000000 1.000000
0.906605 0.000000 1.000000
1.000000 0.000000 1.000000
1.000000 0.000000 1.000000
1.000000 0.000000 1.000000
0.000000 0.000000 0.995742
0.000000 0.000000 0.995747
0.000000 0.000000 0.995878
0.000000 0.000000 0.996718
0.611320 0.000000 0.999460
0.903368 0.000000 1.000000
1.000000 0.000000 1.000000
1.000000 0.000000 1.000000
1.000000 0.000000 1.000000
0.000000 0.490424 0.993789
0.000000 0.490434 0.993795
0.000000 0.490642 0.993925
0.000000 0.491983 0.994769
0.589748 0.496327 0.997520
0.892632 0.503385 1.000000
1.000000 0.507328 1.000000
1.000000 0.508058 1.000000
1.000000 0.508071 1.000000
0.000000 0.852276 0.990541
0.000000 0.852280 0.990547
0.000000 0.852362 0.990679
0.000000 0.852885 0.991527
0.550815 0.854597 0.994294
0.874338 0.857417 0.998844
0.990415 0.859014 1.000000
1.000000 0.859311 1.000000
1.000000 0.859316 1.000000
0.000000 0.974412 0.988685
0.000000 0.974415 0.988691
0.000000 0.974480 0.988823
0.000000 0.974892 0.989675
0.526458 0.976242 0.992451
0.863622 0.978469 0.997015
0.981863 0.979731 0.999595
1.000000 0.979967 1.000000
1.000000 0.979971 1.000000
0.000000 0.994379 0.988338
0.000000 0.994382 0.988344
0.000000 0.994443 0.988477
0.000000 0.994841 0.989328
0.521699 0.996143 0.992106
0.861596 0.998290 0.996674
0.980251 0.999509 0.999255
0.999735 0.999735 0.999735
1.000000 0.999740 0.999743
0.000000 0.994707 0.988332
0.000000 0.994710 0.988338
0.000000 0.994772 0.988471
0.000000 0.995170 0.989322
0.521618 0.996471 0.992100
0.861562 0.998617 0.996668
0.980225 0.999834 0.999249
0.999709 1.000000 0.999729
1.000000 1.000000 0.999738
0.000000 0.000000 0.996697
0.000000 0.000000 0.996703
0.000000 0.000000 0.996833
0.000000 0.000000 0.997673
0.618610 0.000000 1.000000
0.907092 0.000000 1.000000
1.000000 0.000000 1.000000
1.000000 0.000000 1.000000
1.000000 0.000000 1.000000
0.000000 0.000000 0.996693
0.000000 0.000000 0.996699
0.000000 0.000000 0.996829
0.000000 0.000000 0.997668
0.618565 0.000000 1.000000
0.907068 0.000000 1.000000
1.000000 0.000000 1.000000
1.000000 0.000000 1.000000
1.000000 0.000000 1.000000
0.000000 0.000000 0.996601
0.000000 0.000000 0.996606
0.000000 0.000000 0.996737
0.000000 0.000000 0.997576
0.617591 0.000000 1.000000
0.906569 0.000000 1.000000
1.000000 0.000000 1.000000
1.000000 0.000000 1.000000
1.000000 0.000000 1.000000
0.000000 0.000000 0.996006
0.000000 0.000000 0.996012
0.000000 0.000000 0.996142
0.000000 0.000000 0.996982
0.611249 0.000000 0.999722
0.903332 0.000000 1.000000
1.000000 0.000000 1.000000
1.000000 0.000000 1.000000
1.000000 0.000000 1.000000
0.000000 0.490204 0.994054
0.000000 0.490213 0.994060
0.000000 0.490422 0.994190
0.000000 0.491763 0.995034
0.589672 0.496111 0.997783
0.892594 0.503173 1.000000
1.000000 0.507119 1.000000
1.000000 0.507850 1.000000
1.000000 0.507863 1.000000
0.000000 0.852190 0.990808
0.000000 0.852194 0.990813
0.000000 0.852275 0.990946
0.000000 0.852800 0.991793
0.550730 0.854512 0.994559
0.874300 0.857331 0.999106
0.990384 0.858929 1.000000
1.000000 0.859226 1.000000
1.000000 0.859231 1.000000
0.000000 0.974344 0.988953
0.000000 0.974347 0.988959
0.000000 0.974411 0.989090
0.000000 0.974825 0.989941
0.526366 0.976174 0.992716
0.863583 0.978401 0.997278
0.981832 0.979664 0.999858
1.000000 0.979899 1.000000
1.000000 0.979903 1.000000
0.000000 0.994313 0.988606
0.000000 0.994316 0.988611
0.000000 0.994378 0.988744
0.000000 0.994776 0.989595
0.521606 0.996078 0.992372
0.861556 0.998226 0.996937
0.980220 0.999443 0.999517
0.999705 0.999671 0.999998
1.000000 0.999675 1.000000
0.000000 0.994642 0.988600
0.000000 0.994645 0.988606
0.000000 0.994706 0.988738
0.000000 0.995105 0.989589
0.521525 0.996405 0.992366
0.861522 0.998552 0.996932
0.980193 0.999769 0.999511
0.999679 0.999996 0.999992
1.000000 1.000000 1.000000
