test-footage/LUT/AlexaV3_EI0800_LogC2Video_DCIP3D65_LE_aftereffects3d.cube
# Alexa conversion LUT, logc2video, p3d65. Legal in/full out.
# created by alexalutconv (2.10)
LUT_3D_SIZE 5
0.000000 0.000000 0.000000
0.159558 0.002805 0.005935
0.705958 0.074530 0.127474
1.000000 0.154490 0.230131
1.000000 0.158449 0.235213
0.000000 0.160852 0.000000
0.151984 0.161912 0.001732
0.705145 0.187270 0.125388
1.000000 0.227812 0.229115
1.000000 0.230265 0.234226
0.000000 0.709856 0.000000
0.000000 0.709973 0.000000
0.683142 0.713046 0.047334
1.000000 0.719091 0.199831
1.000000 0.719504 0.205921
0.000000 1.000000 0.000000
0.000000 1.000000 0.000000
0.635343 1.000000 0.000000
1.000000 1.000000 0.114937
1.000000 1.000000 0.126101
0.000000 1.000000 0.000000
0.000000 1.000000 0.000000
0.631821 1.000000 0.000000
1.000000 1.000000 0.106311
1.000000 1.000000 0.118307
0.000000 0.000000 0.141868
0.150741 0.000000 0.144442
0.705017 0.028904 0.199051
1.000000 0.133977 0.271516
1.000000 0.138604 0.275577
0.000000 0.141398 0.140014
0.142624 0.142624 0.142624
0.704202 0.171397 0.197820
1.000000 0.215716 0.270708
1.000000 0.218352 0.274786
0.000000 0.707856 0.075919
0.000000 0.707974 0.080547
0.682145 0.711062 0.161103
1.000000 0.717135 0.248071
1.000000 0.717550 0.252669
0.000000 1.000000 0.000000
0.000000 1.000000 0.000000
0.634214 1.000000 0.020486
1.000000 1.000000 0.191836
1.000000 1.000000 0.198240
0.000000 1.000000 0.000000
0.000000 1.000000 0.000000
0.630682 1.000000 0.005338
1.000000 1.000000 0.187132
1.000000 1.000000 0.193732
0.000000 0.000000 0.652673
0.000000 0.000000 0.652960
0.679399 0.000000 0.660424
1.000000 0.000000 0.674854
1.000000 0.000000 0.675828
0.000000 0.000000 0.652471
0.000000 0.000000 0.652757
0.678531 0.000000 0.660225
1.000000 0.000000 0.674662
1.000000 0.000000 0.675637
0.000000 0.651256 0.647089
0.000000 0.651392 0.647380
0.654952 0.654952 0.654952
1.000000 0.661935 0.669583
1.000000 0.662411 0.670570
0.000000 1.000000 0.636152
0.000000 1.000000 0.636451
0.603185 1.000000 0.644243
1.000000 1.000000 0.659279
1.000000 1.000000 0.660293
0.000000 1.000000 0.635387
0.000000 1.000000 0.635687
0.599337 1.000000 0.643494
1.000000 1.000000 0.658560
1.000000 1.000000 0.659575
0.000000 0.000000 0.980470
0.000000 0.000000 0.980610
0.622835 0.000000 0.984292
1.000000 0.000000 0.991542
1.000000 0.000000 0.992038
0.000000 0.000000 0.980370
0.000000 0.000000 0.980511
0.621828 0.000000 0.984193
1.000000 0.000000 0.991445
1.000000 0.000000 0.991940
0.000000 0.503309 0.977747
0.000000 0.503518 0.977888
0.594249 0.508971 0.981588
1.000000 0.519539 0.988874
1.000000 0.520253 0.989372
0.000000 0.978445 0.972491
0.000000 0.978511 0.972633
0.531884 0.980261 0.976369
0.983724 0.983724 0.983724
1.000000 0.983962 0.984227
0.000000 0.998594 0.972127
0.000000 0.998658 0.972270
0.527127 1.000000 0.976008
0.982091 1.000000 0.983368
1.000000 1.000000 0.983871
0.000000 0.000000 0.996697
0.000000 0.000000 0.996833
0.618610 0.000000 1.000000
1.000000 0.000000 1.000000
1.000000 0.000000 1.000000
0.000000 0.000000 0.996601
0.000000 0.000000 0.996737
0.617591 0.000000 1.000000
1.000000 0.000000 1.000000
1.000000 0.000000 1.000000
0.000000 0.490204 0.994054
0.000000 0.490422 0.994190
0.589672 0.496111 0.997783
1.000000 0.507119 1.000000
1.000000 0.507863 1.000000
0.000000 0.974344 0.988953
0.000000 0.974411 0.989090
0.526366 0.976174 0.992716
0.981832 0.979664 0.999858
1.000000 0.979903 1.000000
0.000000 0.994642 0.988600
0.000000 0.994706 0.988738
0.521525 0.996405 0.992366
0.980193 0.999769 0.999511
1.000000 1.000000 1.000000
