test-footage/LUT/AlexaV3_EI0800_LogC2Video_DCIP3_LE_aftereffects3d.cube
# Alexa conversion LUT, logc2video, p3. Legal in/full out.
# created by alexalutconv (2.10)
LUT_3D_SIZE 17
0.000000 0.000000 0.000000
0.000000 0.000000 0.000000
0.011179 0.000171 0.000276
0.082620 0.001333 0.002148
0.165649 0.003869 0.006239
0.274114 0.010406 0.016779
0.423194 0.027710 0.044683
0.577071 0.059084 0.088623
0.724303 0.095640 0.131489
0.862835 0.130035 0.171823
0.979191 0.158925 0.205701
1.000000 0.176132 0.225878
1.000000 0.184650 0.235867
1.000000 0.187837 0.239605
1.000000 0.188985 0.240950
1.000000 0.189057 0.241034
1.000000 0.189057 0.241034
0.000000 0.000000 0.000000
0.000000 0.000000 0.000000
0.011179 0.000171 0.000276
0.082620 0.001333 0.002148
0.165649 0.003869 0.006239
0.274114 0.010406 0.016779
0.423194 0.027710 0.044683
0.577071 0.059084 0.088623
0.724303 0.095640 0.131489
0.862835 0.130035 0.171823
0.979191 0.158925 0.205701
1.000000 0.176132 0.225878
1.000000 0.184650 0.235867
1.000000 0.187837 0.239605
1.000000 0.188985 0.240950
1.000000 0.189057 0.241034
1.000000 0.189057 0.241034
0.000000 0.010554 0.000000
0.000000 0.010554 0.000000
0.009505 0.010725 0.000000
0.081364 0.011887 0.001837
0.165034 0.014423 0.005927
0.273798 0.020960 0.016468
0.423029 0.038264 0.044372
0.576970 0.068711 0.088405
0.724236 0.102331 0.131341
0.862785 0.135017 0.171713
0.979152 0.162924 0.205613
1.000000 0.179676 0.225801
1.000000 0.187997 0.235794
1.000000 0.191114 0.239534
1.000000 0.192238 0.240880
1.000000 0.192308 0.240964
1.000000 0.192308 0.240964
0.000000 0.078926 0.000000
0.000000 0.078926 0.000000
0.000000 0.079058 0.000000
0.072374 0.079952 0.000000
0.160790 0.081875 0.003814
0.271630 0.086664 0.014353
0.421906 0.098340 0.042258
0.576294 0.116736 0.086908
0.723776 0.139522 0.130330
0.862447 0.164497 0.170970
0.978883 0.187427 0.205021
1.000000 0.201733 0.225277
1.000000 0.208965 0.235301
1.000000 0.211694 0.239050
1.000000 0.212679 0.240400
1.000000 0.212740 0.240484
1.000000 0.212740 0.240484
0.000000 0.160378 0.000000
0.000000 0.160378 0.000000
0.000000 0.160443 0.000000
0.049202 0.160884 0.000000
0.151032 0.161842 0.000000
0.266810 0.164280 0.009738
0.419437 0.170536 0.037642
0.574813 0.181239 0.083559
0.722772 0.195796 0.128090
0.861709 0.213184 0.169334
0.978294 0.230262 0.203719
1.000000 0.241378 0.224127
1.000000 0.247116 0.234217
1.000000 0.249301 0.237990
1.000000 0.250093 0.239348
1.000000 0.250142 0.239432
1.000000 0.250142 0.239432
0.000000 0.266785 0.000000
0.000000 0.266785 0.000000
0.000000 0.266819 0.000000
0.000000 0.267047 0.000000
0.121814 0.267544 0.000000
0.253787 0.268821 0.000000
0.412967 0.272159 0.025746
0.570964 0.278079 0.074353
0.720173 0.286535 0.122119
0.859801 0.297215 0.165027
0.976773 0.308274 0.200314
1.000000 0.315754 0.221129
1.000000 0.319698 0.231393
1.000000 0.321215 0.235227
1.000000 0.321765 0.236607
1.000000 0.321800 0.236693
1.000000 0.321800 0.236693
0.000000 0.413034 0.000000
0.000000 0.413034 0.000000
0.000000 0.413052 0.000000
0.000000 0.413171 0.000000
0.000000 0.413430 0.000000
0.213870 0.414097 0.000000
0.395018 0.415856 0.000000
0.560560 0.419021 0.044939
0.713214 0.423644 0.104628
0.854714 0.429648 0.152924
0.972726 0.436056 0.190922
1.000000 0.440498 0.212919
1.000000 0.442873 0.223684
1.000000 0.443793 0.227693
1.000000 0.444128 0.229134
1.000000 0.444149 0.229224
1.000000 0.444149 0.229224
0.000000 0.563990 0.000000
0.000000 0.563990 0.000000
0.000000 0.564001 0.000000
0.000000 0.564072 0.000000
0.000000 0.564229 0.000000
0.092575 0.564632 0.000000
0.358711 0.565697 0.000000
0.540793 0.567623 0.000000
0.700264 0.570458 0.062597
0.845335 0.574178 0.127571
0.965298 0.578195 0.172194
1.000000 0.581007 0.196845
1.000000 0.582520 0.208697
1.000000 0.583107 0.213082
1.000000 0.583322 0.214655
1.000000 0.583335 0.214753
1.000000 0.583335 0.214753
0.000000 0.708427 0.000000
0.000000 0.708427 0.000000
0.000000 0.708434 0.000000
0.000000 0.708483 0.000000
0.000000 0.708589 0.000000
0.000000 0.708863 0.000000
0.291500 0.709588 0.000000
0.509085 0.710900 0.000000
0.680275 0.712837 0.000000
0.831084 0.715390 0.075305
0.954095 0.718160 0.138794
1.000000 0.720106 0.169390
1.000000 0.721157 0.183503
1.000000 0.721565 0.188647
1.000000 0.721714 0.190484
1.000000 0.721724 0.190598
1.000000 0.721724 0.190598
0.000000 0.844330 0.000000
0.000000 0.844330 0.000000
0.000000 0.844335 0.000000
0.000000 0.844371 0.000000
0.000000 0.844449 0.000000
0.000000 0.844650 0.000000
0.132143 0.845184 0.000000
0.461311 0.846151 0.000000
0.652128 0.847581 0.000000
0.811513 0.849470 0.000000
0.938880 0.851524 0.072328
1.000000 0.852970 0.121731
1.000000 0.853751 0.141509
1.000000 0.854055 0.148432
1.000000 0.854166 0.150871
1.000000 0.854173 0.151023
1.000000 0.854173 0.151023
0.000000 0.958478 0.000000
0.000000 0.958478 0.000000
0.000000 0.958482 0.000000
0.000000 0.958511 0.000000
0.000000 0.958573 0.000000
0.000000 0.958734 0.000000
0.000000 0.959160 0.000000
0.397922 0.959933 0.000000
0.618814 0.961076 0.000000
0.789149 0.962586 0.000000
0.921744 0.964231 0.000000
0.998180 0.965391 0.028135
1.000000 0.966018 0.068755
1.000000 0.966262 0.081785
1.000000 0.966351 0.086133
1.000000 0.966356 0.086400
1.000000 0.966356 0.086400
0.000000 1.000000 0.000000
0.000000 1.000000 0.000000
0.000000 1.000000 0.000000
0.000000 1.000000 0.000000
0.000000 1.000000 0.000000
0.000000 1.000000 0.000000
0.000000 1.000000 0.000000
0.341244 1.000000 0.000000
0.593292 1.000000 0.000000
0.772643 1.000000 0.000000
0.909280 1.000000 0.000000
0.987399 1.000000 0.000000
1.000000 1.000000 0.000000
1.000000 1.000000 0.000000
1.000000 1.000000 0.005144
1.000000 1.000000 0.005514
1.000000 1.000000 0.005514
0.000000 1.000000 0.000000
0.000000 1.000000 0.000000
0.000000 1.000000 0.000000
0.000000 1.000000 0.000000
0.000000 1.000000 0.000000
0.000000 1.000000 0.000000
0.000000 1.000000 0.000000
0.303494 1.000000 0.000000
0.578664 1.000000 0.000000
0.763441 1.000000 0.000000
0.902400 1.000000 0.000000
0.981469 1.000000 0.000000
1.000000 1.000000 0.000000
1.000000 1.000000 0.000000
1.000000 1.000000 0.000000
1.000000 1.000000 0.000000
1.000000 1.000000 0.000000
0.000000 1.000000 0.000000
0.000000 1.000000 0.000000
0.000000 1.000000 0.000000
0.000000 1.000000 0.000000
0.000000 1.000000 0.000000
0.000000 1.000000 0.000000
0.000000 1.000000 0.000000
0.286759 1.000000 0.000000
0.572798 1.000000 0.000000
0.759806 1.000000 0.000000
0.899698 1.000000 0.000000
0.979144 1.000000 0.000000
1.000000 1.000000 0.000000
1.000000 1.000000 0.000000
1.000000 1.000000 0.000000
1.000000 1.000000 0.000000
1.000000 1.000000 0.000000
0.000000 1.000000 0.000000
0.000000 1.000000 0.000000
0.000000 1.000000 0.000000
0.000000 1.000000 0.000000
0.000000 1.000000 0.000000
0.000000 1.000000 0.000000
0.000000 1.000000 0.000000
0.280281 1.000000 0.000000
0.570631 1.000000 0.000000
0.758470 1.000000 0.000000
0.898706 1.000000 0.000000
0.978293 1.000000 0.000000
1.000000 1.000000 0.000000
1.000000 1.000000 0.000000
1.000000 1.000000 0.000000
1.000000 1.000000 0.000000
1.000000 1.000000 0.000000
0.000000 1.000000 0.000000
0.000000 1.000000 0.000000
0.000000 1.000000 0.000000
0.000000 1.000000 0.000000
0.000000 1.000000 0.000000
0.000000 1.000000 0.000000
0.000000 1.000000 0.000000
0.279868 1.000000 0.000000
0.570494 1.000000 0.000000
0.758386 1.000000 0.000000
0.898644 1.000000 0.000000
0.978240 1.000000 0.000000
1.000000 1.000000 0.000000
1.000000 1.000000 0.000000
1.000000 1.000000 0.000000
1.000000 1.000000 0.000000
1.000000 1.000000 0.000000
0.000000 1.000000 0.000000
0.000000 1.000000 0.000000
0.000000 1.000000 0.000000
0.000000 1.000000 0.000000
0.000000 1.000000 0.000000
0.000000 1.000000 0.000000
0.000000 1.000000 0.000000
0.279868 1.000000 0.000000
0.570494 1.000000 0.000000
0.758386 1.000000 0.000000
0.898644 1.000000 0.000000
0.978240 1.000000 0.000000
1.000000 1.000000 0.000000
1.000000 1.000000 0.000000
1.000000 1.000000 0.000000
1.000000 1.000000 0.000000
1.000000 1.000000 0.000000
0.000000 0.000000 0.000000
0.000000 0.000000 0.000000
0.011179 0.000171 0.000276
0.082620 0.001333 0.002148
0.165649 0.003869 0.006239
0.274114 0.010406 0.016779
0.423194 0.027710 0.044683
0.577071 0.059084 0.088623
0.724303 0.095640 0.131489
0.862835 0.130035 0.171823
0.979191 0.158925 0.205701
1.000000 0.176132 0.225878
1.000000 0.184650 0.235867
1.000000 0.187837 0.239605
1.000000 0.188985 0.240950
1.000000 0.189057 0.241034
1.000000 0.189057 0.241034
0.000000 0.000000 0.000000
0.000000 0.000000 0.000000
0.011179 0.000171 0.000276
0.082620 0.001333 0.002148
0.165649 0.003869 0.006239
0.274114 0.010406 0.016779
0.423194 0.027710 0.044683
0.577071 0.059084 0.088623
0.724303 0.095640 0.131489
0.862835 0.130035 0.171823
0.979191 0.158925 0.205701
1.000000 0.176132 0.225878
1.000000 0.184650 0.235867
1.000000 0.187837 0.239605
1.000000 0.188985 0.240950
1.000000 0.189057 0.241034
1.000000 0.189057 0.241034
0.000000 0.010554 0.000000
0.000000 0.010554 0.000000
0.009505 0.010725 0.000000
0.081364 0.011887 0.001837
0.165034 0.014423 0.005927
0.273798 0.020960 0.016468
0.423029 0.038264 0.044372
0.576970 0.068711 0.088405
0.724236 0.102331 0.131341
0.862785 0.135017 0.171713
0.979152 0.162924 0.205613
1.000000 0.179676 0.225801
1.000000 0.187997 0.235794
1.000000 0.191114 0.239534
1.000000 0.192238 0.240880
1.000000 0.192308 0.240964
1.000000 0.192308 0.240964
0.000000 0.078926 0.000000
0.000000 0.078926 0.000000
0.000000 0.079058 0.000000
0.072374 0.079952 0.000000
0.160790 0.081875 0.003814
0.271630 0.086664 0.014353
0.421906 0.098340 0.042258
0.576294 0.116736 0.086908
0.723776 0.139522 0.130330
0.862447 0.164497 0.170970
0.978883 0.187427 0.205021
1.000000 0.201733 0.225277
1.000000 0.208965 0.235301
1.000000 0.211694 0.239050
1.000000 0.212679 0.240400
1.000000 0.212740 0.240484
1.000000 0.212740 0.240484
0.000000 0.160378 0.000000
0.000000 0.160378 0.000000
0.000000 0.160443 0.000000
0.049202 0.160884 0.000000
0.151032 0.161842 0.000000
0.266810 0.164280 0.009738
0.419437 0.170536 0.037642
0.574813 0.181239 0.083559
0.722772 0.195796 0.128090
0.861709 0.213184 0.169334
0.978294 0.230262 0.203719
1.000000 0.241378 0.224127
1.000000 0.247116 0.234217
1.000000 0.249301 0.237990
1.000000 0.250093 0.239348
1.000000 0.250142 0.239432
1.000000 0.250142 0.239432
0.000000 0.266785 0.000000
0.000000 0.266785 0.000000
0.000000 0.266819 0.000000
0.000000 0.267047 0.000000
0.121814 0.267544 0.000000
0.253787 0.268821 0.000000
0.412967 0.272159 0.025746
0.570964 0.278079 0.074353
0.720173 0.286535 0.122119
0.859801 0.297215 0.165027
0.976773 0.308274 0.200314
1.000000 0.315754 0.221129
1.000000 0.319698 0.231393
1.000000 0.321215 0.235227
1.000000 0.321765 0.236607
1.000000 0.321800 0.236693
1.000000 0.321800 0.236693
0.000000 0.413034 0.000000
0.000000 0.413034 0.000000
0.000000 0.413052 0.000000
0.000000 0.413171 0.000000
0.000000 0.413430 0.000000
0.213870 0.414097 0.000000
0.395018 0.415856 0.000000
0.560560 0.419021 0.044939
0.713214 0.423644 0.104628
0.854714 0.429648 0.152924
0.972726 0.436056 0.190922
1.000000 0.440498 0.212919
1.000000 0.442873 0.223684
1.000000 0.443793 0.227693
1.000000 0.444128 0.229134
1.000000 0.444149 0.229224
1.000000 0.444149 0.229224
0.000000 0.563990 0.000000
0.000000 0.563990 0.000000
0.000000 0.564001 0.000000
0.000000 0.564072 0.000000
0.000000 0.564229 0.000000
0.092575 0.564632 0.000000
0.358711 0.565697 0.000000
0.540793 0.567623 0.000000
0.700264 0.570458 0.062597
0.845335 0.574178 0.127571
0.965298 0.578195 0.172194
1.000000 0.581007 0.196845
1.000000 0.582520 0.208697
1.000000 0.583107 0.213082
1.000000 0.583322 0.214655
1.000000 0.583335 0.214753
1.000000 0.583335 0.214753
0.000000 0.708427 0.000000
0.000000 0.708427 0.000000
0.000000 0.708434 0.000000
0.000000 0.708483 0.000000
0.000000 0.708589 0.000000
0.000000 0.708863 0.000000
0.291500 0.709588 0.000000
0.509085 0.710900 0.000000
0.680275 0.712837 0.000000
0.831084 0.715390 0.075305
0.954095 0.718160 0.138794
1.000000 0.720106 0.169390
1.000000 0.721157 0.183503
1.000000 0.721565 0.188647
1.000000 0.721714 0.190484
1.000000 0.721724 0.190598
1.000000 0.721724 0.190598
0.000000 0.844330 0.000000
0.000000 0.844330 0.000000
0.000000 0.844335 0.000000
0.000000 0.844371 0.000000
0.000000 0.844449 0.000000
0.000000 0.844650 0.000000
0.132143 0.845184 0.000000
0.461311 0.846151 0.000000
0.652128 0.847581 0.000000
0.811513 0.849470 0.000000
0.938880 0.851524 0.072328
1.000000 0.852970 0.121731
1.000000 0.853751 0.141509
1.000000 0.854055 0.148432
1.000000 0.854166 0.150871
1.000000 0.854173 0.151023
1.000000 0.854173 0.151023
0.000000 0.958478 0.000000
0.000000 0.958478 0.000000
0.000000 0.958482 0.000000
0.000000 0.958511 0.000000
0.000000 0.958573 0.000000
0.000000 0.958734 0.000000
0.000000 0.959160 0.000000
0.397922 0.959933 0.000000
0.618814 0.961076 0.000000
0.789149 0.962586 0.000000
0.921744 0.964231 0.000000
0.998180 0.965391 0.028135
1.000000 0.966018 0.068755
1.000000 0.966262 0.081785
1.000000 0.966351 0.086133
1.000000 0.966356 0.086400
1.000000 0.966356 0.086400
0.000000 1.000000 0.000000
0.000000 1.000000 0.000000
0.000000 1.000000 0.000000
0.000000 1.000000 0.000000
0.000000 1.000000 0.000000
0.000000 1.000000 0.000000
0.000000 1.000000 0.000000
0.341244 1.000000 0.000000
0.593292 1.000000 0.000000
0.772643 1.000000 0.000000
0.909280 1.000000 0.000000
0.987399 1.000000 0.000000
1.000000 1.000000 0.000000
1.000000 1.000000 0.000000
1.000000 1.000000 0.005144
1.000000 1.000000 0.005514
1.000000 1.000000 0.005514
0.000000 1.000000 0.000000
0.000000 1.000000 0.000000
0.000000 1.000000 0.000000
0.000000 1.000000 0.000000
0.000000 1.000000 0.000000
0.000000 1.000000 0.000000
0.000000 1.000000 0.000000
0.303494 1.000000 0.000000
0.578664 1.000000 0.000000
0.763441 1.000000 0.000000
0.902400 1.000000 0.000000
0.981469 1.000000 0.000000
1.000000 1.000000 0.000000
1.000000 1.000000 0.000000
1.000000 1.000000 0.000000
1.000000 1.000000 0.000000
1.000000 1.000000 0.000000
0.000000 1.000000 0.000000
0.000000 1.000000 0.000000
0.000000 1.000000 0.000000
0.000000 1.000000 0.000000
0.000000 1.000000 0.000000
0.000000 1.000000 0.000000
0.000000 1.000000 0.000000
0.286759 1.000000 0.000000
0.572798 1.000000 0.000000
0.759806 1.000000 0.000000
0.899698 1.000000 0.000000
0.979144 1.000000 0.000000
1.000000 1.000000 0.000000
1.000000 1.000000 0.000000
1.000000 1.000000 0.000000
1.000000 1.000000 0.000000
1.000000 1.000000 0.000000
0.000000 1.000000 0.000000
0.000000 1.000000 0.000000
0.000000 1.000000 0.000000
0.000000 1.000000 0.000000
0.000000 1.000000 0.000000
0.000000 1.000000 0.000000
0.000000 1.000000 0.000000
0.280281 1.000000 0.000000
0.570631 1.000000 0.000000
0.758470 1.000000 0.000000
0.898706 1.000000 0.000000
0.978293 1.000000 0.000000
1.000000 1.000000 0.000000
1.000000 1.000000 0.000000
1.000000 1.000000 0.000000
1.000000 1.000000 0.000000
1.000000 1.000000 0.000000
0.000000 1.000000 0.000000
0.000000 1.000000 0.000000
0.000000 1.000000 0.000000
0.000000 1.000000 0.000000
0.000000 1.000000 0.000000
0.000000 1.000000 0.000000
0.000000 1.000000 0.000000
0.279868 1.000000 0.000000
0.570494 1.000000 0.000000
0.758386 1.000000 0.000000
0.898644 1.000000 0.000000
0.978240 1.000000 0.000000
1.000000 1.000000 0.000000
1.000000 1.000000 0.000000
1.000000 1.000000 0.000000
1.000000 1.000000 0.000000
1.000000 1.000000 0.000000
0.000000 1.000000 0.000000
0.000000 1.000000 0.000000
0.000000 1.000000 0.000000
0.000000 1.000000 0.000000
0.000000 1.000000 0.000000
0.000000 1.000000 0.000000
0.000000 1.000000 0.000000
0.279868 1.000000 0.000000
0.570494 1.000000 0.000000
0.758386 1.000000 0.000000
0.898644 1.000000 0.000000
0.978240 1.000000 0.000000
1.000000 1.000000 0.000000
1.000000 1.000000 0.000000
1.000000 1.000000 0.000000
1.000000 1.000000 0.000000
1.000000 1.000000 0.000000
0.000000 0.000000 0.008658
0.000000 0.000000 0.008658
0.010297 0.000000 0.008934
0.081960 0.000000 0.010806
0.165325 0.001766 0.014897
0.273948 0.008302 0.025436
0.423106 0.025606 0.053341
0.577018 0.057032 0.094519
0.724268 0.094254 0.135543
0.862808 0.129017 0.174824
0.979170 0.158113 0.208103
1.000000 0.175414 0.228005
1.000000 0.183974 0.237874
1.000000 0.187176 0.241571
1.000000 0.188328 0.242901
1.000000 0.188400 0.242985
1.000000 0.188400 0.242985
0.000000 0.000000 0.008658
0.000000 0.000000 0.008658
0.010297 0.000000 0.008934
0.081960 0.000000 0.010806
0.165325 0.001766 0.014897
0.273948 0.008302 0.025436
0.423106 0.025606 0.053341
0.577018 0.057032 0.094519
0.724268 0.094254 0.135543
0.862808 0.129017 0.174824
0.979170 0.158113 0.208103
1.000000 0.175414 0.228005
1.000000 0.183974 0.237874
1.000000 0.187176 0.241571
1.000000 0.188328 0.242901
1.000000 0.188400 0.242985
1.000000 0.188400 0.242985
0.000000 0.008451 0.008346
0.000000 0.008451 0.008346
0.008622 0.008622 0.008622
0.080696 0.009784 0.010495
0.164710 0.012320 0.014585
0.273630 0.018857 0.025125
0.422941 0.036161 0.053029
0.576918 0.066874 0.094312
0.724200 0.101031 0.135400
0.862759 0.134041 0.174717
0.979131 0.162136 0.208018
1.000000 0.178976 0.227928
1.000000 0.187336 0.237803
1.000000 0.190467 0.241500
1.000000 0.191595 0.242831
1.000000 0.191665 0.242914
1.000000 0.191665 0.242914
0.000000 0.077284 0.006233
0.000000 0.077284 0.006233
0.000000 0.077418 0.006509
0.071638 0.078327 0.008381
0.160455 0.080283 0.012472
0.271461 0.085149 0.023011
0.421819 0.096990 0.050916
0.576242 0.115595 0.092902
0.723740 0.138580 0.134422
0.862421 0.163718 0.173990
0.978861 0.186763 0.207434
1.000000 0.201129 0.227411
1.000000 0.208388 0.237315
1.000000 0.211126 0.241022
1.000000 0.212115 0.242357
1.000000 0.212177 0.242440
1.000000 0.212177 0.242440
0.000000 0.159575 0.001617
0.000000 0.159575 0.001617
0.000000 0.159641 0.001893
0.048320 0.160085 0.003766
0.150671 0.161048 0.007856
0.266636 0.163500 0.018395
0.419349 0.169790 0.046300
0.574760 0.180547 0.089750
0.722737 0.195168 0.132256
0.861683 0.212621 0.172388
0.978272 0.229754 0.206152
1.000000 0.240902 0.226277
1.000000 0.246655 0.236244
1.000000 0.248846 0.239974
1.000000 0.249639 0.241317
1.000000 0.249689 0.241400
1.000000 0.249689 0.241400
0.000000 0.266371 0.000000
0.000000 0.266371 0.000000
0.000000 0.266405 0.000000
0.000000 0.266633 0.000000
0.121357 0.267132 0.000000
0.253601 0.268411 0.006500
0.412876 0.271757 0.034404
0.570911 0.277688 0.081140
0.720138 0.286162 0.126494
0.859775 0.296860 0.168176
0.976752 0.307938 0.202800
1.000000 0.315429 0.223317
1.000000 0.319380 0.233453
1.000000 0.320898 0.237242
1.000000 0.321449 0.238606
1.000000 0.321484 0.238691
1.000000 0.321484 0.238691
0.000000 0.412819 0.000000
0.000000 0.412819 0.000000
0.000000 0.412836 0.000000
0.000000 0.412956 0.000000
0.000000 0.413215 0.000000
0.213635 0.413883 0.000000
0.394921 0.415643 0.002912
0.560505 0.418811 0.053596
0.713177 0.423437 0.109715
0.854687 0.429446 0.156360
0.972705 0.435858 0.193562
1.000000 0.440303 0.215218
1.000000 0.442681 0.225838
1.000000 0.443600 0.229797
1.000000 0.443936 0.231220
1.000000 0.443957 0.231310
1.000000 0.443957 0.231310
0.000000 0.563860 0.000000
0.000000 0.563860 0.000000
0.000000 0.563870 0.000000
0.000000 0.563942 0.000000
0.000000 0.564099 0.000000
0.091978 0.564502 0.000000
0.358599 0.565567 0.000000
0.540735 0.567495 0.000000
0.700226 0.570330 0.070270
0.845307 0.574053 0.131756
0.965276 0.578071 0.175188
1.000000 0.580883 0.199385
1.000000 0.582397 0.211056
1.000000 0.582985 0.215378
1.000000 0.583199 0.216929
1.000000 0.583212 0.217025
1.000000 0.583212 0.217025
0.000000 0.708339 0.000000
0.000000 0.708339 0.000000
0.000000 0.708346 0.000000
0.000000 0.708395 0.000000
0.000000 0.708501 0.000000
0.000000 0.708775 0.000000
0.291347 0.709499 0.000000
0.509020 0.710812 0.000000
0.680235 0.712750 0.000000
0.831057 0.715303 0.082026
0.954073 0.718073 0.142621
1.000000 0.720021 0.172442
1.000000 0.721071 0.186275
1.000000 0.721480 0.191327
1.000000 0.721629 0.193131
1.000000 0.721638 0.193243
1.000000 0.721638 0.193243
0.000000 0.844265 0.000000
0.000000 0.844265 0.000000
0.000000 0.844270 0.000000
0.000000 0.844306 0.000000
0.000000 0.844384 0.000000
0.000000 0.844586 0.000000
0.131724 0.845119 0.000000
0.461235 0.846087 0.000000
0.652085 0.847517 0.000000
0.811485 0.849406 0.000000
0.938857 0.851459 0.079256
1.000000 0.852906 0.126122
1.000000 0.853687 0.145256
1.000000 0.853992 0.151986
1.000000 0.854103 0.154360
1.000000 0.854109 0.154508
1.000000 0.854109 0.154508
0.000000 0.958426 0.000000
0.000000 0.958426 0.000000
0.000000 0.958430 0.000000
0.000000 0.958459 0.000000
0.000000 0.958521 0.000000
0.000000 0.958682 0.000000
0.000000 0.959108 0.000000
0.397827 0.959881 0.000000
0.618768 0.961024 0.000000
0.789118 0.962535 0.000000
0.921721 0.964180 0.000000
0.998160 0.965340 0.036793
1.000000 0.965967 0.075944
1.000000 0.966211 0.088085
1.000000 0.966300 0.092172
1.000000 0.966306 0.092423
1.000000 0.966306 0.092423
0.000000 1.000000 0.000000
0.000000 1.000000 0.000000
0.000000 1.000000 0.000000
0.000000 1.000000 0.000000
0.000000 1.000000 0.000000
0.000000 1.000000 0.000000
0.000000 1.000000 0.000000
0.341123 1.000000 0.000000
0.593243 1.000000 0.000000
0.772611 1.000000 0.000000
0.909256 1.000000 0.000000
0.987377 1.000000 0.000000
1.000000 1.000000 0.000000
1.000000 1.000000 0.007885
1.000000 1.000000 0.013802
1.000000 1.000000 0.014172
1.000000 1.000000 0.014172
0.000000 1.000000 0.000000
0.000000 1.000000 0.000000
0.000000 1.000000 0.000000
0.000000 1.000000 0.000000
0.000000 1.000000 0.000000
0.000000 1.000000 0.000000
0.000000 1.000000 0.000000
0.303350 1.000000 0.000000
0.578612 1.000000 0.000000
0.763408 1.000000 0.000000
0.902376 1.000000 0.000000
0.981449 1.000000 0.000000
1.000000 1.000000 0.000000
1.000000 1.000000 0.000000
1.000000 1.000000 0.000000
1.000000 1.000000 0.000000
1.000000 1.000000 0.000000
0.000000 1.000000 0.000000
0.000000 1.000000 0.000000
0.000000 1.000000 0.000000
0.000000 1.000000 0.000000
0.000000 1.000000 0.000000
0.000000 1.000000 0.000000
0.000000 1.000000 0.000000
0.286602 1.000000 0.000000
0.572745 1.000000 0.000000
0.759773 1.000000 0.000000
0.899673 1.000000 0.000000
0.979123 1.000000 0.000000
1.000000 1.000000 0.000000
1.000000 1.000000 0.000000
1.000000 1.000000 0.000000
1.000000 1.000000 0.000000
1.000000 1.000000 0.000000
0.000000 1.000000 0.000000
0.000000 1.000000 0.000000
0.000000 1.000000 0.000000
0.000000 1.000000 0.000000
0.000000 1.000000 0.000000
0.000000 1.000000 0.000000
0.000000 1.000000 0.000000
0.280119 1.000000 0.000000
0.570577 1.000000 0.000000
0.758438 1.000000 0.000000
0.898681 1.000000 0.000000
0.978272 1.000000 0.000000
1.000000 1.000000 0.000000
1.000000 1.000000 0.000000
1.000000 1.000000 0.000000
1.000000 1.000000 0.000000
1.000000 1.000000 0.000000
0.000000 1.000000 0.000000
0.000000 1.000000 0.000000
0.000000 1.000000 0.000000
0.000000 1.000000 0.000000
0.000000 1.000000 0.000000
0.000000 1.000000 0.000000
0.000000 1.000000 0.000000
0.279706 1.000000 0.000000
0.570441 1.000000 0.000000
0.758354 1.000000 0.000000
0.898620 1.000000 0.000000
0.978218 1.000000 0.000000
1.000000 1.000000 0.000000
1.000000 1.000000 0.000000
1.000000 1.000000 0.000000
1.000000 1.000000 0.000000
1.000000 1.000000 0.000000
0.000000 1.000000 0.000000
0.000000 1.000000 0.000000
0.000000 1.000000 0.000000
0.000000 1.000000 0.000000
0.000000 1.000000 0.000000
0.000000 1.000000 0.000000
0.000000 1.000000 0.000000
0.279706 1.000000 0.000000
0.570441 1.000000 0.000000
0.758354 1.000000 0.000000
0.898620 1.000000 0.000000
0.978218 1.000000 0.000000
1.000000 1.000000 0.000000
1.000000 1.000000 0.000000
1.000000 1.000000 0.000000
1.000000 1.000000 0.000000
1.000000 1.000000 0.000000
0.000000 0.000000 0.066726
0.000000 0.000000 0.066726
0.004306 0.000000 0.066969
0.077358 0.000000 0.068605
0.163109 0.000000 0.072076
0.272808 0.000000 0.080467
0.422516 0.011330 0.099735
0.576662 0.042761 0.127768
0.724025 0.084310 0.160096
0.862630 0.121871 0.193715
0.979028 0.152474 0.223534
1.000000 0.170451 0.241786
1.000000 0.179300 0.250931
1.000000 0.182604 0.254369
1.000000 0.183793 0.255609
1.000000 0.183867 0.255687
1.000000 0.183867 0.255687
