test-footage/LUT/AlexaV3_EI3200_LogC2Video_Rec709_LL_aftereffects3d.cube
# Alexa conversion LUT, logc2video, itu709. Legal in/legal out.
# created by alexalutconv (2.09)
LUT_3D_SIZE 8
DOMAIN_MIN 0.000000 0.000000 0.000000
DOMAIN_MAX 0.903226 0.903226 0.903226
0.062561 0.062561 0.062561
0.079019 0.062561 0.062680
0.205198 0.062561 0.064093
0.446947 0.062561 0.073700
0.732691 0.062561 0.103433
0.918866 0.062561 0.141732
0.918866 0.062561 0.155092
0.918866 0.062561 0.157280
0.062561 0.076779 0.062561
0.074573 0.076405 0.062561
0.203441 0.071984 0.062740
0.446449 0.062561 0.072348
0.732473 0.062561 0.102080
0.918866 0.062561 0.140789
0.918866 0.062561 0.154270
0.918866 0.062561 0.156476
0.062561 0.193400 0.062561
0.062561 0.193239 0.062561
0.180563 0.191319 0.062561
0.440496 0.177374 0.062561
0.729884 0.116748 0.086087
0.918866 0.062561 0.128836
0.918866 0.062561 0.144003
0.918866 0.062561 0.146447
0.062561 0.422511 0.062561
0.062561 0.422465 0.062561
0.062561 0.421922 0.062561
0.395924 0.418199 0.062561
0.711844 0.406321 0.062561
0.918866 0.387184 0.062561
0.918866 0.377851 0.062561
0.918866 0.376159 0.062561
0.062561 0.693319 0.062561
0.062561 0.693298 0.062561
0.062561 0.693061 0.062561
0.075942 0.691437 0.062561
0.650480 0.686373 0.062561
0.918866 0.678590 0.062561
0.918866 0.674965 0.062561
0.918866 0.674320 0.062561
0.062561 0.916787 0.062561
0.062561 0.916775 0.062561
0.062561 0.916625 0.062561
0.062561 0.915612 0.062561
0.533255 0.912464 0.062561
0.860538 0.907667 0.062561
0.918866 0.905449 0.062561
0.918866 0.905055 0.062561
0.062561 0.918866 0.062561
0.062561 0.918866 0.062561
0.062561 0.918866 0.062561
0.062561 0.918866 0.062561
0.461268 0.918866 0.062561
0.830879 0.918866 0.062561
0.918866 0.918866 0.062561
0.918866 0.918866 0.062561
0.062561 0.918866 0.062561
0.062561 0.918866 0.062561
0.062561 0.918866 0.062561
0.062561 0.918866 0.062561
0.446437 0.918866 0.062561
0.825442 0.918866 0.062561
0.918866 0.918866 0.062561
0.918866 0.918866 0.062561
0.062561 0.062561 0.074877
0.078091 0.062561 0.074996
0.204833 0.062561 0.076409
0.446843 0.062561 0.086016
0.732646 0.062561 0.115590
0.918866 0.062561 0.149912
0.918866 0.062561 0.162285
0.918866 0.062561 0.164329
0.062561 0.074018 0.073525
0.073644 0.073644 0.073644
0.203072 0.069223 0.075056
0.446345 0.062561 0.084664
0.732427 0.062561 0.114310
0.918866 0.062561 0.149047
0.918866 0.062561 0.161519
0.918866 0.062561 0.163578
0.062561 0.192205 0.062561
0.062561 0.192043 0.062561
0.180117 0.190104 0.062561
0.440390 0.176006 0.068671
0.729837 0.114150 0.098403
0.918866 0.062561 0.138177
0.918866 0.062561 0.152002
0.918866 0.062561 0.154257
0.062561 0.422172 0.062561
0.062561 0.422126 0.062561
0.062561 0.421583 0.062561
0.395797 0.417855 0.062561
0.711796 0.405960 0.062561
0.918866 0.386793 0.062561
0.918866 0.377444 0.062561
0.918866 0.375750 0.062561
0.062561 0.693170 0.062561
0.062561 0.693150 0.062561
0.062561 0.692912 0.062561
0.075013 0.691288 0.062561
0.650424 0.686222 0.062561
0.918866 0.678436 0.062561
0.918866 0.674809 0.062561
0.918866 0.674164 0.062561
0.062561 0.916694 0.062561
0.062561 0.916682 0.062561
0.062561 0.916533 0.062561
0.062561 0.915519 0.062561
0.533178 0.912370 0.062561
0.860503 0.907572 0.062561
0.918866 0.905354 0.062561
0.918866 0.904960 0.062561
0.062561 0.918866 0.062561
0.062561 0.918866 0.062561
0.062561 0.918866 0.062561
0.062561 0.918866 0.062561
0.461169 0.918866 0.062561
0.830842 0.918866 0.062561
0.918866 0.918866 0.062561
0.918866 0.918866 0.062561
0.062561 0.918866 0.062561
0.062561 0.918866 0.062561
0.062561 0.918866 0.062561
0.062561 0.918866 0.062561
0.446333 0.918866 0.062561
0.825405 0.918866 0.062561
0.918866 0.918866 0.062561
0.918866 0.918866 0.062561
0.062561 0.062561 0.182417
0.067108 0.062561 0.182473
0.200439 0.062561 0.183137
0.445612 0.062561 0.187555
0.732106 0.062561 0.200296
0.918866 0.062561 0.217454
0.918866 0.062561 0.224663
0.918866 0.062561 0.225902
0.062561 0.062561 0.181778
0.062661 0.062561 0.181834
0.198616 0.062561 0.182501
0.445112 0.062561 0.186943
0.731888 0.062561 0.199744
0.918866 0.062561 0.216968
0.918866 0.062561 0.224203
0.918866 0.062561 0.225445
0.062561 0.177104 0.173938
0.062561 0.176919 0.173999
0.174713 0.174713 0.174713
0.439129 0.158405 0.179455
0.729295 0.081571 0.193023
0.918866 0.062561 0.211096
0.918866 0.062561 0.218636
0.918866 0.062561 0.219928
0.062561 0.418132 0.094394
0.062561 0.418085 0.094513
0.062561 0.417533 0.095925
0.394294 0.413745 0.105533
0.711230 0.401647 0.132131
0.918866 0.382119 0.161637
0.918866 0.372575 0.172776
0.918866 0.370844 0.174635
0.062561 0.691407 0.062561
0.062561 0.691388 0.062561
0.062561 0.691148 0.062561
0.064031 0.689517 0.062561
0.649766 0.684429 0.062561
0.918866 0.676609 0.062561
0.918866 0.672965 0.062561
0.918866 0.672317 0.062561
0.062561 0.915594 0.062561
0.062561 0.915581 0.062561
0.062561 0.915432 0.062561
0.062561 0.914416 0.062561
0.532260 0.911261 0.062561
0.860091 0.906453 0.062561
0.918866 0.904230 0.062561
0.918866 0.903835 0.062561
0.062561 0.918866 0.062561
0.062561 0.918866 0.062561
0.062561 0.918866 0.062561
0.062561 0.918866 0.062561
0.460001 0.918866 0.062561
0.830406 0.918866 0.062561
0.918866 0.918866 0.062561
0.918866 0.918866 0.062561
0.062561 0.918866 0.062561
0.062561 0.918866 0.062561
0.062561 0.918866 0.062561
0.062561 0.918866 0.062561
0.445100 0.918866 0.062561
0.824963 0.918866 0.062561
0.918866 0.918866 0.062561
0.918866 0.918866 0.062561
0.062561 0.062561 0.399764
0.062561 0.062561 0.399780
0.165431 0.062561 0.399970
0.437089 0.062561 0.401255
0.728420 0.062561 0.405191
0.918866 0.062561 0.411028
0.918866 0.062561 0.413664
0.918866 0.062561 0.414128
0.062561 0.062561 0.399582
0.062561 0.062561 0.399599
0.162965 0.062561 0.399788
0.436573 0.062561 0.401075
0.728199 0.062561 0.405013
0.918866 0.062561 0.410855
0.918866 0.062561 0.413493
0.918866 0.062561 0.413957
0.062561 0.062561 0.397424
0.062561 0.062561 0.397440
0.127985 0.062561 0.397632
0.430393 0.062561 0.398930
0.725584 0.062561 0.402903
0.918866 0.062561 0.408793
0.918866 0.062561 0.411453
0.918866 0.062561 0.411921
0.062561 0.388760 0.382203
0.062561 0.388707 0.382220
0.062561 0.388085 0.382425
0.383807 0.383807 0.383807
0.707358 0.370049 0.388036
0.918866 0.347489 0.394294
0.918866 0.336278 0.397115
0.918866 0.334229 0.397611
0.062561 0.679213 0.327313
0.062561 0.679193 0.327335
0.062561 0.678946 0.327598
0.062561 0.677266 0.329375
0.645257 0.672021 0.334780
0.916851 0.663953 0.342695
0.918866 0.660192 0.346233
0.918866 0.659523 0.346853
0.062561 0.908049 0.190910
0.062561 0.908036 0.190963
0.062561 0.907885 0.191581
0.062561 0.906855 0.195709
0.525946 0.903655 0.207690
0.857283 0.898778 0.223986
0.918866 0.896523 0.230879
0.918866 0.896122 0.232065
0.062561 0.918866 0.062561
0.062561 0.918866 0.062561
0.062561 0.918866 0.062561
0.062561 0.918866 0.062561
0.451924 0.918866 0.062561
0.827427 0.918866 0.091114
0.918866 0.918866 0.111767
0.918866 0.918866 0.115292
0.062561 0.918866 0.062561
0.062561 0.918866 0.062561
0.062561 0.918866 0.062561
0.062561 0.918866 0.062561
0.436561 0.918866 0.062561
0.821950 0.918866 0.062561
0.918866 0.918866 0.070375
0.918866 0.918866 0.074031
0.062561 0.062561 0.656668
0.062561 0.062561 0.656674
0.062561 0.062561 0.656758
0.408802 0.062561 0.657324
0.716808 0.062561 0.659070
0.918866 0.062561 0.661697
0.918866 0.062561 0.662898
0.918866 0.062561 0.663110
0.062561 0.062561 0.656588
0.062561 0.062561 0.656595
0.062561 0.062561 0.656678
0.408226 0.062561 0.657245
0.716582 0.062561 0.658991
0.918866 0.062561 0.661618
0.918866 0.062561 0.662820
0.918866 0.062561 0.663032
0.062561 0.062561 0.655644
0.062561 0.062561 0.655651
0.062561 0.062561 0.655734
0.401309 0.062561 0.656302
0.713894 0.062561 0.658052
0.918866 0.062561 0.660687
0.918866 0.062561 0.661890
0.918866 0.062561 0.662103
0.062561 0.259855 0.649159
0.062561 0.259754 0.649166
0.062561 0.258555 0.649251
0.347942 0.250156 0.649828
0.695148 0.220788 0.651608
0.918866 0.158618 0.654286
0.918866 0.110330 0.655509
0.918866 0.098885 0.655725
0.062561 0.638937 0.628372
0.062561 0.638914 0.628380
0.062561 0.638641 0.628469
0.062561 0.636778 0.629078
0.630957 0.630957 0.630957
0.909015 0.621976 0.633781
0.918866 0.617777 0.635072
0.918866 0.617029 0.635300
0.062561 0.884004 0.594547
0.062561 0.883990 0.594556
0.062561 0.883832 0.594654
0.062561 0.882754 0.595321
0.505563 0.879405 0.597381
0.848496 0.874297 0.600473
0.918866 0.871934 0.601885
0.918866 0.871514 0.602134
0.062561 0.918866 0.577876
0.062561 0.918866 0.577885
0.062561 0.918866 0.577988
0.062561 0.918866 0.578688
0.425280 0.918866 0.580847
0.818090 0.918866 0.584087
0.918866 0.918866 0.585564
0.918866 0.918866 0.585826
0.062561 0.918866 0.574842
0.062561 0.918866 0.574850
0.062561 0.918866 0.574954
0.062561 0.918866 0.575661
0.408212 0.918866 0.577838
0.812507 0.918866 0.581106
0.918057 0.918866 0.582596
0.918866 0.918866 0.582859
0.062561 0.062561 0.868662
0.062561 0.062561 0.868666
0.062561 0.062561 0.868718
0.358624 0.062561 0.869072
0.698618 0.062561 0.870166
0.918866 0.062561 0.871816
0.918866 0.062561 0.872573
0.918866 0.062561 0.872707
0.062561 0.062561 0.868612
0.062561 0.062561 0.868617
0.062561 0.062561 0.868668
0.357910 0.062561 0.869022
0.698381 0.062561 0.870116
0.918866 0.062561 0.871767
0.918866 0.062561 0.872523
0.918866 0.062561 0.872657
0.062561 0.062561 0.868022
0.062561 0.062561 0.868026
0.062561 0.062561 0.868079
0.349280 0.062561 0.868433
0.695575 0.062561 0.869529
0.918866 0.062561 0.871181
0.918866 0.062561 0.871938
0.918866 0.062561 0.872072
0.062561 0.062561 0.863992
0.062561 0.062561 0.863996
0.062561 0.062561 0.864049
0.278144 0.062561 0.864406
0.675960 0.062561 0.865509
0.918866 0.062561 0.867175
0.918866 0.062561 0.867938
0.918866 0.062561 0.868073
0.062561 0.568411 0.851314
0.062561 0.568383 0.851319
0.062561 0.568052 0.851373
0.062561 0.565785 0.851739
0.608234 0.558675 0.852871
0.896940 0.547623 0.854577
0.918866 0.542420 0.855359
0.918866 0.541490 0.855497
0.062561 0.845380 0.831508
0.062561 0.845365 0.831512
0.062561 0.845195 0.831569
0.062561 0.844033 0.831949
0.471852 0.840419 0.833126
0.834902 0.834902 0.834902
0.918866 0.832348 0.835715
0.918866 0.831894 0.835859
0.062561 0.918866 0.822138
0.062561 0.918866 0.822143
0.062561 0.918866 0.822200
0.062561 0.918866 0.822588
0.378788 0.918866 0.823788
0.803615 0.918866 0.825598
0.910838 0.918866 0.826426
0.918866 0.918866 0.826573
0.062561 0.918866 0.820461
0.062561 0.918866 0.820466
0.062561 0.918866 0.820523
0.062561 0.918866 0.820913
0.357893 0.918866 0.822117
0.797860 0.918866 0.823932
0.906186 0.918866 0.824764
0.918866 0.918866 0.824911
0.062561 0.062561 0.918866
0.062561 0.062561 0.918866
0.062561 0.062561 0.918866
0.331178 0.062561 0.918866
0.689990 0.062561 0.918866
0.918866 0.062561 0.918866
0.918866 0.062561 0.918866
0.918866 0.062561 0.918866
0.062561 0.062561 0.918866
0.062561 0.062561 0.918866
0.062561 0.062561 0.918866
0.330365 0.062561 0.918866
0.689748 0.062561 0.918866
0.918866 0.062561 0.918866
0.918866 0.062561 0.918866
0.918866 0.062561 0.918866
0.062561 0.062561 0.918866
0.062561 0.062561 0.918866
0.062561 0.062561 0.918866
0.320488 0.062561 0.918866
0.686882 0.062561 0.918866
0.918866 0.062561 0.918866
0.918866 0.062561 0.918866
0.918866 0.062561 0.918866
0.062561 0.062561 0.918866
0.062561 0.062561 0.918866
0.062561 0.062561 0.918866
0.233786 0.062561 0.918866
0.666834 0.062561 0.918866
0.918866 0.062561 0.918866
0.918866 0.062561 0.918866
0.918866 0.062561 0.918866
0.062561 0.530503 0.918866
0.062561 0.530472 0.918866
0.062561 0.530099 0.918866
0.062561 0.527555 0.918866
0.597306 0.519551 0.918866
0.891300 0.507038 0.918866
0.918866 0.501114 0.918866
0.918866 0.500054 0.918866
0.062561 0.826600 0.909706
0.062561 0.826585 0.909710
0.062561 0.826407 0.909758
0.062561 0.825200 0.910086
0.454941 0.821446 0.911098
0.828532 0.815711 0.912625
0.918866 0.813053 0.913325
0.918866 0.812582 0.913449
0.062561 0.916684 0.901670
0.062561 0.916671 0.901674
0.062561 0.916523 0.901723
0.062561 0.915509 0.902055
0.353912 0.912360 0.903082
0.796816 0.907562 0.904633
0.905343 0.905343 0.905343
0.918866 0.904950 0.905469
0.062561 0.918866 0.900235
0.062561 0.918866 0.900239
0.062561 0.918866 0.900288
0.062561 0.918866 0.900622
0.330345 0.918866 0.901651
0.790978 0.918866 0.903206
0.900643 0.918866 0.903918
0.917838 0.918866 0.904044
0.062561 0.062561 0.918866
0.062561 0.062561 0.918866
0.062561 0.062561 0.918866
0.325921 0.062561 0.918866
0.688443 0.062561 0.918866
0.918866 0.062561 0.918866
0.918866 0.062561 0.918866
0.918866 0.062561 0.918866
0.062561 0.062561 0.918866
0.062561 0.062561 0.918866
0.062561 0.062561 0.918866
0.325086 0.062561 0.918866
0.688201 0.062561 0.918866
0.918866 0.062561 0.918866
0.918866 0.062561 0.918866
0.918866 0.062561 0.918866
0.062561 0.062561 0.918866
0.062561 0.062561 0.918866
0.062561 0.062561 0.918866
0.314936 0.062561 0.918866
0.685324 0.062561 0.918866
0.918866 0.062561 0.918866
0.918866 0.062561 0.918866
0.918866 0.062561 0.918866
0.062561 0.062561 0.918866
0.062561 0.062561 0.918866
0.062561 0.062561 0.918866
0.224411 0.062561 0.918866
0.665197 0.062561 0.918866
0.918866 0.062561 0.918866
0.918866 0.062561 0.918866
0.918866 0.062561 0.918866
0.062561 0.523309 0.918866
0.062561 0.523277 0.918866
0.062561 0.522896 0.918866
0.062561 0.520293 0.918866
0.595336 0.512099 0.918866
0.890296 0.499272 0.918866
0.918866 0.493192 0.918866
0.918866 0.492103 0.918866
0.062561 0.823201 0.918866
0.062561 0.823185 0.918866
0.062561 0.823007 0.918866
0.062561 0.821791 0.918866
0.451839 0.818011 0.918866
0.827395 0.812235 0.918866
0.918866 0.809558 0.918866
0.918866 0.809083 0.918866
0.062561 0.913831 0.914563
0.062561 0.913818 0.914567
0.062561 0.913669 0.914615
0.062561 0.912650 0.914939
0.349202 0.909484 0.915943
0.795603 0.904660 0.917457
0.904365 0.902430 0.918150
0.918866 0.902034 0.918273
0.062561 0.918866 0.913162
0.062561 0.918866 0.913166
0.062561 0.918866 0.913214
0.062561 0.918866 0.913540
0.325066 0.918866 0.914545
0.789750 0.918866 0.916063
0.899657 0.917267 0.916759
0.916882 0.916882 0.916882
