test-footage/LUT/AlexaV3_EI0800_LogC2Video_DCIP3_LE_aftereffects3d.cube
# Alexa conversion LUT, logc2video, p3. Legal in/full out.
# created by alexalutconv (2.10)
LUT_3D_SIZE 9
0.000000 0.000000 0.000000
0.011179 0.000171 0.000276
0.165649 0.003869 0.006239
0.423194 0.027710 0.044683
0.724303 0.095640 0.131489
0.979191 0.158925 0.205701
1.000000 0.184650 0.235867
1.000000 0.188985 0.240950
1.000000 0.189057 0.241034
0.000000 0.010554 0.000000
0.009505 0.010725 0.000000
0.165034 0.014423 0.005927
0.423029 0.038264 0.044372
0.724236 0.102331 0.131341
0.979152 0.162924 0.205613
1.000000 0.187997 0.235794
1.000000 0.192238 0.240880
1.000000 0.192308 0.240964
0.000000 0.160378 0.000000
0.000000 0.160443 0.000000
0.151032 0.161842 0.000000
0.419437 0.170536 0.037642
0.722772 0.195796 0.128090
0.978294 0.230262 0.203719
1.000000 0.247116 0.234217
1.000000 0.250093 0.239348
1.000000 0.250142 0.239432
0.000000 0.413034 0.000000
0.000000 0.413052 0.000000
0.000000 0.413430 0.000000
0.395018 0.415856 0.000000
0.713214 0.423644 0.104628
0.972726 0.436056 0.190922
1.000000 0.442873 0.223684
1.000000 0.444128 0.229134
1.000000 0.444149 0.229224
0.000000 0.708427 0.000000
0.000000 0.708434 0.000000
0.000000 0.708589 0.000000
0.291500 0.709588 0.000000
0.680275 0.712837 0.000000
0.954095 0.718160 0.138794
1.000000 0.721157 0.183503
1.000000 0.721714 0.190484
1.000000 0.721724 0.190598
0.000000 0.958478 0.000000
0.000000 0.958482 0.000000
0.000000 0.958573 0.000000
0.000000 0.959160 0.000000
0.618814 0.961076 0.000000
0.921744 0.964231 0.000000
1.000000 0.966018 0.068755
1.000000 0.966351 0.086133
1.000000 0.966356 0.086400
0.000000 1.000000 0.000000
0.000000 1.000000 0.000000
0.000000 1.000000 0.000000
0.000000 1.000000 0.000000
0.578664 1.000000 0.000000
0.902400 1.000000 0.000000
1.000000 1.000000 0.000000
1.000000 1.000000 0.000000
1.000000 1.000000 0.000000
0.000000 1.000000 0.000000
0.000000 1.000000 0.000000
0.000000 1.000000 0.000000
0.000000 1.000000 0.000000
0.570631 1.000000 0.000000
0.898706 1.000000 0.000000
1.000000 1.000000 0.000000
1.000000 1.000000 0.000000
1.000000 1.000000 0.000000
0.000000 1.000000 0.000000
0.000000 1.000000 0.000000
0.000000 1.000000 0.000000
0.000000 1.000000 0.000000
0.570494 1.000000 0.000000
0.898644 1.000000 0.000000
1.000000 1.000000 0.000000
1.000000 1.000000 0.000000
1.000000 1.000000 0.000000
0.000000 0.000000 0.008658
0.010297 0.000000 0.008934
0.165325 0.001766 0.014897
0.423106 0.025606 0.053341
0.724268 0.094254 0.135543
0.979170 0.158113 0.208103
1.000000 0.183974 0.237874
1.000000 0.188328 0.242901
1.000000 0.188400 0.242985
0.000000 0.008451 0.008346
0.008622 0.008622 0.008622
0.164710 0.012320 0.014585
0.422941 0.036161 0.053029
0.724200 0.101031 0.135400
0.979131 0.162136 0.208018
1.000000 0.187336 0.237803
1.000000 0.191595 0.242831
1.000000 0.191665 0.242914
0.000000 0.159575 0.001617
0.000000 0.159641 0.001893
0.150671 0.161048 0.007856
0.419349 0.169790 0.046300
0.722737 0.195168 0.132256
0.978272 0.229754 0.206152
1.000000 0.246655 0.236244
1.000000 0.249639 0.241317
1.000000 0.249689 0.241400
0.000000 0.412819 0.000000
0.000000 0.412836 0.000000
0.000000 0.413215 0.000000
0.394921 0.415643 0.002912
0.713177 0.423437 0.109715
0.972705 0.435858 0.193562
1.000000 0.442681 0.225838
1.000000 0.443936 0.231220
1.000000 0.443957 0.231310
0.000000 0.708339 0.000000
0.000000 0.708346 0.000000
0.000000 0.708501 0.000000
0.291347 0.709499 0.000000
0.680235 0.712750 0.000000
0.954073 0.718073 0.142621
1.000000 0.721071 0.186275
1.000000 0.721629 0.193131
1.000000 0.721638 0.193243
0.000000 0.958426 0.000000
0.000000 0.958430 0.000000
0.000000 0.958521 0.000000
0.000000 0.959108 0.000000
0.618768 0.961024 0.000000
0.921721 0.964180 0.000000
1.000000 0.965967 0.075944
1.000000 0.966300 0.092172
1.000000 0.966306 0.092423
0.000000 1.000000 0.000000
0.000000 1.000000 0.000000
0.000000 1.000000 0.000000
0.000000 1.000000 0.000000
0.578612 1.000000 0.000000
0.902376 1.000000 0.000000
1.000000 1.000000 0.000000
1.000000 1.000000 0.000000
1.000000 1.000000 0.000000
0.000000 1.000000 0.000000
0.000000 1.000000 0.000000
0.000000 1.000000 0.000000
0.000000 1.000000 0.000000
0.570577 1.000000 0.000000
0.898681 1.000000 0.000000
1.000000 1.000000 0.000000
1.000000 1.000000 0.000000
1.000000 1.000000 0.000000
0.000000 1.000000 0.000000
0.000000 1.000000 0.000000
0.000000 1.000000 0.000000
0.000000 1.000000 0.000000
0.570441 1.000000 0.000000
0.898620 1.000000 0.000000
1.000000 1.000000 0.000000
1.000000 1.000000 0.000000
1.000000 1.000000 0.000000
0.000000 0.000000 0.142973
0.000000 0.000000 0.143093
0.158141 0.000000 0.145654
0.421220 0.000000 0.161059
0.723497 0.058141 0.202178
0.978718 0.139242 0.253039
1.000000 0.168537 0.276577
1.000000 0.173371 0.280667
1.000000 0.173451 0.280736
0.000000 0.000000 0.142838
0.000000 0.000000 0.142958
0.157492 0.000000 0.145521
0.421054 0.000000 0.160941
0.723429 0.067865 0.202089
0.978679 0.143875 0.252973
1.000000 0.172272 0.276519
1.000000 0.176983 0.280611
1.000000 0.177061 0.280678
0.000000 0.140929 0.139879
0.000000 0.141005 0.140002
0.142624 0.142624 0.142624
0.417435 0.152607 0.158367
0.721963 0.180919 0.200153
0.977820 0.218396 0.251542
1.000000 0.236390 0.275257
1.000000 0.239551 0.279375
1.000000 0.239603 0.279443
0.000000 0.408119 0.118874
0.000000 0.408136 0.119020
0.000000 0.408522 0.122131
0.392817 0.410994 0.140454
0.712386 0.418924 0.187042
0.972247 0.431551 0.242029
1.000000 0.438479 0.266912
1.000000 0.439754 0.271211
1.000000 0.439775 0.271282
0.000000 0.706428 0.003354
0.000000 0.706436 0.003630
0.000000 0.706591 0.009592
0.288011 0.707594 0.048037
0.679376 0.710859 0.133076
0.953599 0.716207 0.206635
1.000000 0.719219 0.236647
1.000000 0.719778 0.241708
1.000000 0.719787 0.241792
0.000000 0.957305 0.000000
0.000000 0.957309 0.000000
0.000000 0.957401 0.000000
0.000000 0.957989 0.000000
0.617758 0.959908 0.000000
0.921217 0.963071 0.119785
1.000000 0.964862 0.170235
1.000000 0.965195 0.177862
1.000000 0.965201 0.177986
0.000000 1.000000 0.000000
0.000000 1.000000 0.000000
0.000000 1.000000 0.000000
0.000000 1.000000 0.000000
0.577481 1.000000 0.000000
0.901853 1.000000 0.013386
1.000000 1.000000 0.111489
1.000000 1.000000 0.123345
1.000000 1.000000 0.123534
0.000000 1.000000 0.000000
0.000000 1.000000 0.000000
0.000000 1.000000 0.000000
0.000000 1.000000 0.000000
0.569420 1.000000 0.000000
0.898155 1.000000 0.000000
1.000000 1.000000 0.096389
1.000000 1.000000 0.109870
1.000000 1.000000 0.110083
0.000000 1.000000 0.000000
0.000000 1.000000 0.000000
0.000000 1.000000 0.000000
0.000000 1.000000 0.000000
0.569282 1.000000 0.000000
0.898092 1.000000 0.000000
1.000000 1.000000 0.096116
1.000000 1.000000 0.109631
1.000000 1.000000 0.109843
0.000000 0.000000 0.379485
0.000000 0.000000 0.379517
0.098303 0.000000 0.380213
0.408722 0.000000 0.384651
0.718494 0.000000 0.398649
0.975793 0.000000 0.420258
1.000000 0.000000 0.431807
1.000000 0.000000 0.433910
1.000000 0.000000 0.433944
0.000000 0.000000 0.379448
0.000000 0.000000 0.379481
0.097229 0.000000 0.380177
0.408548 0.000000 0.384615
0.718425 0.000000 0.398615
0.975753 0.000000 0.420227
1.000000 0.000000 0.431777
1.000000 0.000000 0.433880
1.000000 0.000000 0.433915
0.000000 0.000000 0.378661
0.000000 0.000000 0.378693
0.070672 0.000000 0.379391
0.404751 0.000000 0.383844
0.716942 0.003749 0.397885
0.974889 0.112078 0.419556
1.000000 0.147480 0.431134
1.000000 0.153106 0.433242
1.000000 0.153199 0.433277
0.000000 0.375544 0.373520
0.000000 0.375565 0.373553
0.000000 0.376003 0.374266
0.378812 0.378812 0.378812
0.707247 0.387788 0.393131
0.969286 0.401973 0.415187
1.000000 0.409704 0.426951
1.000000 0.411122 0.429090
1.000000 0.411146 0.429126
0.000000 0.693887 0.355888
0.000000 0.693895 0.355924
0.000000 0.694056 0.356691
0.265023 0.695091 0.361579
0.673795 0.698457 0.376910
0.950534 0.703968 0.400354
1.000000 0.707070 0.412785
1.000000 0.707646 0.415042
1.000000 0.707656 0.415079
0.000000 0.950021 0.323384
0.000000 0.950025 0.323425
0.000000 0.950118 0.324312
0.000000 0.950714 0.329938
0.611181 0.952660 0.347418
0.917956 0.955866 0.373727
1.000000 0.957681 0.387503
1.000000 0.958019 0.389991
1.000000 0.958025 0.390033
0.000000 1.000000 0.302494
0.000000 1.000000 0.302539
0.000000 1.000000 0.303517
0.000000 1.000000 0.309708
0.570101 1.000000 0.328797
0.898465 1.000000 0.357178
1.000000 1.000000 0.371898
1.000000 1.000000 0.374549
1.000000 1.000000 0.374593
0.000000 1.000000 0.298352
0.000000 1.000000 0.298399
0.000000 1.000000 0.299396
0.000000 1.000000 0.305710
0.561860 1.000000 0.325142
0.894742 1.000000 0.353955
1.000000 1.000000 0.368871
1.000000 1.000000 0.371555
1.000000 1.000000 0.371600
0.000000 1.000000 0.298283
0.000000 1.000000 0.298329
0.000000 1.000000 0.299326
0.000000 1.000000 0.305642
0.561721 1.000000 0.325080
0.894679 1.000000 0.353901
1.000000 1.000000 0.368820
1.000000 1.000000 0.371504
1.000000 1.000000 0.371549
0.000000 0.000000 0.656002
0.000000 0.000000 0.656016
0.000000 0.000000 0.656300
0.362922 0.000000 0.658134
0.701689 0.000000 0.664076
0.966108 0.000000 0.673713
1.000000 0.000000 0.679091
1.000000 0.000000 0.680087
1.000000 0.000000 0.680104
0.000000 0.000000 0.655987
0.000000 0.000000 0.656001
0.000000 0.000000 0.656286
0.362713 0.000000 0.658120
0.701617 0.000000 0.664060
0.966067 0.000000 0.673698
1.000000 0.000000 0.679077
1.000000 0.000000 0.680073
1.000000 0.000000 0.680090
0.000000 0.000000 0.655665
0.000000 0.000000 0.655679
0.000000 0.000000 0.655964
0.358137 0.000000 0.657799
0.700071 0.000000 0.663745
0.965188 0.000000 0.673391
1.000000 0.000000 0.678774
1.000000 0.000000 0.679770
1.000000 0.000000 0.679787
0.000000 0.214110 0.653581
0.000000 0.214156 0.653595
0.000000 0.215134 0.653882
0.326230 0.221304 0.655727
0.689961 0.240052 0.661705
0.959483 0.267295 0.671401
1.000000 0.281191 0.676811
1.000000 0.283678 0.677812
1.000000 0.283720 0.677829
0.000000 0.649845 0.646682
0.000000 0.649853 0.646696
0.000000 0.650033 0.646989
0.157240 0.651189 0.648867
0.654952 0.654952 0.654952
0.940376 0.661099 0.664816
1.000000 0.664551 0.670317
1.000000 0.665193 0.671335
1.000000 0.665203 0.671352
0.000000 0.925457 0.634980
0.000000 0.925462 0.634994
0.000000 0.925559 0.635295
0.000000 0.926183 0.637233
0.588776 0.928222 0.643505
0.907135 0.931580 0.653665
1.000000 0.933480 0.659326
1.000000 0.933835 0.660373
1.000000 0.933840 0.660391
0.000000 1.000000 0.628156
0.000000 1.000000 0.628170
0.000000 1.000000 0.628477
0.000000 1.000000 0.630450
0.544758 1.000000 0.636837
0.887215 1.000000 0.647174
1.000000 1.000000 0.652930
1.000000 1.000000 0.653996
1.000000 1.000000 0.654014
0.000000 1.000000 0.626868
0.000000 1.000000 0.626882
0.000000 1.000000 0.627190
0.000000 1.000000 0.629171
0.535857 1.000000 0.635579
0.883407 1.000000 0.645950
1.000000 1.000000 0.651725
1.000000 1.000000 0.652794
1.000000 1.000000 0.652812
0.000000 1.000000 0.626846
0.000000 1.000000 0.626860
0.000000 1.000000 0.627168
0.000000 1.000000 0.629149
0.535705 1.000000 0.635558
0.883344 1.000000 0.645929
1.000000 1.000000 0.651704
1.000000 1.000000 0.652773
1.000000 1.000000 0.652791
0.000000 0.000000 0.890074
0.000000 0.000000 0.890082
0.000000 0.000000 0.890250
0.258167 0.000000 0.891329
0.672242 0.000000 0.894844
0.949685 0.000000 0.900608
1.000000 0.000000 0.903858
1.000000 0.000000 0.904462
1.000000 0.000000 0.904473
0.000000 0.000000 0.890066
0.000000 0.000000 0.890073
0.000000 0.000000 0.890241
0.257821 0.000000 0.891320
0.672165 0.000000 0.894835
0.949643 0.000000 0.900600
1.000000 0.000000 0.903850
1.000000 0.000000 0.904454
1.000000 0.000000 0.904464
0.000000 0.000000 0.889877
0.000000 0.000000 0.889884
0.000000 0.000000 0.890052
0.250198 0.000000 0.891132
0.670501 0.000000 0.894648
0.948736 0.000000 0.900414
1.000000 0.000000 0.903666
1.000000 0.000000 0.904270
1.000000 0.000000 0.904280
0.000000 0.000000 0.888655
0.000000 0.000000 0.888663
0.000000 0.000000 0.888831
0.190797 0.000000 0.889913
0.659596 0.000000 0.893438
0.942852 0.000000 0.899218
1.000000 0.000000 0.902477
1.000000 0.000000 0.903083
1.000000 0.000000 0.903093
0.000000 0.563165 0.884637
0.000000 0.563176 0.884645
0.000000 0.563405 0.884814
0.000000 0.564877 0.885905
0.621560 0.569649 0.889458
0.923120 0.577404 0.895284
1.000000 0.581739 0.898568
1.000000 0.582542 0.899179
1.000000 0.582556 0.899189
0.000000 0.882040 0.877914
0.000000 0.882045 0.877922
0.000000 0.882151 0.878094
0.000000 0.882831 0.879200
0.548190 0.885051 0.882801
0.888704 0.888704 0.888704
1.000000 0.890770 0.892031
1.000000 0.891155 0.892650
1.000000 0.891161 0.892660
0.000000 0.997529 0.874049
0.000000 0.997533 0.874057
0.000000 0.997618 0.874229
0.000000 0.998164 0.875344
0.497912 0.999948 0.878973
0.868021 1.000000 0.884921
0.992560 1.000000 0.888274
1.000000 1.000000 0.888898
1.000000 1.000000 0.888909
0.000000 1.000000 0.873324
0.000000 1.000000 0.873332
0.000000 1.000000 0.873505
0.000000 1.000000 0.874621
0.487555 1.000000 0.878255
0.864061 1.000000 0.884212
0.989447 1.000000 0.887569
1.000000 1.000000 0.888194
1.000000 1.000000 0.888205
0.000000 1.000000 0.873311
0.000000 1.000000 0.873319
0.000000 1.000000 0.873493
0.000000 1.000000 0.874609
0.487378 1.000000 0.878243
0.863994 1.000000 0.884200
0.989394 1.000000 0.887558
1.000000 1.000000 0.888182
1.000000 1.000000 0.888193
0.000000 0.000000 0.985225
0.000000 0.000000 0.985232
0.000000 0.000000 0.985371
0.153142 0.000000 0.986272
0.654453 0.000000 0.989208
0.940111 0.000000 0.994033
1.000000 0.000000 0.996759
1.000000 0.000000 0.997266
1.000000 0.000000 0.997275
0.000000 0.000000 0.985218
0.000000 0.000000 0.985224
0.000000 0.000000 0.985364
0.152468 0.000000 0.986264
0.654373 0.000000 0.989200
0.940069 0.000000 0.994025
1.000000 0.000000 0.996752
1.000000 0.000000 0.997259
1.000000 0.000000 0.997268
0.000000 0.000000 0.985060
0.000000 0.000000 0.985066
0.000000 0.000000 0.985206
0.136976 0.000000 0.986107
0.652631 0.000000 0.989043
0.939145 0.000000 0.993870
1.000000 0.000000 0.996597
1.000000 0.000000 0.997105
1.000000 0.000000 0.997114
0.000000 0.000000 0.984042
0.000000 0.000000 0.984048
0.000000 0.000000 0.984188
0.000000 0.000000 0.985091
0.641199 0.000000 0.988033
0.933152 0.000000 0.992868
1.000000 0.000000 0.995600
1.000000 0.000000 0.996108
1.000000 0.000000 0.996117
0.000000 0.501858 0.980696
0.000000 0.501871 0.980702
0.000000 0.502148 0.980843
0.000000 0.503927 0.981751
0.601122 0.509677 0.984711
0.913041 0.518968 0.989576
1.000000 0.524133 0.992324
1.000000 0.525088 0.992835
1.000000 0.525104 0.992843
0.000000 0.855548 0.975112
0.000000 0.855553 0.975118
0.000000 0.855664 0.975261
0.000000 0.856383 0.976178
0.522681 0.858725 0.979168
0.877909 0.862578 0.984082
1.000000 0.864756 0.986858
1.000000 0.865161 0.987374
1.000000 0.865167 0.987383
0.000000 0.976428 0.971910
0.000000 0.976432 0.971917
0.000000 0.976520 0.972060
0.000000 0.977088 0.972982
0.467691 0.978941 0.975990
0.856757 0.981994 0.980933
0.983724 0.983724 0.983724
1.000000 0.984047 0.984244
1.000000 0.984052 0.984252
0.000000 0.996220 0.971310
0.000000 0.996224 0.971316
0.000000 0.996309 0.971460
0.000000 0.996857 0.972383
0.456193 0.998645 0.975395
0.852704 1.000000 0.980342
0.980560 1.000000 0.983137
1.000000 1.000000 0.983657
1.000000 1.000000 0.983666
0.000000 0.996546 0.971299
0.000000 0.996550 0.971306
0.000000 0.996635 0.971450
0.000000 0.997183 0.972373
0.455996 0.998970 0.975385
0.852636 1.000000 0.980332
0.980507 1.000000 0.983127
1.000000 1.000000 0.983648
1.000000 1.000000 0.983656
0.000000 0.000000 1.000000
0.000000 0.000000 1.000000
0.000000 0.000000 1.000000
0.121002 0.000000 1.000000
0.651040 0.000000 1.000000
0.938305 0.000000 1.000000
1.000000 0.000000 1.000000
1.000000 0.000000 1.000000
1.000000 0.000000 1.000000
0.000000 0.000000 1.000000
0.000000 0.000000 1.000000
0.000000 0.000000 1.000000
0.120129 0.000000 1.000000
0.650959 0.000000 1.000000
0.938262 0.000000 1.000000
1.000000 0.000000 1.000000
1.000000 0.000000 1.000000
1.000000 0.000000 1.000000
0.000000 0.000000 1.000000
0.000000 0.000000 1.000000
0.000000 0.000000 1.000000
0.099375 0.000000 1.000000
0.649200 0.000000 1.000000
0.937335 0.000000 1.000000
1.000000 0.000000 1.000000
1.000000 0.000000 1.000000
1.000000 0.000000 1.000000
0.000000 0.000000 1.000000
0.000000 0.000000 1.000000
0.000000 0.000000 1.000000
0.000000 0.000000 1.000000
0.637663 0.000000 1.000000
0.931321 0.000000 1.000000
1.000000 0.000000 1.000000
1.000000 0.000000 1.000000
1.000000 0.000000 1.000000
0.000000 0.488962 0.996859
0.000000 0.488975 0.996865
0.000000 0.489264 0.997002
0.000000 0.491120 0.997884
0.597174 0.497114 1.000000
0.911138 0.506782 1.000000
1.000000 0.512150 1.000000
1.000000 0.513142 1.000000
1.000000 0.513158 1.000000
0.000000 0.850438 0.991438
0.000000 0.850443 0.991445
0.000000 0.850556 0.991583
0.000000 0.851281 0.992473
0.517686 0.853649 0.995376
0.875867 0.857542 1.000000
0.998752 0.859742 1.000000
1.000000 0.860152 1.000000
1.000000 0.860159 1.000000
0.000000 0.972397 0.988330
0.000000 0.972401 0.988337
0.000000 0.972489 0.988477
0.000000 0.973061 0.989371
0.461688 0.974929 0.992291
0.854625 0.978004 0.997089
0.982059 0.979747 0.999800
1.000000 0.980071 1.000000
1.000000 0.980076 1.000000
0.000000 0.992332 0.987748
0.000000 0.992336 0.987755
0.000000 0.992422 0.987894
0.000000 0.992973 0.988790
0.449941 0.994774 0.991713
0.850554 0.997741 0.996516
0.978885 0.999422 0.999230
0.999735 0.999735 0.999735
1.000000 0.999741 0.999744
0.000000 0.992661 0.987739
0.000000 0.992665 0.987746
0.000000 0.992750 0.987884
0.000000 0.993302 0.988781
0.449739 0.995101 0.991703
0.850486 0.998066 0.996507
0.978832 0.999746 0.999221
0.999684 1.000000 0.999726
1.000000 1.000000 0.999734
0.000000 0.000000 1.000000
0.000000 0.000000 1.000000
0.000000 0.000000 1.000000
0.120384 0.000000 1.000000
0.650982 0.000000 1.000000
0.938275 0.000000 1.000000
1.000000 0.000000 1.000000
1.000000 0.000000 1.000000
1.000000 0.000000 1.000000
0.000000 0.000000 1.000000
0.000000 0.000000 1.000000
0.000000 0.000000 1.000000
0.119506 0.000000 1.000000
0.650901 0.000000 1.000000
0.938231 0.000000 1.000000
1.000000 0.000000 1.000000
1.000000 0.000000 1.000000
1.000000 0.000000 1.000000
0.000000 0.000000 1.000000
0.000000 0.000000 1.000000
0.000000 0.000000 1.000000
0.098623 0.000000 1.000000
0.649143 0.000000 1.000000
0.937305 0.000000 1.000000
1.000000 0.000000 1.000000
1.000000 0.000000 1.000000
1.000000 0.000000 1.000000
0.000000 0.000000 1.000000
0.000000 0.000000 1.000000
0.000000 0.000000 1.000000
0.000000 0.000000 1.000000
0.637603 0.000000 1.000000
0.931290 0.000000 1.000000
1.000000 0.000000 1.000000
1.000000 0.000000 1.000000
1.000000 0.000000 1.000000
0.000000 0.488741 0.997126
0.000000 0.488754 0.997132
0.000000 0.489043 0.997269
0.000000 0.490900 0.998150
0.597108 0.496898 1.000000
0.911106 0.506573 1.000000
1.000000 0.511945 1.000000
1.000000 0.512938 1.000000
1.000000 0.512955 1.000000
0.000000 0.850352 0.991708
0.000000 0.850357 0.991715
0.000000 0.850470 0.991852
0.000000 0.851196 0.992742
0.517601 0.853564 0.995644
0.875833 0.857457 1.000000
0.998724 0.859658 1.000000
1.000000 0.860068 1.000000
1.000000 0.860074 1.000000
0.000000 0.972329 0.988602
0.000000 0.972332 0.988608
0.000000 0.972422 0.988747
0.000000 0.972993 0.989642
0.461586 0.974861 0.992560
0.854589 0.977938 0.997356
0.982030 0.979679 1.000000
1.000000 0.980004 1.000000
1.000000 0.980010 1.000000
0.000000 0.992267 0.988020
0.000000 0.992271 0.988026
0.000000 0.992356 0.988166
0.000000 0.992908 0.989061
0.449834 0.994709 0.991982
0.850518 0.997676 0.996784
0.978857 0.999358 0.999496
0.999708 0.999671 1.000000
1.000000 0.999677 1.000000
0.000000 0.992595 0.988011
0.000000 0.992599 0.988016
0.000000 0.992685 0.988156
0.000000 0.993236 0.989052
0.449633 0.995036 0.991973
0.850450 0.998002 0.996774
0.978803 0.999682 0.999487
0.999657 0.999994 0.999992
1.000000 1.000000 1.000000
