test-footage/LUT/AlexaV3_EI0800_LogC2Video_Rec709_LE_aftereffects3d.cube
# Alexa conversion LUT, logc2video, itu709. Legal in/full out.
# created by alexalutconv (2.10)
LUT_3D_SIZE 9
0.000000 0.000000 0.000000
0.009468 0.000000 0.000069
0.153273 0.000000 0.001554
0.418456 0.000000 0.011127
0.745574 0.000000 0.042454
1.000000 0.000000 0.088247
1.000000 0.000000 0.107703
1.000000 0.000000 0.110998
1.000000 0.000000 0.111052
0.000000 0.008179 0.000000
0.006910 0.007964 0.000000
0.152171 0.003316 0.000776
0.418141 0.000000 0.010349
0.745439 0.000000 0.041676
1.000000 0.000000 0.087685
1.000000 0.000000 0.107230
1.000000 0.000000 0.110538
1.000000 0.000000 0.110593
0.000000 0.140190 0.000000
0.000000 0.140089 0.000000
0.125956 0.137882 0.000000
0.411234 0.122706 0.000000
0.742507 0.052053 0.024863
1.000000 0.000000 0.074732
1.000000 0.000000 0.096508
1.000000 0.000000 0.100130
1.000000 0.000000 0.100190
0.000000 0.391512 0.000000
0.000000 0.391482 0.000000
0.000000 0.390852 0.000000
0.362194 0.386758 0.000000
0.723168 0.372922 0.000000
1.000000 0.348340 0.000000
1.000000 0.333245 0.000000
1.000000 0.330324 0.003318
1.000000 0.330274 0.003411
0.000000 0.701528 0.000000
0.000000 0.701516 0.000000
0.000000 0.701246 0.000000
0.000000 0.699504 0.000000
0.653606 0.693758 0.000000
0.979804 0.684086 0.000000
1.000000 0.678490 0.000000
1.000000 0.677438 0.000000
1.000000 0.677420 0.000000
0.000000 0.973256 0.000000
0.000000 0.973249 0.000000
0.000000 0.973085 0.000000
0.000000 0.972036 0.000000
0.504885 0.968589 0.000000
0.909026 0.962841 0.000000
1.000000 0.959548 0.000000
1.000000 0.958931 0.000000
1.000000 0.958921 0.000000
0.000000 1.000000 0.000000
0.000000 1.000000 0.000000
0.000000 1.000000 0.000000
0.000000 1.000000 0.000000
0.379976 1.000000 0.000000
0.864607 1.000000 0.000000
1.000000 1.000000 0.000000
1.000000 1.000000 0.000000
1.000000 1.000000 0.000000
0.000000 1.000000 0.000000
0.000000 1.000000 0.000000
0.000000 1.000000 0.000000
0.000000 1.000000 0.000000
0.349395 1.000000 0.000000
0.855913 1.000000 0.000000
1.000000 1.000000 0.000000
1.000000 1.000000 0.000000
1.000000 1.000000 0.000000
0.000000 1.000000 0.000000
0.000000 1.000000 0.000000
0.000000 1.000000 0.000000
0.000000 1.000000 0.000000
0.348851 1.000000 0.000000
0.855766 1.000000 0.000000
1.000000 1.000000 0.000000
1.000000 1.000000 0.000000
1.000000 1.000000 0.000000
0.000000 0.000000 0.007085
0.008933 0.000000 0.007154
0.153044 0.000000 0.008638
0.418391 0.000000 0.018211
0.745545 0.000000 0.049538
1.000000 0.000000 0.093238
1.000000 0.000000 0.111926
1.000000 0.000000 0.115110
1.000000 0.000000 0.115162
0.000000 0.006590 0.006307
0.006376 0.006376 0.006376
0.151940 0.001728 0.007861
0.418075 0.000000 0.017434
0.745410 0.000000 0.048761
1.000000 0.000000 0.092701
1.000000 0.000000 0.111469
1.000000 0.000000 0.114665
1.000000 0.000000 0.114718
0.000000 0.139440 0.000000
0.000000 0.139338 0.000000
0.125676 0.137120 0.000000
0.411167 0.121850 0.000621
0.742479 0.050464 0.031948
1.000000 0.000000 0.080389
1.000000 0.000000 0.101148
1.000000 0.000000 0.104630
1.000000 0.000000 0.104687
0.000000 0.391297 0.000000
0.000000 0.391267 0.000000
0.000000 0.390637 0.000000
0.362114 0.386539 0.000000
0.723139 0.372691 0.000000
1.000000 0.348088 0.000000
1.000000 0.332977 0.004896
1.000000 0.330052 0.010403
1.000000 0.330003 0.010496
0.000000 0.701437 0.000000
0.000000 0.701424 0.000000
0.000000 0.701154 0.000000
0.000000 0.699412 0.000000
0.653572 0.693665 0.000000
0.979785 0.683991 0.000000
1.000000 0.678394 0.000000
1.000000 0.677341 0.000000
1.000000 0.677323 0.000000
0.000000 0.973200 0.000000
0.000000 0.973193 0.000000
0.000000 0.973030 0.000000
0.000000 0.971981 0.000000
0.504835 0.968533 0.000000
0.909006 0.962785 0.000000
1.000000 0.959491 0.000000
1.000000 0.958874 0.000000
1.000000 0.958864 0.000000
0.000000 1.000000 0.000000
0.000000 1.000000 0.000000
0.000000 1.000000 0.000000
0.000000 1.000000 0.000000
0.379900 1.000000 0.000000
0.864585 1.000000 0.000000
1.000000 1.000000 0.000000
1.000000 1.000000 0.000000
1.000000 1.000000 0.000000
0.000000 1.000000 0.000000
0.000000 1.000000 0.000000
0.000000 1.000000 0.000000
0.000000 1.000000 0.000000
0.349311 1.000000 0.000000
0.855889 1.000000 0.000000
1.000000 1.000000 0.000000
1.000000 1.000000 0.000000
1.000000 1.000000 0.000000
0.000000 1.000000 0.000000
0.000000 1.000000 0.000000
0.000000 1.000000 0.000000
0.000000 1.000000 0.000000
0.348767 1.000000 0.000000
0.855742 1.000000 0.000000
1.000000 1.000000 0.000000
1.000000 1.000000 0.000000
1.000000 1.000000 0.000000
0.000000 0.000000 0.128012
0.000000 0.000000 0.128047
0.147995 0.000000 0.128810
0.416963 0.000000 0.133625
0.744935 0.000000 0.148284
1.000000 0.000000 0.169672
1.000000 0.000000 0.180622
1.000000 0.000000 0.182585
1.000000 0.000000 0.182618
0.000000 0.000000 0.127610
0.000000 0.000000 0.127645
0.146852 0.000000 0.128411
0.416645 0.000000 0.133240
0.744799 0.000000 0.147938
1.000000 0.000000 0.169373
1.000000 0.000000 0.180342
1.000000 0.000000 0.182309
1.000000 0.000000 0.182342
0.000000 0.122120 0.118610
0.000000 0.122004 0.118648
0.119468 0.119468 0.119468
0.409703 0.101727 0.124637
0.741864 0.016134 0.140246
1.000000 0.000000 0.162754
1.000000 0.000000 0.174183
1.000000 0.000000 0.176227
1.000000 0.000000 0.176261
0.000000 0.386608 0.034214
0.000000 0.386578 0.034282
0.000000 0.385937 0.035767
0.360369 0.381770 0.045340
0.722499 0.367674 0.074694
1.000000 0.342573 0.110532
1.000000 0.327118 0.126879
1.000000 0.324123 0.129711
1.000000 0.324072 0.129758
0.000000 0.699441 0.000000
0.000000 0.699429 0.000000
0.000000 0.699158 0.000000
0.000000 0.697408 0.000000
0.652827 0.691636 0.000000
0.979385 0.681918 0.000000
1.000000 0.676295 0.000000
1.000000 0.675237 0.000000
1.000000 0.675220 0.000000
0.000000 0.971998 0.000000
0.000000 0.971990 0.000000
0.000000 0.971827 0.000000
0.000000 0.970776 0.000000
0.503742 0.967322 0.000000
0.908556 0.961562 0.000000
1.000000 0.958262 0.000000
1.000000 0.957643 0.000000
1.000000 0.957633 0.000000
0.000000 1.000000 0.000000
0.000000 1.000000 0.000000
0.000000 1.000000 0.000000
0.000000 1.000000 0.000000
0.378267 1.000000 0.000000
0.864099 1.000000 0.000000
1.000000 1.000000 0.000000
1.000000 1.000000 0.000000
1.000000 1.000000 0.000000
0.000000 1.000000 0.000000
0.000000 1.000000 0.000000
0.000000 1.000000 0.000000
0.000000 1.000000 0.000000
0.347478 1.000000 0.000000
0.855396 1.000000 0.000000
1.000000 1.000000 0.000000
1.000000 1.000000 0.000000
1.000000 1.000000 0.000000
0.000000 1.000000 0.000000
0.000000 1.000000 0.000000
0.000000 1.000000 0.000000
0.000000 1.000000 0.000000
0.346930 1.000000 0.000000
0.855249 1.000000 0.000000
1.000000 1.000000 0.000000
1.000000 1.000000 0.000000
1.000000 1.000000 0.000000
0.000000 0.000000 0.366428
0.000000 0.000000 0.366439
0.109968 0.000000 0.366659
0.407587 0.000000 0.368073
0.740980 0.000000 0.372649
1.000000 0.000000 0.380058
1.000000 0.000000 0.384186
1.000000 0.000000 0.384950
1.000000 0.000000 0.384963
0.000000 0.000000 0.366314
0.000000 0.000000 0.366324
0.108435 0.000000 0.366544
0.407259 0.000000 0.367958
0.740843 0.000000 0.372537
1.000000 0.000000 0.379949
1.000000 0.000000 0.384078
1.000000 0.000000 0.384842
1.000000 0.000000 0.384855
0.000000 0.000000 0.363808
0.000000 0.000000 0.363819
0.068818 0.000000 0.364041
0.400088 0.000000 0.365469
0.737884 0.000000 0.370089
1.000000 0.000000 0.377567
1.000000 0.000000 0.381732
1.000000 0.000000 0.382503
1.000000 0.000000 0.382515
0.000000 0.354295 0.347064
0.000000 0.354261 0.347075
0.000000 0.353538 0.347312
0.348833 0.348833 0.348833
0.718354 0.332802 0.353750
1.000000 0.303739 0.361691
1.000000 0.285443 0.366104
1.000000 0.281855 0.366920
1.000000 0.281795 0.366934
0.000000 0.686366 0.282711
0.000000 0.686353 0.282726
0.000000 0.686074 0.283035
0.000000 0.684273 0.285025
0.647989 0.678331 0.291412
0.976802 0.668318 0.301601
1.000000 0.662520 0.307202
1.000000 0.661429 0.308234
1.000000 0.661411 0.308251
0.000000 0.964190 0.077054
0.000000 0.964182 0.077109
0.000000 0.964017 0.078294
0.000000 0.962952 0.085617
0.496619 0.959454 0.106623
0.905649 0.953620 0.134879
1.000000 0.950276 0.148603
1.000000 0.949649 0.151023
1.000000 0.949639 0.151063
0.000000 1.000000 0.000000
0.000000 1.000000 0.000000
0.000000 1.000000 0.000000
0.000000 1.000000 0.000000
0.367495 1.000000 0.000000
0.860955 1.000000 0.000000
1.000000 1.000000 0.000000
1.000000 1.000000 0.000000
1.000000 1.000000 0.000000
0.000000 1.000000 0.000000
0.000000 1.000000 0.000000
0.000000 1.000000 0.000000
0.000000 1.000000 0.000000
0.335337 1.000000 0.000000
0.852202 1.000000 0.000000
1.000000 1.000000 0.000000
1.000000 1.000000 0.000000
1.000000 1.000000 0.000000
0.000000 1.000000 0.000000
0.000000 1.000000 0.000000
0.000000 1.000000 0.000000
0.000000 1.000000 0.000000
0.334762 1.000000 0.000000
0.852054 1.000000 0.000000
1.000000 1.000000 0.000000
1.000000 1.000000 0.000000
1.000000 1.000000 0.000000
0.000000 0.000000 0.660528
0.000000 0.000000 0.660532
0.000000 0.000000 0.660626
0.374577 0.000000 0.661234
0.727806 0.000000 0.663215
1.000000 0.000000 0.666476
1.000000 0.000000 0.668320
1.000000 0.000000 0.668663
1.000000 0.000000 0.668669
0.000000 0.000000 0.660479
0.000000 0.000000 0.660483
0.000000 0.000000 0.660577
0.374209 0.000000 0.661184
0.727665 0.000000 0.663167
1.000000 0.000000 0.666427
1.000000 0.000000 0.668271
1.000000 0.000000 0.668615
1.000000 0.000000 0.668620
0.000000 0.000000 0.659410
0.000000 0.000000 0.659414
0.000000 0.000000 0.659508
0.366129 0.000000 0.660117
0.724624 0.000000 0.662104
1.000000 0.000000 0.665373
1.000000 0.000000 0.667221
1.000000 0.000000 0.667565
1.000000 0.000000 0.667571
0.000000 0.200543 0.652454
0.000000 0.200475 0.652458
0.000000 0.198989 0.652554
0.306913 0.189080 0.653173
0.704528 0.151570 0.655191
1.000000 0.047831 0.658512
1.000000 0.000000 0.660389
1.000000 0.000000 0.660739
1.000000 0.000000 0.660744
0.000000 0.640693 0.628874
0.000000 0.640679 0.628879
0.000000 0.640369 0.628981
0.000000 0.638371 0.629634
0.631766 0.631766 0.631766
0.968270 0.620601 0.635271
1.000000 0.614114 0.637252
1.000000 0.612892 0.637622
1.000000 0.612871 0.637628
0.000000 0.937918 0.586658
0.000000 0.937911 0.586663
0.000000 0.937738 0.586775
0.000000 0.936626 0.587500
0.472206 0.932972 0.589862
0.896033 0.926874 0.593742
1.000000 0.923377 0.595932
1.000000 0.922723 0.596339
1.000000 0.922712 0.596346
0.000000 1.000000 0.560489
0.000000 1.000000 0.560494
0.000000 1.000000 0.560614
0.000000 1.000000 0.561390
0.328809 1.000000 0.563915
0.850540 1.000000 0.568059
1.000000 1.000000 0.570396
1.000000 1.000000 0.570831
1.000000 1.000000 0.570838
0.000000 1.000000 0.555400
0.000000 1.000000 0.555405
0.000000 1.000000 0.555528
0.000000 1.000000 0.556313
0.290775 1.000000 0.558872
0.841619 1.000000 0.563070
0.996905 1.000000 0.565438
1.000000 1.000000 0.565878
1.000000 1.000000 0.565886
0.000000 1.000000 0.555314
0.000000 1.000000 0.555320
0.000000 1.000000 0.555441
0.000000 1.000000 0.556227
0.290081 1.000000 0.558787
0.841468 1.000000 0.562986
0.996789 1.000000 0.565355
1.000000 1.000000 0.565795
1.000000 1.000000 0.565802
0.000000 0.000000 0.918304
0.000000 0.000000 0.918307
0.000000 0.000000 0.918363
0.308989 0.000000 0.918730
0.705167 0.000000 0.919928
1.000000 0.000000 0.921906
1.000000 0.000000 0.923028
1.000000 0.000000 0.923237
1.000000 0.000000 0.923240
0.000000 0.000000 0.918274
0.000000 0.000000 0.918277
0.000000 0.000000 0.918334
0.308512 0.000000 0.918700
0.705020 0.000000 0.919898
1.000000 0.000000 0.921876
1.000000 0.000000 0.922998
1.000000 0.000000 0.923207
1.000000 0.000000 0.923211
0.000000 0.000000 0.917629
0.000000 0.000000 0.917632
0.000000 0.000000 0.917689
0.297961 0.000000 0.918056
0.701828 0.000000 0.919256
1.000000 0.000000 0.921236
1.000000 0.000000 0.922359
1.000000 0.000000 0.922568
1.000000 0.000000 0.922571
0.000000 0.000000 0.913457
0.000000 0.000000 0.913460
0.000000 0.000000 0.913516
0.213644 0.000000 0.913886
0.680696 0.000000 0.915095
0.994620 0.000000 0.917089
1.000000 0.000000 0.918219
1.000000 0.000000 0.918431
1.000000 0.000000 0.918434
0.000000 0.552094 0.899590
0.000000 0.552076 0.899593
0.000000 0.551690 0.899652
0.000000 0.549196 0.900030
0.603458 0.540913 0.901267
0.953884 0.526782 0.903309
1.000000 0.518490 0.904467
1.000000 0.516921 0.904683
1.000000 0.516895 0.904687
0.000000 0.891719 0.875878
0.000000 0.891710 0.875881
0.000000 0.891523 0.875942
0.000000 0.890320 0.876337
0.427292 0.886363 0.877627
0.879755 0.879755 0.879755
1.000000 0.875960 0.880961
1.000000 0.875249 0.881186
1.000000 0.875237 0.881190
0.000000 1.000000 0.861934
0.000000 1.000000 0.861937
0.000000 1.000000 0.861999
0.000000 1.000000 0.862404
0.246619 1.000000 0.863725
0.832856 1.000000 0.865907
0.990194 1.000000 0.867143
1.000000 1.000000 0.867374
1.000000 1.000000 0.867377
0.000000 1.000000 0.859291
0.000000 1.000000 0.859293
0.000000 1.000000 0.859357
0.000000 1.000000 0.859763
0.187230 1.000000 0.861092
0.823635 1.000000 0.863283
0.983174 1.000000 0.864526
1.000000 1.000000 0.864757
1.000000 1.000000 0.864761
0.000000 1.000000 0.859247
0.000000 1.000000 0.859250
0.000000 1.000000 0.859313
0.000000 1.000000 0.859719
0.186042 1.000000 0.861047
0.823479 1.000000 0.863239
0.983056 1.000000 0.864481
1.000000 1.000000 0.864713
1.000000 1.000000 0.864717
0.000000 0.000000 1.000000
0.000000 0.000000 1.000000
0.000000 0.000000 1.000000
0.261654 0.000000 1.000000
0.691782 0.000000 1.000000
1.000000 0.000000 1.000000
1.000000 0.000000 1.000000
1.000000 0.000000 1.000000
1.000000 0.000000 1.000000
0.000000 0.000000 1.000000
0.000000 0.000000 1.000000
0.000000 0.000000 1.000000
0.261064 0.000000 1.000000
0.691631 0.000000 1.000000
1.000000 0.000000 1.000000
1.000000 0.000000 1.000000
1.000000 0.000000 1.000000
1.000000 0.000000 1.000000
0.000000 0.000000 1.000000
0.000000 0.000000 1.000000
0.000000 0.000000 1.000000
0.247862 0.000000 1.000000
0.688344 0.000000 1.000000
0.998902 0.000000 1.000000
1.000000 0.000000 1.000000
1.000000 0.000000 1.000000
1.000000 0.000000 1.000000
0.000000 0.000000 1.000000
0.000000 0.000000 1.000000
0.000000 0.000000 1.000000
0.126049 0.000000 1.000000
0.666558 0.000000 1.000000
0.986818 0.000000 1.000000
1.000000 0.000000 1.000000
1.000000 0.000000 1.000000
1.000000 0.000000 1.000000
0.000000 0.490668 1.000000
0.000000 0.490647 1.000000
0.000000 0.490190 1.000000
0.000000 0.487224 1.000000
0.586434 0.477333 1.000000
0.945548 0.460284 1.000000
1.000000 0.450171 1.000000
1.000000 0.448247 1.000000
1.000000 0.448214 1.000000
0.000000 0.863686 0.989541
0.000000 0.863677 0.989543
0.000000 0.863481 0.989594
0.000000 0.862216 0.989921
0.398468 0.858056 0.990986
0.870282 0.851103 0.992747
1.000000 0.847107 0.993747
1.000000 0.846358 0.993933
1.000000 0.846345 0.993936
0.000000 0.995558 0.978054
0.000000 0.995550 0.978056
0.000000 0.995393 0.978108
0.000000 0.994380 0.978440
0.178631 0.991055 0.979525
0.822531 0.985511 0.981319
0.982337 0.982337 0.982337
1.000000 0.981742 0.982526
1.000000 0.981732 0.982529
0.000000 1.000000 0.975885
0.000000 1.000000 0.975887
0.000000 1.000000 0.975939
0.000000 1.000000 0.976273
0.072018 1.000000 0.977362
0.813129 1.000000 0.979162
0.975227 1.000000 0.980183
1.000000 1.000000 0.980373
1.000000 1.000000 0.980377
0.000000 1.000000 0.975849
0.000000 1.000000 0.975851
0.000000 1.000000 0.975903
0.000000 1.000000 0.976236
0.069071 1.000000 0.977326
0.812970 1.000000 0.979126
0.975107 1.000000 0.980147
1.000000 1.000000 0.980337
1.000000 1.000000 0.980340
0.000000 0.000000 1.000000
0.000000 0.000000 1.000000
0.000000 0.000000 1.000000
0.251534 0.000000 1.000000
0.689239 0.000000 1.000000
0.999407 0.000000 1.000000
1.000000 0.000000 1.000000
1.000000 0.000000 1.000000
1.000000 0.000000 1.000000
0.000000 0.000000 1.000000
0.000000 0.000000 1.000000
0.000000 0.000000 1.000000
0.250914 0.000000 1.000000
0.689087 0.000000 1.000000
0.999321 0.000000 1.000000
1.000000 0.000000 1.000000
1.000000 0.000000 1.000000
1.000000 0.000000 1.000000
0.000000 0.000000 1.000000
0.000000 0.000000 1.000000
0.000000 0.000000 1.000000
0.237002 0.000000 1.000000
0.685781 0.000000 1.000000
0.997463 0.000000 1.000000
1.000000 0.000000 1.000000
1.000000 0.000000 1.000000
1.000000 0.000000 1.000000
0.000000 0.000000 1.000000
0.000000 0.000000 1.000000
0.000000 0.000000 1.000000
0.101346 0.000000 1.000000
0.663868 0.000000 1.000000
0.985350 0.000000 1.000000
1.000000 0.000000 1.000000
1.000000 0.000000 1.000000
1.000000 0.000000 1.000000
0.000000 0.477902 1.000000
0.000000 0.477881 1.000000
0.000000 0.477405 1.000000
0.000000 0.474324 1.000000
0.583173 0.464035 1.000000
0.943978 0.446252 1.000000
1.000000 0.435672 1.000000
1.000000 0.433656 1.000000
1.000000 0.433622 1.000000
0.000000 0.858293 1.000000
0.000000 0.858285 1.000000
0.000000 0.858087 1.000000
0.000000 0.856810 1.000000
0.392756 0.852609 1.000000
0.868495 0.845585 1.000000
1.000000 0.841549 1.000000
1.000000 0.840792 1.000000
1.000000 0.840779 1.000000
0.000000 0.991244 0.997463
0.000000 0.991237 0.997465
0.000000 0.991079 0.997515
0.000000 0.990059 0.997837
0.162251 0.986711 0.998890
0.820581 0.981129 1.000000
0.980859 0.977932 1.000000
1.000000 0.977332 1.000000
1.000000 0.977323 1.000000
0.000000 1.000000 0.995361
0.000000 1.000000 0.995364
0.000000 1.000000 0.995413
0.000000 1.000000 0.995737
0.030636 1.000000 0.996793
0.811144 1.000000 0.998537
0.973732 1.000000 0.999528
0.999712 0.999712 0.999712
1.000000 0.999703 0.999715
0.000000 1.000000 0.995326
0.000000 1.000000 0.995328
0.000000 1.000000 0.995378
0.000000 1.000000 0.995701
0.027199 1.000000 0.996758
0.810984 1.000000 0.998503
0.973612 1.000000 0.999493
0.999597 1.000000 0.999677
1.000000 1.000000 0.999680
0.000000 0.000000 1.000000
0.000000 0.000000 1.000000
0.000000 0.000000 1.000000
0.251361 0.000000 1.000000
0.689196 0.000000 1.000000
0.999382 0.000000 1.000000
1.000000 0.000000 1.000000
1.000000 0.000000 1.000000
1.000000 0.000000 1.000000
0.000000 0.000000 1.000000
0.000000 0.000000 1.000000
0.000000 0.000000 1.000000
0.250740 0.000000 1.000000
0.689044 0.000000 1.000000
0.999296 0.000000 1.000000
1.000000 0.000000 1.000000
1.000000 0.000000 1.000000
1.000000 0.000000 1.000000
0.000000 0.000000 1.000000
0.000000 0.000000 1.000000
0.000000 0.000000 1.000000
0.236815 0.000000 1.000000
0.685738 0.000000 1.000000
0.997438 0.000000 1.000000
1.000000 0.000000 1.000000
1.000000 0.000000 1.000000
1.000000 0.000000 1.000000
0.000000 0.000000 1.000000
0.000000 0.000000 1.000000
0.000000 0.000000 1.000000
0.100886 0.000000 1.000000
0.663823 0.000000 1.000000
0.985326 0.000000 1.000000
1.000000 0.000000 1.000000
1.000000 0.000000 1.000000
1.000000 0.000000 1.000000
0.000000 0.477685 1.000000
0.000000 0.477663 1.000000
0.000000 0.477187 1.000000
0.000000 0.474103 1.000000
0.583118 0.463808 1.000000
0.943952 0.446012 1.000000
1.000000 0.435423 1.000000
1.000000 0.433405 1.000000
1.000000 0.433371 1.000000
0.000000 0.858203 1.000000
0.000000 0.858194 1.000000
0.000000 0.857996 1.000000
0.000000 0.856719 1.000000
0.392659 0.852517 1.000000
0.868466 0.845492 1.000000
1.000000 0.841455 1.000000
1.000000 0.840698 1.000000
1.000000 0.840685 1.000000
0.000000 0.991171 0.997784
0.000000 0.991164 0.997786
0.000000 0.991006 0.997836
0.000000 0.989986 0.998158
0.161961 0.986638 0.999210
0.820548 0.981055 1.000000
0.980834 0.977857 1.000000
1.000000 0.977258 1.000000
1.000000 0.977248 1.000000
0.000000 1.000000 0.995682
0.000000 1.000000 0.995684
0.000000 1.000000 0.995735
0.000000 1.000000 0.996058
0.029919 1.000000 0.997113
0.811110 1.000000 0.998857
0.973707 1.000000 0.999847
0.999689 0.999641 1.000000
1.000000 0.999631 1.000000
0.000000 1.000000 0.995647
0.000000 1.000000 0.995649
0.000000 1.000000 0.995700
0.000000 1.000000 0.996022
0.026482 1.000000 0.997078
0.810951 1.000000 0.998822
0.973587 1.000000 0.999813
0.999573 1.000000 0.999997
1.000000 1.000000 1.000000
