test-footage/LUT/AlexaV3_EI3200_LogC2Video_Rec709_LL_aftereffects3d.cube
# Alexa conversion LUT, logc2video, itu709. Legal in/legal out.
# created by alexalutconv (2.09)
LUT_3D_SIZE 32
0.062561 0.062561 0.062561
0.062561 0.062561 0.062561
0.062561 0.062561 0.062561
0.062561 0.062561 0.062561
0.079019 0.062561 0.062680
0.104400 0.062561 0.062864
0.134166 0.062561 0.063108
0.167307 0.062561 0.063489
0.205198 0.062561 0.064093
0.249505 0.062561 0.065058
0.306753 0.062561 0.066777
0.374430 0.062561 0.069598
0.446947 0.062561 0.073700
0.519578 0.062561 0.079073
0.591649 0.062561 0.085790
0.662832 0.062561 0.093910
0.732691 0.062561 0.103433
0.800778 0.062561 0.114221
0.866632 0.062561 0.125023
0.918866 0.062561 0.134457
0.918866 0.062561 0.141732
0.918866 0.062561 0.147140
0.918866 0.062561 0.150975
0.918866 0.062561 0.153528
0.918866 0.062561 0.155092
0.918866 0.062561 0.155956
0.918866 0.062561 0.156415
0.918866 0.062561 0.156759
0.918866 0.062561 0.157280
0.918866 0.062561 0.157656
0.918866 0.062561 0.157656
0.918866 0.062561 0.157656
0.062561 0.062561 0.062561
0.062561 0.062561 0.062561
0.062561 0.062561 0.062561
0.062561 0.062561 0.062561
0.079019 0.062561 0.062680
0.104400 0.062561 0.062864
0.134166 0.062561 0.063108
0.167307 0.062561 0.063489
0.205198 0.062561 0.064093
0.249505 0.062561 0.065058
0.306753 0.062561 0.066777
0.374430 0.062561 0.069598
0.446947 0.062561 0.073700
0.519578 0.062561 0.079073
0.591649 0.062561 0.085790
0.662832 0.062561 0.093910
0.732691 0.062561 0.103433
0.800778 0.062561 0.114221
0.866632 0.062561 0.125023
0.918866 0.062561 0.134457
0.918866 0.062561 0.141732
0.918866 0.062561 0.147140
0.918866 0.062561 0.150975
0.918866 0.062561 0.153528
0.918866 0.062561 0.155092
0.918866 0.062561 0.155956
0.918866 0.062561 0.156415
0.918866 0.062561 0.156759
0.918866 0.062561 0.157280
0.918866 0.062561 0.157656
0.918866 0.062561 0.157656
0.918866 0.062561 0.157656
0.062561 0.062561 0.062561
0.062561 0.062561 0.062561
0.062561 0.062561 0.062561
0.062561 0.062561 0.062561
0.079019 0.062561 0.062680
0.104400 0.062561 0.062864
0.134166 0.062561 0.063108
0.167307 0.062561 0.063489
0.205198 0.062561 0.064093
0.249505 0.062561 0.065058
0.306753 0.062561 0.066777
0.374430 0.062561 0.069598
0.446947 0.062561 0.073700
0.519578 0.062561 0.079073
0.591649 0.062561 0.085790
0.662832 0.062561 0.093910
0.732691 0.062561 0.103433
0.800778 0.062561 0.114221
0.866632 0.062561 0.125023
0.918866 0.062561 0.134457
0.918866 0.062561 0.141732
0.918866 0.062561 0.147140
0.918866 0.062561 0.150975
0.918866 0.062561 0.153528
0.918866 0.062561 0.155092
0.918866 0.062561 0.155956
0.918866 0.062561 0.156415
0.918866 0.062561 0.156759
0.918866 0.062561 0.157280
0.918866 0.062561 0.157656
0.918866 0.062561 0.157656
0.918866 0.062561 0.157656
0.062561 0.062561 0.062561
0.062561 0.062561 0.062561
0.062561 0.062561 0.062561
0.062561 0.062561 0.062561
0.079019 0.062561 0.062680
0.104400 0.062561 0.062864
0.134166 0.062561 0.063108
0.167307 0.062561 0.063489
0.205198 0.062561 0.064093
0.249505 0.062561 0.065058
0.306753 0.062561 0.066777
0.374430 0.062561 0.069598
0.446947 0.062561 0.073700
0.519578 0.062561 0.079073
0.591649 0.062561 0.085790
0.662832 0.062561 0.093910
0.732691 0.062561 0.103433
0.800778 0.062561 0.114221
0.866632 0.062561 0.125023
0.918866 0.062561 0.134457
0.918866 0.062561 0.141732
0.918866 0.062561 0.147140
0.918866 0.062561 0.150975
0.918866 0.062561 0.153528
0.918866 0.062561 0.155092
0.918866 0.062561 0.155956
0.918866 0.062561 0.156415
0.918866 0.062561 0.156759
0.918866 0.062561 0.157280
0.918866 0.062561 0.157656
0.918866 0.062561 0.157656
0.918866 0.062561 0.157656
0.062561 0.076779 0.062561
0.062561 0.076779 0.062561
0.062561 0.076779 0.062561
0.062561 0.076779 0.062561
0.074573 0.076405 0.062561
0.099954 0.075829 0.062561
0.130753 0.075067 0.062561
0.164884 0.073874 0.062561
0.203441 0.071984 0.062740
0.248219 0.068964 0.063706
0.305832 0.063582 0.065425
0.373764 0.062561 0.068245
0.446449 0.062561 0.072348
0.519190 0.062561 0.077720
0.591337 0.062561 0.084438
0.662573 0.062561 0.092558
0.732473 0.062561 0.102080
0.800590 0.062561 0.112918
0.866468 0.062561 0.123885
0.918866 0.062561 0.133436
0.918866 0.062561 0.140789
0.918866 0.062561 0.146250
0.918866 0.062561 0.150119
0.918866 0.062561 0.152694
0.918866 0.062561 0.154270
0.918866 0.062561 0.155142
0.918866 0.062561 0.155604
0.918866 0.062561 0.155951
0.918866 0.062561 0.156476
0.918866 0.062561 0.156855
0.918866 0.062561 0.156855
0.918866 0.062561 0.156855
0.062561 0.098706 0.062561
0.062561 0.098706 0.062561
0.062561 0.098706 0.062561
0.062561 0.098706 0.062561
0.067716 0.098332 0.062561
0.093097 0.097755 0.062561
0.125213 0.096994 0.062561
0.161038 0.095800 0.062561
0.200686 0.093911 0.062561
0.246215 0.090891 0.062561
0.304402 0.085508 0.063339
0.372734 0.076679 0.066160
0.445680 0.063836 0.070263
0.518592 0.062561 0.075635
0.590855 0.062561 0.082353
0.662175 0.062561 0.090472
0.732136 0.062561 0.099995
0.800299 0.062561 0.110865
0.866214 0.062561 0.122098
0.918866 0.062561 0.131839
0.918866 0.062561 0.139317
0.918866 0.062561 0.144860
0.918866 0.062561 0.148784
0.918866 0.062561 0.151393
0.918866 0.062561 0.152990
0.918866 0.062561 0.153873
0.918866 0.062561 0.154341
0.918866 0.062561 0.154692
0.918866 0.062561 0.155223
0.918866 0.062561 0.155607
0.918866 0.062561 0.155607
0.918866 0.062561 0.155607
0.062561 0.126080 0.062561
0.062561 0.126080 0.062561
0.062561 0.126080 0.062561
0.062561 0.126080 0.062561
0.062561 0.125771 0.062561
0.084036 0.125291 0.062561
0.117283 0.124654 0.062561
0.155730 0.123645 0.062561
0.196950 0.122023 0.062561
0.243526 0.119361 0.062561
0.302497 0.114389 0.062561
0.371366 0.105649 0.063404
0.444661 0.092806 0.067507
0.517800 0.075990 0.072880
0.590217 0.062561 0.079597
0.661648 0.062561 0.087717
0.731691 0.062561 0.097239
0.799916 0.062561 0.108109
0.865878 0.062561 0.119675
0.918866 0.062561 0.129683
0.918866 0.062561 0.137335
0.918866 0.062561 0.142993
0.918866 0.062561 0.146992
0.918866 0.062561 0.149649
0.918866 0.062561 0.151273
0.918866 0.062561 0.152172
0.918866 0.062561 0.152648
0.918866 0.062561 0.153005
0.918866 0.062561 0.153545
0.918866 0.062561 0.153935
0.918866 0.062561 0.153935
0.918866 0.062561 0.153935
0.062561 0.157489 0.062561
0.062561 0.157489 0.062561
0.062561 0.157489 0.062561
0.062561 0.157489 0.062561
0.062561 0.157268 0.062561
0.069835 0.156926 0.062561
0.103370 0.156473 0.062561
0.146808 0.155758 0.062561
0.190863 0.154616 0.062561
0.239215 0.152763 0.062561
0.299470 0.149374 0.062561
0.369204 0.143548 0.062561
0.443056 0.134374 0.063189
0.516553 0.120725 0.068561
0.589215 0.100368 0.075279
0.660820 0.074952 0.083398
0.730992 0.062561 0.092921
0.799314 0.062561 0.103790
0.865352 0.062561 0.115726
0.918866 0.062561 0.126192
0.918866 0.062561 0.134139
0.918866 0.062561 0.139991
0.918866 0.062561 0.144115
0.918866 0.062561 0.146851
0.918866 0.062561 0.148521
0.918866 0.062561 0.149445
0.918866 0.062561 0.149935
0.918866 0.062561 0.150301
0.918866 0.062561 0.150856
0.918866 0.062561 0.151257
0.918866 0.062561 0.151257
0.918866 0.062561 0.151257
0.062561 0.193400 0.062561
0.062561 0.193400 0.062561
0.062561 0.193400 0.062561
0.062561 0.193400 0.062561
0.062561 0.193239 0.062561
0.062561 0.192990 0.062561
0.080901 0.192661 0.062561
0.130731 0.192143 0.062561
0.180563 0.191319 0.062561
0.232130 0.189990 0.062561
0.294577 0.187584 0.062561
0.365742 0.183530 0.062561
0.440496 0.177374 0.062561
0.514570 0.168777 0.062561
0.587624 0.156975 0.068445
0.659507 0.140605 0.076564
0.729884 0.116748 0.086087
0.798361 0.082964 0.096957
0.864517 0.062561 0.109060
0.918866 0.062561 0.120356
0.918866 0.062561 0.128836
0.918866 0.062561 0.135032
0.918866 0.062561 0.139377
0.918866 0.062561 0.142250
0.918866 0.062561 0.144003
0.918866 0.062561 0.144970
0.918866 0.062561 0.145483
0.918866 0.062561 0.145866
0.918866 0.062561 0.146447
0.918866 0.062561 0.146866
0.918866 0.062561 0.146866
0.918866 0.062561 0.146866
0.062561 0.235391 0.062561
0.062561 0.235391 0.062561
0.062561 0.235391 0.062561
0.062561 0.235391 0.062561
0.062561 0.235273 0.062561
0.062561 0.235090 0.062561
0.062561 0.234849 0.062561
0.097543 0.234470 0.062561
0.161901 0.233868 0.062561
0.220034 0.232901 0.062561
0.286473 0.231161 0.062561
0.360093 0.228261 0.062561
0.436353 0.223936 0.062561
0.511375 0.218065 0.062561
0.585065 0.210354 0.062561
0.657399 0.200397 0.065641
0.728106 0.187632 0.075163
0.796832 0.171179 0.086033
0.863181 0.149401 0.098136
0.918866 0.121797 0.110054
0.918866 0.091040 0.119614
0.918866 0.065919 0.126486
0.918866 0.062561 0.131258
0.918866 0.062561 0.134394
0.918866 0.062561 0.136300
0.918866 0.062561 0.137350
0.918866 0.062561 0.137905
0.918866 0.062561 0.138321
0.918866 0.062561 0.138949
0.918866 0.062561 0.139404
0.918866 0.062561 0.139404
0.918866 0.062561 0.139404
0.062561 0.289647 0.062561
0.062561 0.289647 0.062561
0.062561 0.289647 0.062561
0.062561 0.289647 0.062561
0.062561 0.289562 0.062561
0.062561 0.289431 0.062561
0.062561 0.289258 0.062561
0.062561 0.288986 0.062561
0.116465 0.288556 0.062561
0.195406 0.287866 0.062561
0.271034 0.286628 0.062561
0.349648 0.284581 0.062561
0.428804 0.281559 0.062561
0.505595 0.277521 0.062561
0.580458 0.272336 0.062561
0.653613 0.265849 0.062561
0.724919 0.257903 0.062561
0.794096 0.248326 0.066563
0.860791 0.236919 0.078666
0.918866 0.224764 0.090584
0.918866 0.213594 0.100672
0.918866 0.204005 0.108698
0.918866 0.196387 0.114567
0.918866 0.190868 0.118377
0.918866 0.187290 0.120669
0.918866 0.185238 0.121926
0.918866 0.184129 0.122588
0.918866 0.183287 0.123083
0.918866 0.181996 0.123831
0.918866 0.181049 0.124369
0.918866 0.181049 0.124369
0.918866 0.181049 0.124369
0.062561 0.353785 0.062561
0.062561 0.353785 0.062561
0.062561 0.353785 0.062561
0.062561 0.353785 0.062561
0.062561 0.353724 0.062561
0.062561 0.353629 0.062561
0.062561 0.353504 0.062561
0.062561 0.353308 0.062561
0.062561 0.352998 0.062561
0.139058 0.352500 0.062561
0.242124 0.351611 0.062561
0.331323 0.350143 0.062561
0.415923 0.347990 0.062561
0.495870 0.345139 0.062561
0.572765 0.341519 0.062561
0.647322 0.337058 0.062561
0.719640 0.331700 0.062561
0.789572 0.325408 0.062561
0.856845 0.318161 0.062561
0.915370 0.310754 0.062561
0.918866 0.304251 0.068734
0.918866 0.298915 0.076760
0.918866 0.294844 0.082727
0.918866 0.291991 0.086831
0.918866 0.290186 0.089394
0.918866 0.289167 0.090831
0.918866 0.288620 0.091598
0.918866 0.288208 0.092174
0.918866 0.287580 0.093051
0.918866 0.287122 0.093687
0.918866 0.287122 0.093687
0.918866 0.287122 0.093687
0.062561 0.422511 0.062561
0.062561 0.422511 0.062561
0.062561 0.422511 0.062561
0.062561 0.422511 0.062561
0.062561 0.422465 0.062561
0.062561 0.422394 0.062561
0.062561 0.422301 0.062561
0.062561 0.422154 0.062561
0.062561 0.421922 0.062561
0.062561 0.421551 0.062561
0.186260 0.420887 0.062561
0.301289 0.419796 0.062561
0.395924 0.418199 0.062561
0.481133 0.416095 0.062561
0.561258 0.413437 0.062561
0.637985 0.410187 0.062561
0.711844 0.406321 0.062561
0.782914 0.401832 0.062561
0.851050 0.396736 0.062561
0.910192 0.391611 0.062561
0.918866 0.387184 0.062561
0.918866 0.383603 0.062561
0.918866 0.380904 0.062561
0.918866 0.379030 0.062561
0.918866 0.377851 0.062561
0.918866 0.377188 0.062561
0.918866 0.376833 0.062561
0.918866 0.376566 0.062561
0.918866 0.376159 0.062561
0.918866 0.375864 0.062561
0.918866 0.375864 0.062561
0.918866 0.375864 0.062561
0.062561 0.491346 0.062561
0.062561 0.491346 0.062561
0.062561 0.491346 0.062561
0.062561 0.491346 0.062561
0.062561 0.491310 0.062561
0.062561 0.491255 0.062561
0.062561 0.491182 0.062561
0.062561 0.491068 0.062561
0.062561 0.490887 0.062561
0.062561 0.490598 0.062561
0.062561 0.490082 0.062561
0.252610 0.489234 0.062561
0.366930 0.487995 0.062561
0.460628 0.486365 0.062561
0.545570 0.484314 0.062561
0.625402 0.481817 0.062561
0.701413 0.478859 0.062561
0.774048 0.475447 0.062561
0.843361 0.471599 0.062561
0.903334 0.467757 0.062561
0.918866 0.464465 0.062561
0.918866 0.461818 0.062561
0.918866 0.459833 0.062561
0.918866 0.458460 0.062561
0.918866 0.457599 0.062561
0.918866 0.457115 0.062561
0.918866 0.456857 0.062561
0.918866 0.456662 0.062561
0.918866 0.456366 0.062561
0.918866 0.456151 0.062561
0.918866 0.456151 0.062561
0.918866 0.456151 0.062561
0.062561 0.559649 0.062561
0.062561 0.559649 0.062561
0.062561 0.559649 0.062561
0.062561 0.559649 0.062561
0.062561 0.559621 0.062561
0.062561 0.559576 0.062561
0.062561 0.559518 0.062561
0.062561 0.559426 0.062561
0.062561 0.559280 0.062561
0.062561 0.559047 0.062561
0.062561 0.558631 0.062561
0.154064 0.557949 0.062561
0.324368 0.556954 0.062561
0.432653 0.555646 0.062561
0.524833 0.554004 0.062561
0.609047 0.552008 0.062561
0.687993 0.549652 0.062561
0.762716 0.546942 0.062561
0.833577 0.543897 0.062561
0.894634 0.540871 0.062561
0.918866 0.538289 0.062561
0.918866 0.536218 0.062561
0.918866 0.534670 0.062561
0.918866 0.533602 0.062561
0.918866 0.532933 0.062561
0.918866 0.532557 0.062561
0.918866 0.532356 0.062561
0.918866 0.532205 0.062561
0.918866 0.531975 0.062561
0.918866 0.531808 0.062561
0.918866 0.531808 0.062561
0.918866 0.531808 0.062561
0.062561 0.627111 0.062561
0.062561 0.627111 0.062561
0.062561 0.627111 0.062561
0.062561 0.627111 0.062561
0.062561 0.627087 0.062561
0.062561 0.627050 0.062561
0.062561 0.627002 0.062561
0.062561 0.626926 0.062561
0.062561 0.626805 0.062561
0.062561 0.626613 0.062561
0.062561 0.626269 0.062561
0.062561 0.625705 0.062561
0.256237 0.624884 0.062561
0.394266 0.623805 0.062561
0.497795 0.622452 0.062561
0.588246 0.620809 0.062561
0.671164 0.618873 0.062561
0.748630 0.616652 0.062561
0.821486 0.614162 0.062561
0.883924 0.611694 0.062561
0.918866 0.609592 0.062561
0.918866 0.607911 0.062561
0.918866 0.606656 0.062561
0.918866 0.605790 0.062561
0.918866 0.605248 0.062561
0.918866 0.604944 0.062561
0.918866 0.604782 0.062561
0.918866 0.604660 0.062561
0.918866 0.604474 0.062561
0.918866 0.604339 0.062561
0.918866 0.604339 0.062561
0.918866 0.604339 0.062561
0.062561 0.693319 0.062561
0.062561 0.693319 0.062561
0.062561 0.693319 0.062561
0.062561 0.693319 0.062561
0.062561 0.693298 0.062561
0.062561 0.693268 0.062561
0.062561 0.693226 0.062561
0.062561 0.693162 0.062561
0.062561 0.693061 0.062561
0.062561 0.692897 0.062561
0.062561 0.692608 0.062561
0.062561 0.692131 0.062561
0.075942 0.691437 0.062561
0.339547 0.690527 0.062561
0.462616 0.689385 0.062561
0.562172 0.688002 0.062561
0.650480 0.686373 0.062561
0.731523 0.684506 0.062561
0.806914 0.682417 0.062561
0.871078 0.680349 0.062561
0.918866 0.678590 0.062561
0.918866 0.677186 0.062561
0.918866 0.676138 0.062561
0.918866 0.675417 0.062561
0.918866 0.674965 0.062561
0.918866 0.674712 0.062561
0.918866 0.674576 0.062561
0.918866 0.674475 0.062561
0.918866 0.674320 0.062561
0.918866 0.674208 0.062561
0.918866 0.674208 0.062561
0.918866 0.674208 0.062561
0.062561 0.757846 0.062561
0.062561 0.757846 0.062561
0.062561 0.757846 0.062561
0.062561 0.757846 0.062561
0.062561 0.757829 0.062561
0.062561 0.757802 0.062561
0.062561 0.757766 0.062561
0.062561 0.757711 0.062561
0.062561 0.757623 0.062561
0.062561 0.757483 0.062561
0.062561 0.757234 0.062561
0.062561 0.756823 0.062561
0.062561 0.756226 0.062561
0.250926 0.755443 0.062561
0.416123 0.754461 0.062561
0.529709 0.753272 0.062561
0.625439 0.751874 0.062561
0.711135 0.750272 0.062561
0.789718 0.748482 0.062561
0.856012 0.746712 0.062561
0.906040 0.745208 0.062561
0.918866 0.744008 0.062561
0.918866 0.743114 0.062561
0.918866 0.742498 0.062561
0.918866 0.742112 0.062561
0.918866 0.741897 0.062561
0.918866 0.741781 0.062561
0.918866 0.741695 0.062561
0.918866 0.741562 0.062561
0.918866 0.741466 0.062561
0.918866 0.741466 0.062561
0.918866 0.741466 0.062561
0.062561 0.820258 0.062561
0.062561 0.820258 0.062561
0.062561 0.820258 0.062561
0.062561 0.820258 0.062561
0.062561 0.820243 0.062561
0.062561 0.820219 0.062561
0.062561 0.820188 0.062561
0.062561 0.820140 0.062561
0.062561 0.820063 0.062561
0.062561 0.819940 0.062561
0.062561 0.819722 0.062561
0.062561 0.819362 0.062561
0.062561 0.818840 0.062561
0.062561 0.818155 0.062561
0.351541 0.817297 0.062561
0.489168 0.816258 0.062561
0.595427 0.815036 0.062561
0.687217 0.813638 0.062561
0.769801 0.812076 0.062561
0.838695 0.810534 0.062561
0.890342 0.809224 0.062561
0.918866 0.808180 0.062561
0.918866 0.807402 0.062561
0.918866 0.806866 0.062561
0.918866 0.806531 0.062561
0.918866 0.806343 0.062561
0.918866 0.806243 0.062561
0.918866 0.806167 0.062561
0.918866 0.806053 0.062561
0.918866 0.805969 0.062561
0.918866 0.805969 0.062561
0.918866 0.805969 0.062561
0.062561 0.874759 0.062561
0.062561 0.874759 0.062561
0.062561 0.874759 0.062561
0.062561 0.874759 0.062561
0.062561 0.874746 0.062561
0.062561 0.874725 0.062561
0.062561 0.874696 0.062561
0.062561 0.874653 0.062561
0.062561 0.874585 0.062561
0.062561 0.874474 0.062561
0.062561 0.874278 0.062561
0.062561 0.873956 0.062561
0.062561 0.873487 0.062561
0.062561 0.872873 0.062561
0.259636 0.872104 0.062561
0.442913 0.871172 0.062561
0.563178 0.870078 0.062561
0.662216 0.868826 0.062561
0.749303 0.867428 0.062561
0.821032 0.866048 0.062561
0.874413 0.864876 0.062561
0.913254 0.863943 0.062561
0.918866 0.863247 0.062561
0.918866 0.862769 0.062561
0.918866 0.862470 0.062561
0.918866 0.862301 0.062561
0.918866 0.862212 0.062561
0.918866 0.862145 0.062561
0.918866 0.862043 0.062561
0.918866 0.861968 0.062561
0.918866 0.861968 0.062561
0.918866 0.861968 0.062561
0.062561 0.916787 0.062561
0.062561 0.916787 0.062561
0.062561 0.916787 0.062561
0.062561 0.916787 0.062561
0.062561 0.916775 0.062561
0.062561 0.916755 0.062561
0.062561 0.916729 0.062561
0.062561 0.916689 0.062561
0.062561 0.916625 0.062561
0.062561 0.916524 0.062561
0.062561 0.916343 0.062561
0.062561 0.916045 0.062561
0.062561 0.915612 0.062561
0.062561 0.915045 0.062561
0.067303 0.914334 0.062561
0.396375 0.913474 0.062561
0.533255 0.912464 0.062561
0.639745 0.911308 0.062561
0.731185 0.910019 0.062561
0.805564 0.908746 0.062561
0.860538 0.907667 0.062561
0.900378 0.906806 0.062561
0.918866 0.906165 0.062561
0.918866 0.905724 0.062561
0.918866 0.905449 0.062561
0.918866 0.905294 0.062561
0.918866 0.905212 0.062561
0.918866 0.905149 0.062561
0.918866 0.905055 0.062561
0.918866 0.904986 0.062561
0.918866 0.904986 0.062561
0.918866 0.904986 0.062561
0.062561 0.918866 0.062561
0.062561 0.918866 0.062561
0.062561 0.918866 0.062561
0.062561 0.918866 0.062561
0.062561 0.918866 0.062561
0.062561 0.918866 0.062561
0.062561 0.918866 0.062561
0.062561 0.918866 0.062561
0.062561 0.918866 0.062561
0.062561 0.918866 0.062561
0.062561 0.918866 0.062561
0.062561 0.918866 0.062561
0.062561 0.918866 0.062561
0.062561 0.918866 0.062561
0.062561 0.918866 0.062561
0.351669 0.918866 0.062561
0.507291 0.918866 0.062561
0.620881 0.918866 0.062561
0.716215 0.918866 0.062561
0.792893 0.918866 0.062561
0.849225 0.918866 0.062561
0.889909 0.918866 0.062561
0.918244 0.918866 0.062561
0.918866 0.918866 0.062561
0.918866 0.918866 0.062561
0.918866 0.918866 0.062561
0.918866 0.918866 0.062561
0.918866 0.918866 0.062561
0.918866 0.918866 0.062561
0.918866 0.918866 0.062561
0.918866 0.918866 0.062561
0.918866 0.918866 0.062561
0.062561 0.918866 0.062561
0.062561 0.918866 0.062561
0.062561 0.918866 0.062561
0.062561 0.918866 0.062561
0.062561 0.918866 0.062561
0.062561 0.918866 0.062561
0.062561 0.918866 0.062561
0.062561 0.918866 0.062561
0.062561 0.918866 0.062561
0.062561 0.918866 0.062561
0.062561 0.918866 0.062561
0.062561 0.918866 0.062561
0.062561 0.918866 0.062561
0.062561 0.918866 0.062561
0.062561 0.918866 0.062561
0.311181 0.918866 0.062561
0.486450 0.918866 0.062561
0.606206 0.918866 0.062561
0.704734 0.918866 0.062561
0.783246 0.918866 0.062561
0.840643 0.918866 0.062561
0.881987 0.918866 0.062561
0.910734 0.918866 0.062561
0.918866 0.918866 0.062561
0.918866 0.918866 0.062561
0.918866 0.918866 0.062561
0.918866 0.918866 0.062561
0.918866 0.918866 0.062561
0.918866 0.918866 0.062561
0.918866 0.918866 0.062561
0.918866 0.918866 0.062561
0.918866 0.918866 0.062561
0.062561 0.918866 0.062561
0.062561 0.918866 0.062561
0.062561 0.918866 0.062561
0.062561 0.918866 0.062561
0.062561 0.918866 0.062561
0.062561 0.918866 0.062561
0.062561 0.918866 0.062561
0.062561 0.918866 0.062561
0.062561 0.918866 0.062561
0.062561 0.918866 0.062561
0.062561 0.918866 0.062561
0.062561 0.918866 0.062561
0.062561 0.918866 0.062561
0.062561 0.918866 0.062561
0.062561 0.918866 0.062561
0.277440 0.918866 0.062561
0.471217 0.918866 0.062561
0.595762 0.918866 0.062561
0.696654 0.918866 0.062561
0.776494 0.918866 0.062561
0.834657 0.918866 0.062561
0.876470 0.918866 0.062561
0.905510 0.918866 0.062561
0.918866 0.918866 0.062561
0.918866 0.918866 0.062561
0.918866 0.918866 0.062561
0.918866 0.918866 0.062561
0.918866 0.918866 0.062561
0.918866 0.918866 0.062561
0.918866 0.918866 0.062561
0.918866 0.918866 0.062561
0.918866 0.918866 0.062561
0.062561 0.918866 0.062561
0.062561 0.918866 0.062561
0.062561 0.918866 0.062561
0.062561 0.918866 0.062561
0.062561 0.918866 0.062561
0.062561 0.918866 0.062561
0.062561 0.918866 0.062561
0.062561 0.918866 0.062561
0.062561 0.918866 0.062561
0.062561 0.918866 0.062561
0.062561 0.918866 0.062561
0.062561 0.918866 0.062561
0.062561 0.918866 0.062561
0.062561 0.918866 0.062561
0.062561 0.918866 0.062561
0.252471 0.918866 0.062561
0.461268 0.918866 0.062561
0.589076 0.918866 0.062561
0.691523 0.918866 0.062561
0.772225 0.918866 0.062561
0.830879 0.918866 0.062561
0.872992 0.918866 0.062561
0.902219 0.918866 0.062561
0.918866 0.918866 0.062561
0.918866 0.918866 0.062561
0.918866 0.918866 0.062561
0.918866 0.918866 0.062561
0.918866 0.918866 0.062561
0.918866 0.918866 0.062561
0.918866 0.918866 0.062561
0.918866 0.918866 0.062561
0.918866 0.918866 0.062561
0.062561 0.918866 0.062561
0.062561 0.918866 0.062561
0.062561 0.918866 0.062561
0.062561 0.918866 0.062561
0.062561 0.918866 0.062561
0.062561 0.918866 0.062561
0.062561 0.918866 0.062561
0.062561 0.918866 0.062561
0.062561 0.918866 0.062561
0.062561 0.918866 0.062561
0.062561 0.918866 0.062561
0.062561 0.918866 0.062561
0.062561 0.918866 0.062561
0.062561 0.918866 0.062561
0.062561 0.918866 0.062561
0.236571 0.918866 0.062561
0.455537 0.918866 0.062561
0.585276 0.918866 0.062561
0.688622 0.918866 0.062561
0.769816 0.918866 0.062561
0.828750 0.918866 0.062561
0.871034 0.918866 0.062561
0.900367 0.918866 0.062561
0.918866 0.918866 0.062561
0.918866 0.918866 0.062561
0.918866 0.918866 0.062561
0.918866 0.918866 0.062561
0.918866 0.918866 0.062561
0.918866 0.918866 0.062561
0.918866 0.918866 0.062561
0.918866 0.918866 0.062561
0.918866 0.918866 0.062561
0.062561 0.918866 0.062561
0.062561 0.918866 0.062561
0.062561 0.918866 0.062561
0.062561 0.918866 0.062561
0.062561 0.918866 0.062561
0.062561 0.918866 0.062561
0.062561 0.918866 0.062561
0.062561 0.918866 0.062561
0.062561 0.918866 0.062561
0.062561 0.918866 0.062561
0.062561 0.918866 0.062561
0.062561 0.918866 0.062561
0.062561 0.918866 0.062561
0.062561 0.918866 0.062561
0.062561 0.918866 0.062561
0.227344 0.918866 0.062561
0.452430 0.918866 0.062561
0.583231 0.918866 0.062561
0.687066 0.918866 0.062561
0.768525 0.918866 0.062561
0.827611 0.918866 0.062561
0.869986 0.918866 0.062561
0.899376 0.918866 0.062561
0.918680 0.918866 0.062561
0.918866 0.918866 0.062561
0.918866 0.918866 0.062561
0.918866 0.918866 0.062561
0.918866 0.918866 0.062561
0.918866 0.918866 0.062561
0.918866 0.918866 0.062561
0.918866 0.918866 0.062561
0.918866 0.918866 0.062561
0.062561 0.918866 0.062561
0.062561 0.918866 0.062561
0.062561 0.918866 0.062561
0.062561 0.918866 0.062561
0.062561 0.918866 0.062561
0.062561 0.918866 0.062561
0.062561 0.918866 0.062561
0.062561 0.918866 0.062561
0.062561 0.918866 0.062561
0.062561 0.918866 0.062561
0.062561 0.918866 0.062561
0.062561 0.918866 0.062561
0.062561 0.918866 0.062561
0.062561 0.918866 0.062561
0.062561 0.918866 0.062561
0.219988 0.918866 0.062561
0.450068 0.918866 0.062561
0.581685 0.918866 0.062561
0.685890 0.918866 0.062561
0.767552 0.918866 0.062561
