test-footage/LUT/AlexaV3_EI3200_LogC2Video_Rec709_LL_aftereffects3d.cube
# Alexa conversion LUT, logc2video, itu709. Legal in/legal out.
# created by alexalutconv (2.09)
LUT_3D_SIZE 5
DOMAIN_MIN 0.000000 0.000000 0.000000
DOMAIN_MAX 0.903226 0.903226 0.903226
0.062561 0.062561 0.062561
0.167307 0.062561 0.063489
0.591649 0.062561 0.085790
0.918866 0.062561 0.147140
0.918866 0.062561 0.157280
0.062561 0.157489 0.062561
0.146808 0.155758 0.062561
0.589215 0.100368 0.075279
0.918866 0.062561 0.139991
0.918866 0.062561 0.150856
0.062561 0.559649 0.062561
0.062561 0.559426 0.062561
0.524833 0.554004 0.062561
0.918866 0.536218 0.062561
0.918866 0.531975 0.062561
0.062561 0.918866 0.062561
0.062561 0.918866 0.062561
0.062561 0.918866 0.062561
0.889909 0.918866 0.062561
0.918866 0.918866 0.062561
0.062561 0.918866 0.062561
0.062561 0.918866 0.062561
0.062561 0.918866 0.062561
0.867993 0.918866 0.062561
0.918866 0.918866 0.062561
0.062561 0.062561 0.148350
0.163346 0.062561 0.148950
0.591142 0.062561 0.162363
0.918866 0.062561 0.196479
0.918866 0.062561 0.203143
0.062561 0.143930 0.141295
0.141940 0.141940 0.141940
0.588705 0.078904 0.156259
0.918866 0.062561 0.191985
0.918866 0.062561 0.198883
0.062561 0.557993 0.062561
0.062561 0.557768 0.062561
0.524214 0.552319 0.062561
0.918866 0.534439 0.062561
0.918866 0.530172 0.062561
0.062561 0.918866 0.062561
0.062561 0.918866 0.062561
0.062561 0.918866 0.062561
0.889654 0.918866 0.062561
0.918866 0.918866 0.062561
0.062561 0.918866 0.062561
0.062561 0.918866 0.062561
0.062561 0.918866 0.062561
0.867726 0.918866 0.062561
0.918866 0.918866 0.062561
0.062561 0.062561 0.529861
0.062561 0.062561 0.529940
0.578740 0.062561 0.531814
0.918866 0.062561 0.537681
0.918866 0.062561 0.539018
0.062561 0.062561 0.528974
0.062561 0.062561 0.529053
0.576214 0.062561 0.530932
0.918866 0.062561 0.536814
0.918866 0.062561 0.538155
0.062561 0.515451 0.506864
0.062561 0.515194 0.506949
0.508965 0.508965 0.508965
0.918866 0.488347 0.515268
0.918866 0.483383 0.516703
0.062561 0.918866 0.423284
0.062561 0.918866 0.423397
0.062561 0.918866 0.426107
0.883479 0.918866 0.434511
0.918866 0.918866 0.436411
0.062561 0.918866 0.399668
0.062561 0.918866 0.399792
0.062561 0.918866 0.402768
0.861283 0.918866 0.411964
0.918866 0.918866 0.414037
0.062561 0.062561 0.898304
0.062561 0.062561 0.898336
0.536186 0.062561 0.899113
0.918866 0.062561 0.901564
0.918866 0.062561 0.902128
0.062561 0.062561 0.897938
0.062561 0.062561 0.897970
0.533316 0.062561 0.898747
0.918866 0.062561 0.901200
0.918866 0.062561 0.901764
0.062561 0.309611 0.889063
0.062561 0.309018 0.889096
0.454790 0.294190 0.889885
0.918866 0.236606 0.892380
0.918866 0.219679 0.892953
0.062561 0.874246 0.859911
0.062561 0.874140 0.859946
0.062561 0.871588 0.860782
0.863419 0.863419 0.863419
0.918866 0.861517 0.864025
0.062561 0.918866 0.852948
0.062561 0.918866 0.852983
0.062561 0.918866 0.853830
0.840316 0.918866 0.856503
0.918866 0.918866 0.857118
0.062561 0.062561 0.918866
0.062561 0.062561 0.918866
0.525539 0.062561 0.918866
0.918866 0.062561 0.918866
0.918866 0.062561 0.918866
0.062561 0.062561 0.918866
0.062561 0.062561 0.918866
0.522571 0.062561 0.918866
0.918866 0.062561 0.918866
0.918866 0.062561 0.918866
0.062561 0.207978 0.918866
0.062561 0.206856 0.918866
0.440677 0.176408 0.918866
0.918866 0.062561 0.918866
0.918866 0.062561 0.918866
0.062561 0.860326 0.918866
0.062561 0.860217 0.918866
0.062561 0.857594 0.918866
0.858680 0.849196 0.918866
0.918866 0.847240 0.918866
0.062561 0.918866 0.913162
0.062561 0.918866 0.913194
0.062561 0.918866 0.913948
0.835354 0.918595 0.916333
0.916882 0.916882 0.916882
