test-footage/LUT/AlexaV3_EI0800_LogC2Video_DCIP3D65_LE_aftereffects3d.cube
# Alexa conversion LUT, logc2video, p3d65. Legal in/full out.
# created by alexalutconv (2.10)
LUT_3D_SIZE 17
0.000000 0.000000 0.000000
0.000000 0.000000 0.000000
0.010460 0.000124 0.000263
0.078351 0.000966 0.002044
0.159558 0.002805 0.005935
0.265645 0.007543 0.015962
0.411454 0.020089 0.042509
0.561955 0.042875 0.085315
0.705958 0.074530 0.127474
0.841452 0.105428 0.167143
0.955256 0.131380 0.200461
1.000000 0.146838 0.220306
1.000000 0.154490 0.230131
1.000000 0.157353 0.233807
1.000000 0.158384 0.235130
1.000000 0.158449 0.235213
1.000000 0.158449 0.235213
0.000000 0.000000 0.000000
0.000000 0.000000 0.000000
0.010460 0.000124 0.000263
0.078351 0.000966 0.002044
0.159558 0.002805 0.005935
0.265645 0.007543 0.015962
0.411454 0.020089 0.042509
0.561955 0.042875 0.085315
0.705958 0.074530 0.127474
0.841452 0.105428 0.167143
0.955256 0.131380 0.200461
1.000000 0.146838 0.220306
1.000000 0.154490 0.230131
1.000000 0.157353 0.233807
1.000000 0.158384 0.235130
1.000000 0.158449 0.235213
1.000000 0.158449 0.235213
0.000000 0.010610 0.000000
0.000000 0.010610 0.000000
0.009608 0.010733 0.000077
0.077686 0.011576 0.001858
0.159233 0.013414 0.005749
0.265476 0.018153 0.015776
0.411366 0.030698 0.042323
0.561902 0.053485 0.085180
0.705922 0.082767 0.127383
0.841425 0.111586 0.167075
0.955235 0.136335 0.200408
1.000000 0.151233 0.220259
1.000000 0.158642 0.230087
1.000000 0.161419 0.233763
1.000000 0.162419 0.235087
1.000000 0.162482 0.235169
1.000000 0.162482 0.235169
0.000000 0.079258 0.000000
0.000000 0.079258 0.000000
0.003832 0.079354 0.000000
0.073041 0.080001 0.000597
0.156998 0.081398 0.004487
0.264329 0.084910 0.014514
0.410771 0.093648 0.041061
0.561543 0.107852 0.084260
0.705678 0.126029 0.126760
0.841246 0.146508 0.166617
0.955091 0.165688 0.200043
1.000000 0.177796 0.219936
1.000000 0.183951 0.229781
1.000000 0.186280 0.233465
1.000000 0.187121 0.234791
1.000000 0.187174 0.234874
1.000000 0.187174 0.234874
0.000000 0.160852 0.000000
0.000000 0.160852 0.000000
0.000000 0.160899 0.000000
0.061995 0.161218 0.000000
0.151984 0.161912 0.001732
0.261797 0.163682 0.011759
0.409464 0.168265 0.038306
0.560758 0.176224 0.082219
0.705145 0.187270 0.125388
0.840853 0.200755 0.165612
0.954779 0.214263 0.199242
1.000000 0.223176 0.219228
1.000000 0.227812 0.229115
1.000000 0.229583 0.232812
1.000000 0.230225 0.234143
1.000000 0.230265 0.234226
1.000000 0.230265 0.234226
0.000000 0.267444 0.000000
0.000000 0.267444 0.000000
0.000000 0.267468 0.000000
0.029700 0.267634 0.000000
0.138098 0.267993 0.000000
0.255111 0.268917 0.004658
0.406067 0.271342 0.031205
0.558724 0.275669 0.076754
0.703769 0.281911 0.121777
0.839842 0.289888 0.162987
0.953972 0.298252 0.197159
1.000000 0.303965 0.217391
1.000000 0.306995 0.227383
1.000000 0.308162 0.231118
1.000000 0.308587 0.232463
1.000000 0.308613 0.232546
1.000000 0.308613 0.232546
0.000000 0.413949 0.000000
0.000000 0.413949 0.000000
0.000000 0.413961 0.000000
0.000000 0.414047 0.000000
0.090917 0.414235 0.000000
0.236119 0.414717 0.000000
0.396853 0.415990 0.012406
0.553280 0.418287 0.060502
0.700102 0.421655 0.111634
0.837153 0.426054 0.155783
0.951830 0.430776 0.191505
1.000000 0.434066 0.212427
1.000000 0.435830 0.222713
1.000000 0.436514 0.226550
1.000000 0.436764 0.227931
1.000000 0.436780 0.228017
1.000000 0.436780 0.228017
0.000000 0.565167 0.000000
0.000000 0.565167 0.000000
0.000000 0.565174 0.000000
0.000000 0.565226 0.000000
0.000000 0.565340 0.000000
0.195053 0.565631 0.000000
0.379206 0.566401 0.000000
0.543156 0.567795 0.026478
0.693355 0.569852 0.090414
0.832229 0.572557 0.141606
0.947916 0.575488 0.180660
1.000000 0.577545 0.202999
1.000000 0.578654 0.213879
1.000000 0.579085 0.217924
1.000000 0.579242 0.219377
1.000000 0.579251 0.219468
1.000000 0.579251 0.219468
0.000000 0.709856 0.000000
0.000000 0.709856 0.000000
0.000000 0.709861 0.000000
0.000000 0.709896 0.000000
0.000000 0.709973 0.000000
0.098506 0.710171 0.000000
0.350449 0.710694 0.000000
0.527550 0.711643 0.000000
0.683142 0.713046 0.047334
0.824835 0.714897 0.117105
0.942062 0.716909 0.162929
1.000000 0.718326 0.187889
1.000000 0.719091 0.199831
1.000000 0.719389 0.204242
1.000000 0.719497 0.205822
1.000000 0.719504 0.205921
1.000000 0.719504 0.205921
0.000000 0.845994 0.000000
0.000000 0.845994 0.000000
0.000000 0.845998 0.000000
0.000000 0.846024 0.000000
0.000000 0.846081 0.000000
0.000000 0.846227 0.000000
0.305746 0.846612 0.000000
0.505621 0.847312 0.000000
0.669193 0.848346 0.000000
0.814856 0.849714 0.073156
0.934204 0.851202 0.135184
1.000000 0.852252 0.165167
1.000000 0.852820 0.179008
1.000000 0.853040 0.184056
1.000000 0.853121 0.185857
1.000000 0.853126 0.185970
1.000000 0.853126 0.185970
0.000000 0.960341 0.000000
0.000000 0.960341 0.000000
0.000000 0.960344 0.000000
0.000000 0.960365 0.000000
0.000000 0.960410 0.000000
0.000000 0.960527 0.000000
0.242402 0.960834 0.000000
0.479744 0.961393 0.000000
0.653368 0.962220 0.000000
0.803707 0.963312 0.001742
0.925486 0.964505 0.095257
0.996845 0.965345 0.135125
1.000000 0.965800 0.152212
1.000000 0.965976 0.158301
1.000000 0.966041 0.160458
1.000000 0.966045 0.160592
1.000000 0.966045 0.160592
0.000000 1.000000 0.000000
0.000000 1.000000 0.000000
0.000000 1.000000 0.000000
0.000000 1.000000 0.000000
0.000000 1.000000 0.000000
0.000000 1.000000 0.000000
0.178219 1.000000 0.000000
0.459987 1.000000 0.000000
0.641774 1.000000 0.000000
0.795659 1.000000 0.000000
0.919234 1.000000 0.053379
0.991377 1.000000 0.108419
1.000000 1.000000 0.129363
1.000000 1.000000 0.136609
1.000000 1.000000 0.139154
1.000000 1.000000 0.139312
1.000000 1.000000 0.139312
0.000000 1.000000 0.000000
0.000000 1.000000 0.000000
0.000000 1.000000 0.000000
0.000000 1.000000 0.000000
0.000000 1.000000 0.000000
0.000000 1.000000 0.000000
0.126554 1.000000 0.000000
0.448693 1.000000 0.000000
0.635343 1.000000 0.000000
0.791240 1.000000 0.000000
0.915816 1.000000 0.025344
0.988394 1.000000 0.090756
1.000000 1.000000 0.114937
1.000000 1.000000 0.123085
1.000000 1.000000 0.125925
1.000000 1.000000 0.126101
1.000000 1.000000 0.126101
0.000000 1.000000 0.000000
0.000000 1.000000 0.000000
0.000000 1.000000 0.000000
0.000000 1.000000 0.000000
0.000000 1.000000 0.000000
0.000000 1.000000 0.000000
0.098633 1.000000 0.000000
0.444170 1.000000 0.000000
0.632809 1.000000 0.000000
0.789508 1.000000 0.000000
0.914479 1.000000 0.014431
0.987228 1.000000 0.082969
1.000000 1.000000 0.108791
1.000000 1.000000 0.117374
1.000000 1.000000 0.120355
1.000000 1.000000 0.120540
1.000000 1.000000 0.120540
0.000000 1.000000 0.000000
0.000000 1.000000 0.000000
0.000000 1.000000 0.000000
0.000000 1.000000 0.000000
0.000000 1.000000 0.000000
0.000000 1.000000 0.000000
0.086316 1.000000 0.000000
0.442500 1.000000 0.000000
0.631879 1.000000 0.000000
0.788873 1.000000 0.000000
0.913990 1.000000 0.010446
0.986801 1.000000 0.079963
1.000000 1.000000 0.106459
1.000000 1.000000 0.115216
1.000000 1.000000 0.118252
1.000000 1.000000 0.118440
1.000000 1.000000 0.118440
0.000000 1.000000 0.000000
0.000000 1.000000 0.000000
0.000000 1.000000 0.000000
0.000000 1.000000 0.000000
0.000000 1.000000 0.000000
0.000000 1.000000 0.000000
0.085492 1.000000 0.000000
0.442395 1.000000 0.000000
0.631821 1.000000 0.000000
0.788834 1.000000 0.000000
0.913959 1.000000 0.010196
0.986774 1.000000 0.079771
1.000000 1.000000 0.106311
1.000000 1.000000 0.115079
1.000000 1.000000 0.118119
1.000000 1.000000 0.118307
1.000000 1.000000 0.118307
0.000000 1.000000 0.000000
0.000000 1.000000 0.000000
0.000000 1.000000 0.000000
0.000000 1.000000 0.000000
0.000000 1.000000 0.000000
0.000000 1.000000 0.000000
0.085492 1.000000 0.000000
0.442395 1.000000 0.000000
0.631821 1.000000 0.000000
0.788834 1.000000 0.000000
0.913959 1.000000 0.010196
0.986774 1.000000 0.079771
1.000000 1.000000 0.106311
1.000000 1.000000 0.115079
1.000000 1.000000 0.118119
1.000000 1.000000 0.118307
1.000000 1.000000 0.118307
0.000000 0.000000 0.000000
0.000000 0.000000 0.000000
0.010460 0.000124 0.000263
0.078351 0.000966 0.002044
0.159558 0.002805 0.005935
0.265645 0.007543 0.015962
0.411454 0.020089 0.042509
0.561955 0.042875 0.085315
0.705958 0.074530 0.127474
0.841452 0.105428 0.167143
0.955256 0.131380 0.200461
1.000000 0.146838 0.220306
1.000000 0.154490 0.230131
1.000000 0.157353 0.233807
1.000000 0.158384 0.235130
1.000000 0.158449 0.235213
1.000000 0.158449 0.235213
0.000000 0.000000 0.000000
0.000000 0.000000 0.000000
0.010460 0.000124 0.000263
0.078351 0.000966 0.002044
0.159558 0.002805 0.005935
0.265645 0.007543 0.015962
0.411454 0.020089 0.042509
0.561955 0.042875 0.085315
0.705958 0.074530 0.127474
0.841452 0.105428 0.167143
0.955256 0.131380 0.200461
1.000000 0.146838 0.220306
1.000000 0.154490 0.230131
1.000000 0.157353 0.233807
1.000000 0.158384 0.235130
1.000000 0.158449 0.235213
1.000000 0.158449 0.235213
0.000000 0.010610 0.000000
0.000000 0.010610 0.000000
0.009608 0.010733 0.000077
0.077686 0.011576 0.001858
0.159233 0.013414 0.005749
0.265476 0.018153 0.015776
0.411366 0.030698 0.042323
0.561902 0.053485 0.085180
0.705922 0.082767 0.127383
0.841425 0.111586 0.167075
0.955235 0.136335 0.200408
1.000000 0.151233 0.220259
1.000000 0.158642 0.230087
1.000000 0.161419 0.233763
1.000000 0.162419 0.235087
1.000000 0.162482 0.235169
1.000000 0.162482 0.235169
0.000000 0.079258 0.000000
0.000000 0.079258 0.000000
0.003832 0.079354 0.000000
0.073041 0.080001 0.000597
0.156998 0.081398 0.004487
0.264329 0.084910 0.014514
0.410771 0.093648 0.041061
0.561543 0.107852 0.084260
0.705678 0.126029 0.126760
0.841246 0.146508 0.166617
0.955091 0.165688 0.200043
1.000000 0.177796 0.219936
1.000000 0.183951 0.229781
1.000000 0.186280 0.233465
1.000000 0.187121 0.234791
1.000000 0.187174 0.234874
1.000000 0.187174 0.234874
0.000000 0.160852 0.000000
0.000000 0.160852 0.000000
0.000000 0.160899 0.000000
0.061995 0.161218 0.000000
0.151984 0.161912 0.001732
0.261797 0.163682 0.011759
0.409464 0.168265 0.038306
0.560758 0.176224 0.082219
0.705145 0.187270 0.125388
0.840853 0.200755 0.165612
0.954779 0.214263 0.199242
1.000000 0.223176 0.219228
1.000000 0.227812 0.229115
1.000000 0.229583 0.232812
1.000000 0.230225 0.234143
1.000000 0.230265 0.234226
1.000000 0.230265 0.234226
0.000000 0.267444 0.000000
0.000000 0.267444 0.000000
0.000000 0.267468 0.000000
0.029700 0.267634 0.000000
0.138098 0.267993 0.000000
0.255111 0.268917 0.004658
0.406067 0.271342 0.031205
0.558724 0.275669 0.076754
0.703769 0.281911 0.121777
0.839842 0.289888 0.162987
0.953972 0.298252 0.197159
1.000000 0.303965 0.217391
1.000000 0.306995 0.227383
1.000000 0.308162 0.231118
1.000000 0.308587 0.232463
1.000000 0.308613 0.232546
1.000000 0.308613 0.232546
0.000000 0.413949 0.000000
0.000000 0.413949 0.000000
0.000000 0.413961 0.000000
0.000000 0.414047 0.000000
0.090917 0.414235 0.000000
0.236119 0.414717 0.000000
0.396853 0.415990 0.012406
0.553280 0.418287 0.060502
0.700102 0.421655 0.111634
0.837153 0.426054 0.155783
0.951830 0.430776 0.191505
1.000000 0.434066 0.212427
1.000000 0.435830 0.222713
1.000000 0.436514 0.226550
1.000000 0.436764 0.227931
1.000000 0.436780 0.228017
1.000000 0.436780 0.228017
0.000000 0.565167 0.000000
0.000000 0.565167 0.000000
0.000000 0.565174 0.000000
0.000000 0.565226 0.000000
0.000000 0.565340 0.000000
0.195053 0.565631 0.000000
0.379206 0.566401 0.000000
0.543156 0.567795 0.026478
0.693355 0.569852 0.090414
0.832229 0.572557 0.141606
0.947916 0.575488 0.180660
1.000000 0.577545 0.202999
1.000000 0.578654 0.213879
1.000000 0.579085 0.217924
1.000000 0.579242 0.219377
1.000000 0.579251 0.219468
1.000000 0.579251 0.219468
0.000000 0.709856 0.000000
0.000000 0.709856 0.000000
0.000000 0.709861 0.000000
0.000000 0.709896 0.000000
0.000000 0.709973 0.000000
0.098506 0.710171 0.000000
0.350449 0.710694 0.000000
0.527550 0.711643 0.000000
0.683142 0.713046 0.047334
0.824835 0.714897 0.117105
0.942062 0.716909 0.162929
1.000000 0.718326 0.187889
1.000000 0.719091 0.199831
1.000000 0.719389 0.204242
1.000000 0.719497 0.205822
1.000000 0.719504 0.205921
1.000000 0.719504 0.205921
0.000000 0.845994 0.000000
0.000000 0.845994 0.000000
0.000000 0.845998 0.000000
0.000000 0.846024 0.000000
0.000000 0.846081 0.000000
0.000000 0.846227 0.000000
0.305746 0.846612 0.000000
0.505621 0.847312 0.000000
0.669193 0.848346 0.000000
0.814856 0.849714 0.073156
0.934204 0.851202 0.135184
1.000000 0.852252 0.165167
1.000000 0.852820 0.179008
1.000000 0.853040 0.184056
1.000000 0.853121 0.185857
1.000000 0.853126 0.185970
1.000000 0.853126 0.185970
0.000000 0.960341 0.000000
0.000000 0.960341 0.000000
0.000000 0.960344 0.000000
0.000000 0.960365 0.000000
0.000000 0.960410 0.000000
0.000000 0.960527 0.000000
0.242402 0.960834 0.000000
0.479744 0.961393 0.000000
0.653368 0.962220 0.000000
0.803707 0.963312 0.001742
0.925486 0.964505 0.095257
0.996845 0.965345 0.135125
1.000000 0.965800 0.152212
1.000000 0.965976 0.158301
1.000000 0.966041 0.160458
1.000000 0.966045 0.160592
1.000000 0.966045 0.160592
0.000000 1.000000 0.000000
0.000000 1.000000 0.000000
0.000000 1.000000 0.000000
0.000000 1.000000 0.000000
0.000000 1.000000 0.000000
0.000000 1.000000 0.000000
0.178219 1.000000 0.000000
0.459987 1.000000 0.000000
0.641774 1.000000 0.000000
0.795659 1.000000 0.000000
0.919234 1.000000 0.053379
0.991377 1.000000 0.108419
1.000000 1.000000 0.129363
1.000000 1.000000 0.136609
1.000000 1.000000 0.139154
1.000000 1.000000 0.139312
1.000000 1.000000 0.139312
0.000000 1.000000 0.000000
0.000000 1.000000 0.000000
0.000000 1.000000 0.000000
0.000000 1.000000 0.000000
0.000000 1.000000 0.000000
0.000000 1.000000 0.000000
0.126554 1.000000 0.000000
0.448693 1.000000 0.000000
0.635343 1.000000 0.000000
0.791240 1.000000 0.000000
0.915816 1.000000 0.025344
0.988394 1.000000 0.090756
1.000000 1.000000 0.114937
1.000000 1.000000 0.123085
1.000000 1.000000 0.125925
1.000000 1.000000 0.126101
1.000000 1.000000 0.126101
0.000000 1.000000 0.000000
0.000000 1.000000 0.000000
0.000000 1.000000 0.000000
0.000000 1.000000 0.000000
0.000000 1.000000 0.000000
0.000000 1.000000 0.000000
0.098633 1.000000 0.000000
0.444170 1.000000 0.000000
0.632809 1.000000 0.000000
0.789508 1.000000 0.000000
0.914479 1.000000 0.014431
0.987228 1.000000 0.082969
1.000000 1.000000 0.108791
1.000000 1.000000 0.117374
1.000000 1.000000 0.120355
1.000000 1.000000 0.120540
1.000000 1.000000 0.120540
0.000000 1.000000 0.000000
0.000000 1.000000 0.000000
0.000000 1.000000 0.000000
0.000000 1.000000 0.000000
0.000000 1.000000 0.000000
0.000000 1.000000 0.000000
0.086316 1.000000 0.000000
0.442500 1.000000 0.000000
0.631879 1.000000 0.000000
0.788873 1.000000 0.000000
0.913990 1.000000 0.010446
0.986801 1.000000 0.079963
1.000000 1.000000 0.106459
1.000000 1.000000 0.115216
1.000000 1.000000 0.118252
1.000000 1.000000 0.118440
1.000000 1.000000 0.118440
0.000000 1.000000 0.000000
0.000000 1.000000 0.000000
0.000000 1.000000 0.000000
0.000000 1.000000 0.000000
0.000000 1.000000 0.000000
0.000000 1.000000 0.000000
0.085492 1.000000 0.000000
0.442395 1.000000 0.000000
0.631821 1.000000 0.000000
0.788834 1.000000 0.000000
0.913959 1.000000 0.010196
0.986774 1.000000 0.079771
1.000000 1.000000 0.106311
1.000000 1.000000 0.115079
1.000000 1.000000 0.118119
1.000000 1.000000 0.118307
1.000000 1.000000 0.118307
0.000000 1.000000 0.000000
0.000000 1.000000 0.000000
0.000000 1.000000 0.000000
0.000000 1.000000 0.000000
0.000000 1.000000 0.000000
0.000000 1.000000 0.000000
0.085492 1.000000 0.000000
0.442395 1.000000 0.000000
0.631821 1.000000 0.000000
0.788834 1.000000 0.000000
0.913959 1.000000 0.010196
0.986774 1.000000 0.079771
1.000000 1.000000 0.106311
1.000000 1.000000 0.115079
1.000000 1.000000 0.118119
1.000000 1.000000 0.118307
1.000000 1.000000 0.118307
0.000000 0.000000 0.008546
0.000000 0.000000 0.008546
0.009473 0.000000 0.008808
0.077580 0.000000 0.010590
0.159181 0.000693 0.014481
0.265449 0.005432 0.024508
0.411352 0.017977 0.051055
0.561894 0.040763 0.091324
0.705917 0.072801 0.131608
0.841421 0.104160 0.170204
0.955231 0.130370 0.202913
1.000000 0.145945 0.222476
1.000000 0.153649 0.232180
1.000000 0.156529 0.235812
1.000000 0.157567 0.237121
1.000000 0.157631 0.237202
1.000000 0.157631 0.237202
0.000000 0.000000 0.008546
0.000000 0.000000 0.008546
0.009473 0.000000 0.008808
0.077580 0.000000 0.010590
0.159181 0.000693 0.014481
0.265449 0.005432 0.024508
0.411352 0.017977 0.051055
0.561894 0.040763 0.091324
0.705917 0.072801 0.131608
0.841421 0.104160 0.170204
0.955231 0.130370 0.202913
1.000000 0.145945 0.222476
1.000000 0.153649 0.232180
1.000000 0.156529 0.235812
1.000000 0.157567 0.237121
1.000000 0.157631 0.237202
1.000000 0.157631 0.237202
0.000000 0.008498 0.008360
0.000000 0.008498 0.008360
0.008622 0.008622 0.008622
0.076909 0.009464 0.010404
0.158853 0.011303 0.014295
0.265281 0.016042 0.024322
0.411265 0.028587 0.050869
0.561841 0.051373 0.091198
0.705881 0.081183 0.131520
0.841394 0.110387 0.170138
0.955210 0.135364 0.202860
1.000000 0.150369 0.222429
1.000000 0.157826 0.232135
1.000000 0.160619 0.235769
1.000000 0.161626 0.237078
1.000000 0.161689 0.237159
1.000000 0.161689 0.237159
0.000000 0.077615 0.007098
0.000000 0.077615 0.007098
0.002846 0.077712 0.007361
0.072226 0.078370 0.009143
0.156612 0.079792 0.013033
0.264132 0.083361 0.023060
0.410669 0.092229 0.049607
0.561482 0.106612 0.090332
0.705637 0.124972 0.130918
0.841215 0.145613 0.169690
0.955068 0.164912 0.202500
1.000000 0.177084 0.222111
1.000000 0.183269 0.231834
1.000000 0.185608 0.235474
1.000000 0.186454 0.236785
1.000000 0.186506 0.236867
1.000000 0.186506 0.236867
0.000000 0.160050 0.004343
0.000000 0.160050 0.004343
0.000000 0.160097 0.004605
0.061071 0.160418 0.006387
0.151584 0.161115 0.010278
0.261598 0.162896 0.020305
0.409362 0.167504 0.046851
0.560696 0.175505 0.088414
0.705103 0.186604 0.129593
0.840823 0.200145 0.168707
0.954754 0.213702 0.201712
1.000000 0.222645 0.221412
1.000000 0.227295 0.231175
1.000000 0.229071 0.234829
1.000000 0.229716 0.236145
1.000000 0.229755 0.236226
1.000000 0.229755 0.236226
0.000000 0.267030 0.000000
0.000000 0.267030 0.000000
0.000000 0.267054 0.000000
0.028714 0.267219 0.000000
0.137653 0.267580 0.003177
0.254904 0.268506 0.013204
0.405964 0.270936 0.039751
0.558662 0.275273 0.083294
0.703727 0.281527 0.126109
0.839811 0.289519 0.166140
0.953947 0.297898 0.199662
1.000000 0.303620 0.219600
1.000000 0.306655 0.229465
1.000000 0.307824 0.233154
1.000000 0.308249 0.234483
1.000000 0.308276 0.234566
1.000000 0.308276 0.234566
0.000000 0.413733 0.000000
0.000000 0.413733 0.000000
0.000000 0.413745 0.000000
0.000000 0.413831 0.000000
0.090239 0.414019 0.000000
0.235889 0.414502 0.000000
0.396745 0.415776 0.020951
0.553216 0.418075 0.068254
0.700060 0.421446 0.116357
0.837122 0.425848 0.159105
0.951805 0.430574 0.194101
1.000000 0.433866 0.214702
1.000000 0.435632 0.224852
1.000000 0.436316 0.228642
1.000000 0.436566 0.230006
1.000000 0.436582 0.230091
1.000000 0.436582 0.230091
0.000000 0.565037 0.000000
0.000000 0.565037 0.000000
0.000000 0.565045 0.000000
0.000000 0.565096 0.000000
0.000000 0.565210 0.000000
0.194757 0.565501 0.000000
0.379090 0.566271 0.000000
0.543091 0.567666 0.035023
0.693312 0.569724 0.096138
0.832198 0.572431 0.145301
0.947891 0.575362 0.183449
1.000000 0.577420 0.205411
1.000000 0.578529 0.216134
1.000000 0.578959 0.220125
1.000000 0.579117 0.221559
1.000000 0.579127 0.221649
1.000000 0.579127 0.221649
0.000000 0.709768 0.000000
0.000000 0.709768 0.000000
0.000000 0.709773 0.000000
0.000000 0.709808 0.000000
0.000000 0.709885 0.000000
0.097876 0.710083 0.000000
0.350318 0.710606 0.000000
0.527482 0.711555 0.000000
0.683098 0.712958 0.055880
0.824804 0.714810 0.121611
0.942037 0.716823 0.166084
1.000000 0.718240 0.190547
1.000000 0.719005 0.202293
1.000000 0.719303 0.206635
1.000000 0.719411 0.208192
1.000000 0.719418 0.208290
1.000000 0.719418 0.208290
0.000000 0.845929 0.000000
0.000000 0.845929 0.000000
0.000000 0.845933 0.000000
0.000000 0.845959 0.000000
0.000000 0.846016 0.000000
0.000000 0.846162 0.000000
0.305587 0.846547 0.000000
0.505547 0.847247 0.000000
0.669147 0.848282 0.000000
0.814824 0.849649 0.079940
0.934179 0.851138 0.139071
1.000000 0.852188 0.168272
1.000000 0.852755 0.181829
1.000000 0.852976 0.186782
1.000000 0.853057 0.188552
1.000000 0.853062 0.188662
1.000000 0.853062 0.188662
0.000000 0.960290 0.000000
0.000000 0.960290 0.000000
0.000000 0.960293 0.000000
0.000000 0.960313 0.000000
0.000000 0.960359 0.000000
0.000000 0.960475 0.000000
0.242180 0.960782 0.000000
0.479664 0.961341 0.000000
0.653321 0.962168 0.000000
0.803674 0.963261 0.010288
0.925460 0.964453 0.100726
0.996823 0.965294 0.139013
1.000000 0.965748 0.155623
1.000000 0.965925 0.161562
1.000000 0.965990 0.163669
1.000000 0.965994 0.163800
1.000000 0.965994 0.163800
0.000000 1.000000 0.000000
0.000000 1.000000 0.000000
0.000000 1.000000 0.000000
0.000000 1.000000 0.000000
0.000000 1.000000 0.000000
0.000000 1.000000 0.000000
0.177888 1.000000 0.000000
0.459902 1.000000 0.000000
0.641725 1.000000 0.000000
0.795625 1.000000 0.000000
0.919207 1.000000 0.061727
0.991355 1.000000 0.113276
1.000000 1.000000 0.133435
1.000000 1.000000 0.140452
1.000000 1.000000 0.142921
1.000000 1.000000 0.143074
1.000000 1.000000 0.143074
0.000000 1.000000 0.000000
0.000000 1.000000 0.000000
0.000000 1.000000 0.000000
0.000000 1.000000 0.000000
0.000000 1.000000 0.000000
0.000000 1.000000 0.000000
0.126064 1.000000 0.000000
0.448604 1.000000 0.000000
0.635293 1.000000 0.000000
0.791206 1.000000 0.000000
0.915789 1.000000 0.033890
0.988371 1.000000 0.096461
1.000000 1.000000 0.119526
1.000000 1.000000 0.127371
1.000000 1.000000 0.130112
1.000000 1.000000 0.130282
1.000000 1.000000 0.130282
0.000000 1.000000 0.000000
0.000000 1.000000 0.000000
0.000000 1.000000 0.000000
0.000000 1.000000 0.000000
0.000000 1.000000 0.000000
0.000000 1.000000 0.000000
0.098004 1.000000 0.000000
0.444080 1.000000 0.000000
0.632759 1.000000 0.000000
0.789473 1.000000 0.000000
0.914453 1.000000 0.022977
0.987205 1.000000 0.089118
1.000000 1.000000 0.113632
1.000000 1.000000 0.121870
1.000000 1.000000 0.124739
1.000000 1.000000 0.124917
1.000000 1.000000 0.124917
0.000000 1.000000 0.000000
0.000000 1.000000 0.000000
0.000000 1.000000 0.000000
0.000000 1.000000 0.000000
0.000000 1.000000 0.000000
0.000000 1.000000 0.000000
0.085606 1.000000 0.000000
0.442410 1.000000 0.000000
0.631829 1.000000 0.000000
0.788839 1.000000 0.000000
0.913963 1.000000 0.018991
0.986778 1.000000 0.086297
1.000000 1.000000 0.111400
1.000000 1.000000 0.119795
1.000000 1.000000 0.122715
1.000000 1.000000 0.122896
1.000000 1.000000 0.122896
0.000000 1.000000 0.000000
0.000000 1.000000 0.000000
0.000000 1.000000 0.000000
0.000000 1.000000 0.000000
0.000000 1.000000 0.000000
0.000000 1.000000 0.000000
0.084776 1.000000 0.000000
0.442305 1.000000 0.000000
0.631771 1.000000 0.000000
0.788800 1.000000 0.000000
0.913933 1.000000 0.018741
0.986751 1.000000 0.086117
1.000000 1.000000 0.111258
1.000000 1.000000 0.119664
1.000000 1.000000 0.122587
1.000000 1.000000 0.122768
1.000000 1.000000 0.122768
0.000000 1.000000 0.000000
0.000000 1.000000 0.000000
0.000000 1.000000 0.000000
0.000000 1.000000 0.000000
0.000000 1.000000 0.000000
0.000000 1.000000 0.000000
0.084776 1.000000 0.000000
0.442305 1.000000 0.000000
0.631771 1.000000 0.000000
0.788800 1.000000 0.000000
0.913933 1.000000 0.018741
0.986751 1.000000 0.086117
1.000000 1.000000 0.111258
1.000000 1.000000 0.119664
1.000000 1.000000 0.122587
1.000000 1.000000 0.122768
1.000000 1.000000 0.122768
0.000000 0.000000 0.065952
0.000000 0.000000 0.065952
0.002780 0.000000 0.066185
0.072171 0.000000 0.067755
0.156586 0.000000 0.071091
0.264119 0.000000 0.079172
0.410662 0.003644 0.097799
0.561478 0.026431 0.125030
0.705634 0.060104 0.156554
0.841213 0.095131 0.189423
0.955066 0.123278 0.218624
1.000000 0.139716 0.236513
1.000000 0.147788 0.245479
1.000000 0.150798 0.248850
1.000000 0.151880 0.250067
1.000000 0.151948 0.250142
1.000000 0.151948 0.250142
