test-footage/LUT/AlexaV3_EI0800_LogC2Video_Rec709_LE_aftereffects3d.cube
# Alexa conversion LUT, logc2video, itu709. Legal in/full out.
# created by alexalutconv (2.10)
LUT_3D_SIZE 17
0.000000 0.000000 0.000000
0.000000 0.000000 0.000000
0.009468 0.000000 0.000069
0.072252 0.000000 0.000535
0.153273 0.000000 0.001554
0.262822 0.000000 0.004178
0.418456 0.000000 0.011127
0.583802 0.000000 0.023748
0.745574 0.000000 0.042454
0.900455 0.000000 0.066621
1.000000 0.000000 0.088247
1.000000 0.000000 0.101240
1.000000 0.000000 0.107703
1.000000 0.000000 0.110125
1.000000 0.000000 0.110998
1.000000 0.000000 0.111052
1.000000 0.000000 0.111052
0.000000 0.000000 0.000000
0.000000 0.000000 0.000000
0.009468 0.000000 0.000069
0.072252 0.000000 0.000535
0.153273 0.000000 0.001554
0.262822 0.000000 0.004178
0.418456 0.000000 0.011127
0.583802 0.000000 0.023748
0.745574 0.000000 0.042454
0.900455 0.000000 0.066621
1.000000 0.000000 0.088247
1.000000 0.000000 0.101240
1.000000 0.000000 0.107703
1.000000 0.000000 0.110125
1.000000 0.000000 0.110998
1.000000 0.000000 0.111052
1.000000 0.000000 0.111052
0.000000 0.008179 0.000000
0.000000 0.008179 0.000000
0.006910 0.007964 0.000000
0.070074 0.006504 0.000000
0.152171 0.003316 0.000776
0.262235 0.000000 0.003400
0.418141 0.000000 0.010349
0.583607 0.000000 0.022970
0.745439 0.000000 0.041676
0.900353 0.000000 0.065924
1.000000 0.000000 0.087685
1.000000 0.000000 0.100740
1.000000 0.000000 0.107230
1.000000 0.000000 0.109662
1.000000 0.000000 0.110538
1.000000 0.000000 0.110593
1.000000 0.000000 0.110593
0.000000 0.063405 0.000000
0.000000 0.063405 0.000000
0.000000 0.063206 0.000000
0.053812 0.061843 0.000000
0.144461 0.058797 0.000000
0.258202 0.050619 0.000000
0.415989 0.028868 0.005068
0.582278 0.000000 0.017689
0.744519 0.000000 0.036395
0.899667 0.000000 0.061048
1.000000 0.000000 0.083788
1.000000 0.000000 0.097287
1.000000 0.000000 0.103968
1.000000 0.000000 0.106467
1.000000 0.000000 0.107367
1.000000 0.000000 0.107424
1.000000 0.000000 0.107424
0.000000 0.140190 0.000000
0.000000 0.140190 0.000000
0.000000 0.140089 0.000000
0.015892 0.139399 0.000000
0.125956 0.137882 0.000000
0.249111 0.133892 0.000000
0.411234 0.122706 0.000000
0.579362 0.099412 0.006157
0.742507 0.052053 0.024863
0.898165 0.000000 0.049648
1.000000 0.000000 0.074732
1.000000 0.000000 0.089353
1.000000 0.000000 0.096508
1.000000 0.000000 0.099173
1.000000 0.000000 0.100130
1.000000 0.000000 0.100190
1.000000 0.000000 0.100190
0.000000 0.244013 0.000000
0.000000 0.244013 0.000000
0.000000 0.243959 0.000000
0.000000 0.243591 0.000000
0.058496 0.242785 0.000000
0.223547 0.240694 0.000000
0.398613 0.235048 0.000000
0.571743 0.224345 0.000000
0.737282 0.207249 0.000000
0.894276 0.181668 0.019930
1.000000 0.148083 0.046995
1.000000 0.118442 0.065624
1.000000 0.098932 0.074548
1.000000 0.090349 0.077813
1.000000 0.087038 0.078980
1.000000 0.086827 0.079053
1.000000 0.086827 0.079053
0.000000 0.391512 0.000000
0.000000 0.391512 0.000000
0.000000 0.391482 0.000000
0.000000 0.391285 0.000000
0.000000 0.390852 0.000000
0.128678 0.389736 0.000000
0.362194 0.386758 0.000000
0.550813 0.381267 0.000000
0.723168 0.372922 0.000000
0.883853 0.361455 0.000000
1.000000 0.348340 0.000000
1.000000 0.338651 0.000000
1.000000 0.333245 0.000000
1.000000 0.331108 0.001845
1.000000 0.330324 0.003318
1.000000 0.330274 0.003411
1.000000 0.330274 0.003411
0.000000 0.548213 0.000000
0.000000 0.548213 0.000000
0.000000 0.548195 0.000000
0.000000 0.548073 0.000000
0.000000 0.547805 0.000000
0.000000 0.547117 0.000000
0.279014 0.545285 0.000000
0.509492 0.541935 0.000000
0.696405 0.536913 0.000000
0.864413 0.530153 0.000000
1.000000 0.522623 0.000000
1.000000 0.517204 0.000000
1.000000 0.514234 0.000000
1.000000 0.513071 0.000000
1.000000 0.512646 0.000000
1.000000 0.512619 0.000000
1.000000 0.512619 0.000000
0.000000 0.701528 0.000000
0.000000 0.701528 0.000000
0.000000 0.701516 0.000000
0.000000 0.701431 0.000000
0.000000 0.701246 0.000000
0.000000 0.700770 0.000000
0.000000 0.699504 0.000000
0.437415 0.697198 0.000000
0.653606 0.693758 0.000000
0.834288 0.689160 0.000000
0.979804 0.684086 0.000000
1.000000 0.680465 0.000000
1.000000 0.678490 0.000000
1.000000 0.677720 0.000000
1.000000 0.677438 0.000000
1.000000 0.677420 0.000000
1.000000 0.677420 0.000000
0.000000 0.848313 0.000000
0.000000 0.848313 0.000000
0.000000 0.848304 0.000000
0.000000 0.848240 0.000000
0.000000 0.848102 0.000000
0.000000 0.847746 0.000000
0.000000 0.846802 0.000000
0.303157 0.845082 0.000000
0.589442 0.842523 0.000000
0.791582 0.839115 0.000000
0.947003 0.835368 0.000000
1.000000 0.832703 0.000000
1.000000 0.831255 0.000000
1.000000 0.830689 0.000000
1.000000 0.830483 0.000000
1.000000 0.830470 0.000000
1.000000 0.830470 0.000000
0.000000 0.973256 0.000000
0.000000 0.973256 0.000000
0.000000 0.973249 0.000000
0.000000 0.973197 0.000000
0.000000 0.973085 0.000000
0.000000 0.972798 0.000000
0.000000 0.972036 0.000000
0.000000 0.970650 0.000000
0.504885 0.968589 0.000000
0.740493 0.965848 0.000000
0.909026 0.962841 0.000000
1.000000 0.960707 0.000000
1.000000 0.959548 0.000000
1.000000 0.959096 0.000000
1.000000 0.958931 0.000000
1.000000 0.958921 0.000000
1.000000 0.958921 0.000000
0.000000 1.000000 0.000000
0.000000 1.000000 0.000000
0.000000 1.000000 0.000000
0.000000 1.000000 0.000000
0.000000 1.000000 0.000000
0.000000 1.000000 0.000000
0.000000 1.000000 0.000000
0.000000 1.000000 0.000000
0.429786 1.000000 0.000000
0.700849 1.000000 0.000000
0.880610 1.000000 0.000000
0.979589 1.000000 0.000000
1.000000 1.000000 0.000000
1.000000 1.000000 0.000000
1.000000 1.000000 0.000000
1.000000 1.000000 0.000000
1.000000 1.000000 0.000000
0.000000 1.000000 0.000000
0.000000 1.000000 0.000000
0.000000 1.000000 0.000000
0.000000 1.000000 0.000000
0.000000 1.000000 0.000000
0.000000 1.000000 0.000000
0.000000 1.000000 0.000000
0.000000 1.000000 0.000000
0.379976 1.000000 0.000000
0.677881 1.000000 0.000000
0.864607 1.000000 0.000000
0.966084 1.000000 0.000000
1.000000 1.000000 0.000000
1.000000 1.000000 0.000000
1.000000 1.000000 0.000000
1.000000 1.000000 0.000000
1.000000 1.000000 0.000000
0.000000 1.000000 0.000000
0.000000 1.000000 0.000000
0.000000 1.000000 0.000000
0.000000 1.000000 0.000000
0.000000 1.000000 0.000000
0.000000 1.000000 0.000000
0.000000 1.000000 0.000000
0.000000 1.000000 0.000000
0.357928 1.000000 0.000000
0.668615 1.000000 0.000000
0.858252 1.000000 0.000000
0.960746 1.000000 0.000000
1.000000 1.000000 0.000000
1.000000 1.000000 0.000000
1.000000 1.000000 0.000000
1.000000 1.000000 0.000000
1.000000 1.000000 0.000000
0.000000 1.000000 0.000000
0.000000 1.000000 0.000000
0.000000 1.000000 0.000000
0.000000 1.000000 0.000000
0.000000 1.000000 0.000000
0.000000 1.000000 0.000000
0.000000 1.000000 0.000000
0.000000 1.000000 0.000000
0.349395 1.000000 0.000000
0.665182 1.000000 0.000000
0.855913 1.000000 0.000000
0.958784 1.000000 0.000000
1.000000 1.000000 0.000000
1.000000 1.000000 0.000000
1.000000 1.000000 0.000000
1.000000 1.000000 0.000000
1.000000 1.000000 0.000000
0.000000 1.000000 0.000000
0.000000 1.000000 0.000000
0.000000 1.000000 0.000000
0.000000 1.000000 0.000000
0.000000 1.000000 0.000000
0.000000 1.000000 0.000000
0.000000 1.000000 0.000000
0.000000 1.000000 0.000000
0.348851 1.000000 0.000000
0.664966 1.000000 0.000000
0.855766 1.000000 0.000000
0.958662 1.000000 0.000000
1.000000 1.000000 0.000000
1.000000 1.000000 0.000000
1.000000 1.000000 0.000000
1.000000 1.000000 0.000000
1.000000 1.000000 0.000000
0.000000 1.000000 0.000000
0.000000 1.000000 0.000000
0.000000 1.000000 0.000000
0.000000 1.000000 0.000000
0.000000 1.000000 0.000000
0.000000 1.000000 0.000000
0.000000 1.000000 0.000000
0.000000 1.000000 0.000000
0.348851 1.000000 0.000000
0.664966 1.000000 0.000000
0.855766 1.000000 0.000000
0.958662 1.000000 0.000000
1.000000 1.000000 0.000000
1.000000 1.000000 0.000000
1.000000 1.000000 0.000000
1.000000 1.000000 0.000000
1.000000 1.000000 0.000000
0.000000 0.000000 0.000000
0.000000 0.000000 0.000000
0.009468 0.000000 0.000069
0.072252 0.000000 0.000535
0.153273 0.000000 0.001554
0.262822 0.000000 0.004178
0.418456 0.000000 0.011127
0.583802 0.000000 0.023748
0.745574 0.000000 0.042454
0.900455 0.000000 0.066621
1.000000 0.000000 0.088247
1.000000 0.000000 0.101240
1.000000 0.000000 0.107703
1.000000 0.000000 0.110125
1.000000 0.000000 0.110998
1.000000 0.000000 0.111052
1.000000 0.000000 0.111052
0.000000 0.000000 0.000000
0.000000 0.000000 0.000000
0.009468 0.000000 0.000069
0.072252 0.000000 0.000535
0.153273 0.000000 0.001554
0.262822 0.000000 0.004178
0.418456 0.000000 0.011127
0.583802 0.000000 0.023748
0.745574 0.000000 0.042454
0.900455 0.000000 0.066621
1.000000 0.000000 0.088247
1.000000 0.000000 0.101240
1.000000 0.000000 0.107703
1.000000 0.000000 0.110125
1.000000 0.000000 0.110998
1.000000 0.000000 0.111052
1.000000 0.000000 0.111052
0.000000 0.008179 0.000000
0.000000 0.008179 0.000000
0.006910 0.007964 0.000000
0.070074 0.006504 0.000000
0.152171 0.003316 0.000776
0.262235 0.000000 0.003400
0.418141 0.000000 0.010349
0.583607 0.000000 0.022970
0.745439 0.000000 0.041676
0.900353 0.000000 0.065924
1.000000 0.000000 0.087685
1.000000 0.000000 0.100740
1.000000 0.000000 0.107230
1.000000 0.000000 0.109662
1.000000 0.000000 0.110538
1.000000 0.000000 0.110593
1.000000 0.000000 0.110593
0.000000 0.063405 0.000000
0.000000 0.063405 0.000000
0.000000 0.063206 0.000000
0.053812 0.061843 0.000000
0.144461 0.058797 0.000000
0.258202 0.050619 0.000000
0.415989 0.028868 0.005068
0.582278 0.000000 0.017689
0.744519 0.000000 0.036395
0.899667 0.000000 0.061048
1.000000 0.000000 0.083788
1.000000 0.000000 0.097287
1.000000 0.000000 0.103968
1.000000 0.000000 0.106467
1.000000 0.000000 0.107367
1.000000 0.000000 0.107424
1.000000 0.000000 0.107424
0.000000 0.140190 0.000000
0.000000 0.140190 0.000000
0.000000 0.140089 0.000000
0.015892 0.139399 0.000000
0.125956 0.137882 0.000000
0.249111 0.133892 0.000000
0.411234 0.122706 0.000000
0.579362 0.099412 0.006157
0.742507 0.052053 0.024863
0.898165 0.000000 0.049648
1.000000 0.000000 0.074732
1.000000 0.000000 0.089353
1.000000 0.000000 0.096508
1.000000 0.000000 0.099173
1.000000 0.000000 0.100130
1.000000 0.000000 0.100190
1.000000 0.000000 0.100190
0.000000 0.244013 0.000000
0.000000 0.244013 0.000000
0.000000 0.243959 0.000000
0.000000 0.243591 0.000000
0.058496 0.242785 0.000000
0.223547 0.240694 0.000000
0.398613 0.235048 0.000000
0.571743 0.224345 0.000000
0.737282 0.207249 0.000000
0.894276 0.181668 0.019930
1.000000 0.148083 0.046995
1.000000 0.118442 0.065624
1.000000 0.098932 0.074548
1.000000 0.090349 0.077813
1.000000 0.087038 0.078980
1.000000 0.086827 0.079053
1.000000 0.086827 0.079053
0.000000 0.391512 0.000000
0.000000 0.391512 0.000000
0.000000 0.391482 0.000000
0.000000 0.391285 0.000000
0.000000 0.390852 0.000000
0.128678 0.389736 0.000000
0.362194 0.386758 0.000000
0.550813 0.381267 0.000000
0.723168 0.372922 0.000000
0.883853 0.361455 0.000000
1.000000 0.348340 0.000000
1.000000 0.338651 0.000000
1.000000 0.333245 0.000000
1.000000 0.331108 0.001845
1.000000 0.330324 0.003318
1.000000 0.330274 0.003411
1.000000 0.330274 0.003411
0.000000 0.548213 0.000000
0.000000 0.548213 0.000000
0.000000 0.548195 0.000000
0.000000 0.548073 0.000000
0.000000 0.547805 0.000000
0.000000 0.547117 0.000000
0.279014 0.545285 0.000000
0.509492 0.541935 0.000000
0.696405 0.536913 0.000000
0.864413 0.530153 0.000000
1.000000 0.522623 0.000000
1.000000 0.517204 0.000000
1.000000 0.514234 0.000000
1.000000 0.513071 0.000000
1.000000 0.512646 0.000000
1.000000 0.512619 0.000000
1.000000 0.512619 0.000000
0.000000 0.701528 0.000000
0.000000 0.701528 0.000000
0.000000 0.701516 0.000000
0.000000 0.701431 0.000000
0.000000 0.701246 0.000000
0.000000 0.700770 0.000000
0.000000 0.699504 0.000000
0.437415 0.697198 0.000000
0.653606 0.693758 0.000000
0.834288 0.689160 0.000000
0.979804 0.684086 0.000000
1.000000 0.680465 0.000000
1.000000 0.678490 0.000000
1.000000 0.677720 0.000000
1.000000 0.677438 0.000000
1.000000 0.677420 0.000000
1.000000 0.677420 0.000000
0.000000 0.848313 0.000000
0.000000 0.848313 0.000000
0.000000 0.848304 0.000000
0.000000 0.848240 0.000000
0.000000 0.848102 0.000000
0.000000 0.847746 0.000000
0.000000 0.846802 0.000000
0.303157 0.845082 0.000000
0.589442 0.842523 0.000000
0.791582 0.839115 0.000000
0.947003 0.835368 0.000000
1.000000 0.832703 0.000000
1.000000 0.831255 0.000000
1.000000 0.830689 0.000000
1.000000 0.830483 0.000000
1.000000 0.830470 0.000000
1.000000 0.830470 0.000000
0.000000 0.973256 0.000000
0.000000 0.973256 0.000000
0.000000 0.973249 0.000000
0.000000 0.973197 0.000000
0.000000 0.973085 0.000000
0.000000 0.972798 0.000000
0.000000 0.972036 0.000000
0.000000 0.970650 0.000000
0.504885 0.968589 0.000000
0.740493 0.965848 0.000000
0.909026 0.962841 0.000000
1.000000 0.960707 0.000000
1.000000 0.959548 0.000000
1.000000 0.959096 0.000000
1.000000 0.958931 0.000000
1.000000 0.958921 0.000000
1.000000 0.958921 0.000000
0.000000 1.000000 0.000000
0.000000 1.000000 0.000000
0.000000 1.000000 0.000000
0.000000 1.000000 0.000000
0.000000 1.000000 0.000000
0.000000 1.000000 0.000000
0.000000 1.000000 0.000000
0.000000 1.000000 0.000000
0.429786 1.000000 0.000000
0.700849 1.000000 0.000000
0.880610 1.000000 0.000000
0.979589 1.000000 0.000000
1.000000 1.000000 0.000000
1.000000 1.000000 0.000000
1.000000 1.000000 0.000000
1.000000 1.000000 0.000000
1.000000 1.000000 0.000000
0.000000 1.000000 0.000000
0.000000 1.000000 0.000000
0.000000 1.000000 0.000000
0.000000 1.000000 0.000000
0.000000 1.000000 0.000000
0.000000 1.000000 0.000000
0.000000 1.000000 0.000000
0.000000 1.000000 0.000000
0.379976 1.000000 0.000000
0.677881 1.000000 0.000000
0.864607 1.000000 0.000000
0.966084 1.000000 0.000000
1.000000 1.000000 0.000000
1.000000 1.000000 0.000000
1.000000 1.000000 0.000000
1.000000 1.000000 0.000000
1.000000 1.000000 0.000000
0.000000 1.000000 0.000000
0.000000 1.000000 0.000000
0.000000 1.000000 0.000000
0.000000 1.000000 0.000000
0.000000 1.000000 0.000000
0.000000 1.000000 0.000000
0.000000 1.000000 0.000000
0.000000 1.000000 0.000000
0.357928 1.000000 0.000000
0.668615 1.000000 0.000000
0.858252 1.000000 0.000000
0.960746 1.000000 0.000000
1.000000 1.000000 0.000000
1.000000 1.000000 0.000000
1.000000 1.000000 0.000000
1.000000 1.000000 0.000000
1.000000 1.000000 0.000000
0.000000 1.000000 0.000000
0.000000 1.000000 0.000000
0.000000 1.000000 0.000000
0.000000 1.000000 0.000000
0.000000 1.000000 0.000000
0.000000 1.000000 0.000000
0.000000 1.000000 0.000000
0.000000 1.000000 0.000000
0.349395 1.000000 0.000000
0.665182 1.000000 0.000000
0.855913 1.000000 0.000000
0.958784 1.000000 0.000000
1.000000 1.000000 0.000000
1.000000 1.000000 0.000000
1.000000 1.000000 0.000000
1.000000 1.000000 0.000000
1.000000 1.000000 0.000000
0.000000 1.000000 0.000000
0.000000 1.000000 0.000000
0.000000 1.000000 0.000000
0.000000 1.000000 0.000000
0.000000 1.000000 0.000000
0.000000 1.000000 0.000000
0.000000 1.000000 0.000000
0.000000 1.000000 0.000000
0.348851 1.000000 0.000000
0.664966 1.000000 0.000000
0.855766 1.000000 0.000000
0.958662 1.000000 0.000000
1.000000 1.000000 0.000000
1.000000 1.000000 0.000000
1.000000 1.000000 0.000000
1.000000 1.000000 0.000000
1.000000 1.000000 0.000000
0.000000 1.000000 0.000000
0.000000 1.000000 0.000000
0.000000 1.000000 0.000000
0.000000 1.000000 0.000000
0.000000 1.000000 0.000000
0.000000 1.000000 0.000000
0.000000 1.000000 0.000000
0.000000 1.000000 0.000000
0.348851 1.000000 0.000000
0.664966 1.000000 0.000000
0.855766 1.000000 0.000000
0.958662 1.000000 0.000000
1.000000 1.000000 0.000000
1.000000 1.000000 0.000000
1.000000 1.000000 0.000000
1.000000 1.000000 0.000000
1.000000 1.000000 0.000000
0.000000 0.000000 0.007085
0.000000 0.000000 0.007085
0.008933 0.000000 0.007154
0.071801 0.000000 0.007620
0.153044 0.000000 0.008638
0.262700 0.000000 0.011263
0.418391 0.000000 0.018211
0.583761 0.000000 0.030833
0.745545 0.000000 0.049538
0.900434 0.000000 0.072748
1.000000 0.000000 0.093238
1.000000 0.000000 0.105697
1.000000 0.000000 0.111926
1.000000 0.000000 0.114266
1.000000 0.000000 0.115110
1.000000 0.000000 0.115162
1.000000 0.000000 0.115162
0.000000 0.000000 0.007085
0.000000 0.000000 0.007085
0.008933 0.000000 0.007154
0.071801 0.000000 0.007620
0.153044 0.000000 0.008638
0.262700 0.000000 0.011263
0.418391 0.000000 0.018211
0.583761 0.000000 0.030833
0.745545 0.000000 0.049538
0.900434 0.000000 0.072748
1.000000 0.000000 0.093238
1.000000 0.000000 0.105697
1.000000 0.000000 0.111926
1.000000 0.000000 0.114266
1.000000 0.000000 0.115110
1.000000 0.000000 0.115162
1.000000 0.000000 0.115162
0.000000 0.006590 0.006307
0.000000 0.006590 0.006307
0.006376 0.006376 0.006376
0.069612 0.004916 0.006842
0.151940 0.001728 0.007861
0.262111 0.000000 0.010485
0.418075 0.000000 0.017434
0.583566 0.000000 0.030055
0.745410 0.000000 0.048761
0.900333 0.000000 0.072094
1.000000 0.000000 0.092701
1.000000 0.000000 0.105216
1.000000 0.000000 0.111469
1.000000 0.000000 0.113818
1.000000 0.000000 0.114665
1.000000 0.000000 0.114718
1.000000 0.000000 0.114718
0.000000 0.061924 0.001026
0.000000 0.061924 0.001026
0.000000 0.061722 0.001095
0.053278 0.060339 0.001561
0.144217 0.057240 0.002580
0.258077 0.049030 0.005204
0.415923 0.027279 0.012153
0.582237 0.000000 0.024774
0.744491 0.000000 0.043480
0.899646 0.000000 0.067534
1.000000 0.000000 0.088984
1.000000 0.000000 0.101897
1.000000 0.000000 0.108324
1.000000 0.000000 0.110734
1.000000 0.000000 0.111602
1.000000 0.000000 0.111656
1.000000 0.000000 0.111656
0.000000 0.139440 0.000000
0.000000 0.139440 0.000000
0.000000 0.139338 0.000000
0.015358 0.138645 0.000000
0.125676 0.137120 0.000000
0.248980 0.133106 0.000000
0.411167 0.121850 0.000621
0.579320 0.098372 0.013242
0.742479 0.050464 0.031948
0.898144 0.000000 0.056731
1.000000 0.000000 0.080389
1.000000 0.000000 0.094295
1.000000 0.000000 0.101148
1.000000 0.000000 0.103708
1.000000 0.000000 0.104630
1.000000 0.000000 0.104687
1.000000 0.000000 0.104687
0.000000 0.243613 0.000000
0.000000 0.243613 0.000000
0.000000 0.243558 0.000000
0.000000 0.243189 0.000000
0.057974 0.242382 0.000000
0.223397 0.240287 0.000000
0.398543 0.234629 0.000000
0.571700 0.223902 0.000000
0.737253 0.206762 0.002230
0.894256 0.181100 0.027015
1.000000 0.147374 0.054080
1.000000 0.117556 0.071813
1.000000 0.097887 0.080216
1.000000 0.089219 0.083308
1.000000 0.085874 0.084415
1.000000 0.085660 0.084484
1.000000 0.085660 0.084484
0.000000 0.391297 0.000000
0.000000 0.391297 0.000000
0.000000 0.391267 0.000000
0.000000 0.391069 0.000000
0.000000 0.390637 0.000000
0.128404 0.389519 0.000000
0.362114 0.386539 0.000000
0.550769 0.381043 0.000000
0.723139 0.372691 0.000000
0.883830 0.361215 0.000000
1.000000 0.348088 0.000000
1.000000 0.338389 0.000000
1.000000 0.332977 0.004896
1.000000 0.330838 0.008930
1.000000 0.330052 0.010403
1.000000 0.330003 0.010496
1.000000 0.330003 0.010496
0.000000 0.548080 0.000000
0.000000 0.548080 0.000000
0.000000 0.548062 0.000000
0.000000 0.547940 0.000000
0.000000 0.547673 0.000000
0.000000 0.546983 0.000000
0.278900 0.545151 0.000000
0.509442 0.541800 0.000000
0.696373 0.536776 0.000000
0.864391 0.530013 0.000000
1.000000 0.522481 0.000000
1.000000 0.517059 0.000000
1.000000 0.514087 0.000000
1.000000 0.512925 0.000000
1.000000 0.512499 0.000000
1.000000 0.512472 0.000000
1.000000 0.512472 0.000000
0.000000 0.701437 0.000000
0.000000 0.701437 0.000000
0.000000 0.701424 0.000000
0.000000 0.701339 0.000000
0.000000 0.701154 0.000000
0.000000 0.700677 0.000000
0.000000 0.699412 0.000000
0.437353 0.697105 0.000000
0.653572 0.693665 0.000000
0.834265 0.689066 0.000000
0.979785 0.683991 0.000000
1.000000 0.680368 0.000000
1.000000 0.678394 0.000000
1.000000 0.677623 0.000000
1.000000 0.677341 0.000000
1.000000 0.677323 0.000000
1.000000 0.677323 0.000000
0.000000 0.848244 0.000000
0.000000 0.848244 0.000000
0.000000 0.848235 0.000000
0.000000 0.848172 0.000000
0.000000 0.848034 0.000000
0.000000 0.847677 0.000000
0.000000 0.846732 0.000000
0.303055 0.845012 0.000000
0.589402 0.842454 0.000000
0.791557 0.839044 0.000000
0.946984 0.835297 0.000000
1.000000 0.832632 0.000000
1.000000 0.831183 0.000000
1.000000 0.830619 0.000000
1.000000 0.830412 0.000000
1.000000 0.830399 0.000000
1.000000 0.830399 0.000000
0.000000 0.973200 0.000000
0.000000 0.973200 0.000000
0.000000 0.973193 0.000000
0.000000 0.973142 0.000000
0.000000 0.973030 0.000000
0.000000 0.972743 0.000000
0.000000 0.971981 0.000000
0.000000 0.970594 0.000000
0.504835 0.968533 0.000000
0.740464 0.965792 0.000000
0.909006 0.962785 0.000000
1.000000 0.960651 0.000000
1.000000 0.959491 0.000000
1.000000 0.959039 0.000000
1.000000 0.958874 0.000000
1.000000 0.958864 0.000000
1.000000 0.958864 0.000000
0.000000 1.000000 0.000000
0.000000 1.000000 0.000000
0.000000 1.000000 0.000000
0.000000 1.000000 0.000000
0.000000 1.000000 0.000000
0.000000 1.000000 0.000000
0.000000 1.000000 0.000000
0.000000 1.000000 0.000000
0.429723 1.000000 0.000000
0.700818 1.000000 0.000000
0.880588 1.000000 0.000000
0.979571 1.000000 0.000000
1.000000 1.000000 0.000000
1.000000 1.000000 0.000000
1.000000 1.000000 0.000000
1.000000 1.000000 0.000000
1.000000 1.000000 0.000000
0.000000 1.000000 0.000000
0.000000 1.000000 0.000000
0.000000 1.000000 0.000000
0.000000 1.000000 0.000000
0.000000 1.000000 0.000000
0.000000 1.000000 0.000000
0.000000 1.000000 0.000000
0.000000 1.000000 0.000000
0.379900 1.000000 0.000000
0.677849 1.000000 0.000000
0.864585 1.000000 0.000000
0.966065 1.000000 0.000000
1.000000 1.000000 0.000000
1.000000 1.000000 0.000000
1.000000 1.000000 0.000000
1.000000 1.000000 0.000000
1.000000 1.000000 0.000000
0.000000 1.000000 0.000000
0.000000 1.000000 0.000000
0.000000 1.000000 0.000000
0.000000 1.000000 0.000000
0.000000 1.000000 0.000000
0.000000 1.000000 0.000000
0.000000 1.000000 0.000000
0.000000 1.000000 0.000000
0.357846 1.000000 0.000000
0.668582 1.000000 0.000000
0.858229 1.000000 0.000000
0.960727 1.000000 0.000000
1.000000 1.000000 0.000000
1.000000 1.000000 0.000000
1.000000 1.000000 0.000000
1.000000 1.000000 0.000000
1.000000 1.000000 0.000000
0.000000 1.000000 0.000000
0.000000 1.000000 0.000000
0.000000 1.000000 0.000000
0.000000 1.000000 0.000000
0.000000 1.000000 0.000000
0.000000 1.000000 0.000000
0.000000 1.000000 0.000000
0.000000 1.000000 0.000000
0.349311 1.000000 0.000000
0.665148 1.000000 0.000000
0.855889 1.000000 0.000000
0.958766 1.000000 0.000000
1.000000 1.000000 0.000000
1.000000 1.000000 0.000000
1.000000 1.000000 0.000000
1.000000 1.000000 0.000000
1.000000 1.000000 0.000000
0.000000 1.000000 0.000000
0.000000 1.000000 0.000000
0.000000 1.000000 0.000000
0.000000 1.000000 0.000000
0.000000 1.000000 0.000000
0.000000 1.000000 0.000000
0.000000 1.000000 0.000000
0.000000 1.000000 0.000000
0.348767 1.000000 0.000000
0.664933 1.000000 0.000000
0.855742 1.000000 0.000000
0.958642 1.000000 0.000000
1.000000 1.000000 0.000000
1.000000 1.000000 0.000000
1.000000 1.000000 0.000000
1.000000 1.000000 0.000000
1.000000 1.000000 0.000000
0.000000 1.000000 0.000000
0.000000 1.000000 0.000000
0.000000 1.000000 0.000000
0.000000 1.000000 0.000000
0.000000 1.000000 0.000000
0.000000 1.000000 0.000000
0.000000 1.000000 0.000000
0.000000 1.000000 0.000000
0.348767 1.000000 0.000000
0.664933 1.000000 0.000000
0.855742 1.000000 0.000000
0.958642 1.000000 0.000000
1.000000 1.000000 0.000000
1.000000 1.000000 0.000000
1.000000 1.000000 0.000000
1.000000 1.000000 0.000000
1.000000 1.000000 0.000000
0.000000 0.000000 0.055175
0.000000 0.000000 0.055175
0.005308 0.000000 0.055243
0.068683 0.000000 0.055710
0.151477 0.000000 0.056727
0.261865 0.000000 0.059300
0.417943 0.000000 0.065781
0.583484 0.000000 0.076530
0.745354 0.000000 0.090618
0.900290 0.000000 0.106859
1.000000 0.000000 0.122363
1.000000 0.000000 0.132277
1.000000 0.000000 0.137350
1.000000 0.000000 0.139274
1.000000 0.000000 0.139971
1.000000 0.000000 0.140014
1.000000 0.000000 0.140014
