test-footage/LUT/AlexaV3_EI0800_LogC2Video_DCIP3_LE_aftereffects3d.cube
# Alexa conversion LUT, logc2video, p3. Legal in/full out.
# created by alexalutconv (2.10)
LUT_3D_SIZE 5
0.000000 0.000000 0.000000
0.165649 0.003869 0.006239
0.724303 0.095640 0.131489
1.000000 0.184650 0.235867
1.000000 0.189057 0.241034
0.000000 0.160378 0.000000
0.151032 0.161842 0.000000
0.722772 0.195796 0.128090
1.000000 0.247116 0.234217
1.000000 0.250142 0.239432
0.000000 0.708427 0.000000
0.000000 0.708589 0.000000
0.680275 0.712837 0.000000
1.000000 0.721157 0.183503
1.000000 0.721724 0.190598
0.000000 1.000000 0.000000
0.000000 1.000000 0.000000
0.578664 1.000000 0.000000
1.000000 1.000000 0.000000
1.000000 1.000000 0.000000
0.000000 1.000000 0.000000
0.000000 1.000000 0.000000
0.570494 1.000000 0.000000
1.000000 1.000000 0.000000
1.000000 1.000000 0.000000
0.000000 0.000000 0.142973
0.158141 0.000000 0.145654
0.723497 0.058141 0.202178
1.000000 0.168537 0.276577
1.000000 0.173451 0.280736
0.000000 0.140929 0.139879
0.142624 0.142624 0.142624
0.721963 0.180919 0.200153
1.000000 0.236390 0.275257
1.000000 0.239603 0.279443
0.000000 0.706428 0.003354
0.000000 0.706591 0.009592
0.679376 0.710859 0.133076
1.000000 0.719219 0.236647
1.000000 0.719787 0.241792
0.000000 1.000000 0.000000
0.000000 1.000000 0.000000
0.577481 1.000000 0.000000
1.000000 1.000000 0.111489
1.000000 1.000000 0.123534
0.000000 1.000000 0.000000
0.000000 1.000000 0.000000
0.569282 1.000000 0.000000
1.000000 1.000000 0.096116
1.000000 1.000000 0.109843
0.000000 0.000000 0.656002
0.000000 0.000000 0.656300
0.701689 0.000000 0.664076
1.000000 0.000000 0.679091
1.000000 0.000000 0.680104
0.000000 0.000000 0.655665
0.000000 0.000000 0.655964
0.700071 0.000000 0.663745
1.000000 0.000000 0.678774
1.000000 0.000000 0.679787
0.000000 0.649845 0.646682
0.000000 0.650033 0.646989
0.654952 0.654952 0.654952
1.000000 0.664551 0.670317
1.000000 0.665203 0.671352
0.000000 1.000000 0.628156
0.000000 1.000000 0.628477
0.544758 1.000000 0.636837
1.000000 1.000000 0.652930
1.000000 1.000000 0.654014
0.000000 1.000000 0.626846
0.000000 1.000000 0.627168
0.535705 1.000000 0.635558
1.000000 1.000000 0.651704
1.000000 1.000000 0.652791
0.000000 0.000000 0.985225
0.000000 0.000000 0.985371
0.654453 0.000000 0.989208
1.000000 0.000000 0.996759
1.000000 0.000000 0.997275
0.000000 0.000000 0.985060
0.000000 0.000000 0.985206
0.652631 0.000000 0.989043
1.000000 0.000000 0.996597
1.000000 0.000000 0.997114
0.000000 0.501858 0.980696
0.000000 0.502148 0.980843
0.601122 0.509677 0.984711
1.000000 0.524133 0.992324
1.000000 0.525104 0.992843
0.000000 0.976428 0.971910
0.000000 0.976520 0.972060
0.467691 0.978941 0.975990
0.983724 0.983724 0.983724
1.000000 0.984052 0.984252
0.000000 0.996546 0.971299
0.000000 0.996635 0.971450
0.455996 0.998970 0.975385
0.980507 1.000000 0.983127
1.000000 1.000000 0.983656
0.000000 0.000000 1.000000
0.000000 0.000000 1.000000
0.650982 0.000000 1.000000
1.000000 0.000000 1.000000
1.000000 0.000000 1.000000
0.000000 0.000000 1.000000
0.000000 0.000000 1.000000
0.649143 0.000000 1.000000
1.000000 0.000000 1.000000
1.000000 0.000000 1.000000
0.000000 0.488741 0.997126
0.000000 0.489043 0.997269
0.597108 0.496898 1.000000
1.000000 0.511945 1.000000
1.000000 0.512955 1.000000
0.000000 0.972329 0.988602
0.000000 0.972422 0.988747
0.461586 0.974861 0.992560
0.982030 0.979679 1.000000
1.000000 0.980010 1.000000
0.000000 0.992595 0.988011
0.000000 0.992685 0.988156
0.449633 0.995036 0.991973
0.978803 0.999682 0.999487
1.000000 1.000000 1.000000
