test-footage/LUT/lut.cube
# Alexa conversion LUT
LUT_3D_SIZE 17
0.000000 0.000000 0.000000
0.037410 0.000000 0.000271
0.082073 0.000000 0.000624
0.133578 0.000000 0.001243
0.203789 0.000000 0.002564
0.307343 0.000000 0.005741
0.441831 0.000000 0.012556
0.581059 0.000000 0.023487
0.718365 0.000000 0.038821
0.851375 0.000000 0.058570
0.975817 0.000000 0.078983
1.000000 0.000000 0.093702
1.000000 0.000000 0.102607
1.000000 0.000000 0.107246
1.000000 0.000000 0.109168
1.000000 0.000000 0.109921
1.000000 0.000000 0.111052
0.000000 0.032318 0.000000
0.027303 0.031469 0.000000
0.074041 0.030365 0.000000
0.128487 0.028429 0.000000
0.200602 0.024293 0.000000
0.305439 0.014346 0.002667
0.440674 0.000000 0.009482
0.580281 0.000000 0.020414
0.717799 0.000000 0.035748
0.850940 0.000000 0.055528
0.975465 0.000000 0.076534
1.000000 0.000000 0.091573
1.000000 0.000000 0.100642
1.000000 0.000000 0.105359
1.000000 0.000000 0.107311
1.000000 0.000000 0.108076
1.000000 0.000000 0.109225
0.000000 0.072712 0.000000
0.014180 0.071997 0.000000
0.062527 0.071061 0.000000
0.121566 0.069395 0.000000
0.196375 0.065738 0.000000
0.302945 0.056308 0.000000
0.439165 0.034977 0.005491
0.579269 0.000757 0.016423
0.717064 0.000000 0.031756
0.850373 0.000000 0.051537
0.975008 0.000000 0.073260
1.000000 0.000000 0.088747
1.000000 0.000000 0.098040
1.000000 0.000000 0.102862
1.000000 0.000000 0.104856
1.000000 0.000000 0.105637
1.000000 0.000000 0.106809
0.000000 0.121525 0.000000
0.000000 0.121064 0.000000
0.039720 0.120462 0.000000
0.108411 0.119398 0.000000
0.188690 0.117098 0.000000
0.298501 0.111380 0.000000
0.436499 0.098111 0.000000
0.577487 0.072816 0.009418
0.715770 0.026405 0.024752
0.849378 0.000000 0.044532
0.974203 0.000000 0.067237
1.000000 0.000000 0.083600
1.000000 0.000000 0.093322
1.000000 0.000000 0.098345
1.000000 0.000000 0.100418
1.000000 0.000000 0.101229
1.000000 0.000000 0.102447
0.000000 0.188065 0.000000
0.000000 0.187774 0.000000
0.000000 0.187395 0.000000
0.073956 0.186727 0.000000
0.170958 0.185292 0.000000
0.288708 0.181787 0.000000
0.430726 0.174004 0.000000
0.573651 0.160646 0.000000
0.712995 0.139607 0.009790
0.847246 0.106479 0.029570
0.972482 0.048546 0.052969
1.000000 0.000000 0.071661
1.000000 0.000000 0.082504
1.000000 0.000000 0.088040
1.000000 0.000000 0.090313
1.000000 0.000000 0.091200
1.000000 0.000000 0.092532
0.000000 0.286206 0.000000
0.000000 0.286031 0.000000
0.000000 0.285804 0.000000
0.000000 0.285404 0.000000
0.116900 0.284548 0.000000
0.263209 0.282477 0.000000
0.416376 0.277967 0.000000
0.564269 0.270532 0.000000
0.706254 0.259643 0.000000
0.842084 0.244689 0.000000
0.968324 0.225397 0.016988
1.000000 0.207106 0.037052
1.000000 0.193627 0.050568
1.000000 0.185692 0.058018
1.000000 0.182192 0.061083
1.000000 0.180785 0.062270
1.000000 0.178629 0.064038
0.000000 0.413664 0.000000
0.000000 0.413558 0.000000
0.000000 0.413419 0.000000
0.000000 0.413176 0.000000
0.000000 0.412657 0.000000
0.194291 0.411402 0.000000
0.383018 0.408695 0.000000
0.543335 0.404299 0.000000
0.691458 0.398019 0.000000
0.830847 0.389709 0.000000
0.959313 0.379550 0.000000
1.000000 0.370532 0.000000
1.000000 0.364284 0.000000
1.000000 0.360769 0.000000
1.000000 0.359256 0.000000
1.000000 0.358655 0.000000
1.000000 0.357742 0.000000
0.000000 0.545614 0.000000
0.000000 0.545542 0.000000
0.000000 0.545450 0.000000
0.000000 0.545286 0.000000
0.000000 0.544936 0.000000
0.000000 0.544095 0.000000
0.319149 0.542284 0.000000
0.507049 0.539361 0.000000
0.666671 0.535221 0.000000
0.812313 0.529810 0.000000
0.944571 0.523304 0.000000
1.000000 0.517630 0.000000
1.000000 0.513755 0.000000
1.000000 0.511596 0.000000
1.000000 0.510673 0.000000
1.000000 0.510307 0.000000
1.000000 0.509750 0.000000
0.000000 0.675742 0.000000
0.000000 0.675690 0.000000
0.000000 0.675622 0.000000
0.000000 0.675503 0.000000
0.000000 0.675249 0.000000
0.000000 0.674638 0.000000
0.180935 0.673324 0.000000
0.448735 0.671208 0.000000
0.629367 0.668222 0.000000
0.785164 0.664342 0.000000
0.923267 0.659707 0.000000
1.000000 0.655693 0.000000
1.000000 0.652968 0.000000
1.000000 0.651455 0.000000
1.000000 0.650809 0.000000
1.000000 0.650553 0.000000
1.000000 0.650165 0.000000
0.000000 0.801799 0.000000
0.000000 0.801759 0.000000
0.000000 0.801707 0.000000
0.000000 0.801615 0.000000
0.000000 0.801420 0.000000
0.000000 0.800949 0.000000
0.000000 0.799938 0.000000
0.352354 0.798311 0.000000
0.575735 0.796022 0.000000
0.747860 0.793054 0.000000
0.894597 0.789520 0.000000
0.995808 0.786470 0.000000
1.000000 0.784405 0.000000
1.000000 0.783260 0.000000
1.000000 0.782772 0.000000
1.000000 0.782579 0.000000
1.000000 0.782285 0.000000
0.000000 0.919736 0.000000
0.000000 0.919704 0.000000
0.000000 0.919662 0.000000
0.000000 0.919588 0.000000
0.000000 0.919430 0.000000
0.000000 0.919049 0.000000
0.000000 0.918232 0.000000
0.139590 0.916920 0.000000
0.500846 0.915073 0.000000
0.699694 0.912683 0.000000
0.858719 0.909843 0.000000
0.965696 0.907397 0.000000
1.000000 0.905742 0.000000
1.000000 0.904827 0.000000
1.000000 0.904436 0.000000
1.000000 0.904281 0.000000
1.000000 0.904047 0.000000
0.000000 1.000000 0.000000
0.000000 1.000000 0.000000
0.000000 1.000000 0.000000
0.000000 1.000000 0.000000
0.000000 1.000000 0.000000
0.000000 1.000000 0.000000
0.000000 1.000000 0.000000
0.000000 1.000000 0.000000
0.420476 1.000000 0.000000
0.653979 0.998638 0.000000
0.825992 0.996172 0.000000
0.938651 0.994051 0.000000
1.000000 0.992617 0.000000
1.000000 0.991824 0.000000
1.000000 0.991485 0.000000
1.000000 0.991351 0.000000
1.000000 0.991148 0.000000
0.000000 1.000000 0.000000
0.000000 1.000000 0.000000
0.000000 1.000000 0.000000
0.000000 1.000000 0.000000
0.000000 1.000000 0.000000
0.000000 1.000000 0.000000
0.000000 1.000000 0.000000
0.000000 1.000000 0.000000
0.351038 1.000000 0.000000
0.620250 1.000000 0.000000
0.802766 1.000000 0.000000
0.919722 1.000000 0.000000
0.987010 1.000000 0.000000
1.000000 1.000000 0.000000
1.000000 1.000000 0.000000
1.000000 1.000000 0.000000
1.000000 1.000000 0.000000
0.000000 1.000000 0.000000
0.000000 1.000000 0.000000
0.000000 1.000000 0.000000
0.000000 1.000000 0.000000
0.000000 1.000000 0.000000
0.000000 1.000000 0.000000
0.000000 1.000000 0.000000
0.000000 1.000000 0.000000
0.303034 1.000000 0.000000
0.600378 1.000000 0.000000
0.789476 1.000000 0.000000
0.908998 1.000000 0.000000
0.977422 1.000000 0.000000
1.000000 1.000000 0.000000
1.000000 1.000000 0.000000
1.000000 1.000000 0.000000
1.000000 1.000000 0.000000
0.000000 1.000000 0.000000
0.000000 1.000000 0.000000
0.000000 1.000000 0.000000
0.000000 1.000000 0.000000
0.000000 1.000000 0.000000
0.000000 1.000000 0.000000
0.000000 1.000000 0.000000
0.000000 1.000000 0.000000
0.279203 1.000000 0.000000
0.591609 1.000000 0.000000
0.783710 1.000000 0.000000
0.904370 1.000000 0.000000
0.973293 1.000000 0.000000
1.000000 1.000000 0.000000
1.000000 1.000000 0.000000
1.000000 1.000000 0.000000
1.000000 1.000000 0.000000
0.000000 1.000000 0.000000
0.000000 1.000000 0.000000
0.000000 1.000000 0.000000
0.000000 1.000000 0.000000
0.000000 1.000000 0.000000
0.000000 1.000000 0.000000
0.000000 1.000000 0.000000
0.000000 1.000000 0.000000
0.269005 1.000000 0.000000
0.588082 1.000000 0.000000
0.781408 1.000000 0.000000
0.902526 1.000000 0.000000
0.971650 1.000000 0.000000
1.000000 1.000000 0.000000
1.000000 1.000000 0.000000
1.000000 1.000000 0.000000
1.000000 1.000000 0.000000
0.000000 1.000000 0.000000
0.000000 1.000000 0.000000
0.000000 1.000000 0.000000
0.000000 1.000000 0.000000
0.000000 1.000000 0.000000
0.000000 1.000000 0.000000
0.000000 1.000000 0.000000
0.000000 1.000000 0.000000
0.252544 1.000000 0.000000
0.582677 1.000000 0.000000
0.777899 1.000000 0.000000
0.899721 1.000000 0.000000
0.969152 1.000000 0.000000
1.000000 1.000000 0.000000
1.000000 1.000000 0.000000
1.000000 1.000000 0.000000
1.000000 1.000000 0.000000
0.000000 0.000000 0.027994
0.035299 0.000000 0.028266
0.080447 0.000000 0.028618
0.132532 0.000000 0.029237
0.203128 0.000000 0.030558
0.306946 0.000000 0.033736
0.441590 0.000000 0.040550
0.580897 0.000000 0.051482
0.718247 0.000000 0.066242
0.851284 0.000000 0.082540
0.975744 0.000000 0.099012
1.000000 0.000000 0.111442
1.000000 0.000000 0.119143
1.000000 0.000000 0.123203
1.000000 0.000000 0.124893
1.000000 0.000000 0.125557
1.000000 0.000000 0.126556
0.000000 0.026042 0.024920
0.025192 0.025192 0.025192
0.072279 0.024088 0.025544
0.127399 0.022152 0.026163
0.199929 0.018016 0.027484
0.305040 0.008069 0.030662
0.440432 0.000000 0.037476
0.580119 0.000000 0.048408
0.717681 0.000000 0.063445
0.850848 0.000000 0.080175
0.975391 0.000000 0.096983
1.000000 0.000000 0.109620
1.000000 0.000000 0.117434
1.000000 0.000000 0.121548
1.000000 0.000000 0.123260
1.000000 0.000000 0.123932
1.000000 0.000000 0.124944
0.000000 0.067302 0.020929
0.012068 0.066545 0.021201
0.060537 0.065554 0.021553
0.120417 0.063789 0.022172
0.195685 0.059901 0.023493
0.302541 0.050031 0.026671
0.438922 0.028700 0.033485
0.579106 0.000000 0.044417
0.716945 0.000000 0.059683
0.850281 0.000000 0.077019
0.974934 0.000000 0.094294
1.000000 0.000000 0.107213
1.000000 0.000000 0.115178
1.000000 0.000000 0.119365
1.000000 0.000000 0.121108
1.000000 0.000000 0.121791
1.000000 0.000000 0.122820
0.000000 0.118076 0.013924
0.000000 0.117601 0.014196
0.037609 0.116983 0.014548
0.107131 0.115889 0.015167
0.187968 0.113521 0.016489
0.298089 0.107629 0.019667
0.436253 0.093896 0.026480
0.577322 0.067412 0.037412
0.715651 0.020128 0.052746
0.849287 0.000000 0.071230
0.974130 0.000000 0.089410
1.000000 0.000000 0.102866
1.000000 0.000000 0.111115
1.000000 0.000000 0.115442
1.000000 0.000000 0.117239
1.000000 0.000000 0.117944
1.000000 0.000000 0.119004
0.000000 0.185900 0.000000
0.000000 0.185605 0.000000
0.000000 0.185220 0.000000
0.072193 0.184544 0.000205
0.170151 0.183089 0.001527
0.288279 0.179536 0.004705
0.430476 0.171639 0.011518
0.573485 0.158062 0.022451
0.712876 0.136608 0.037784
0.847154 0.102566 0.057555
0.972409 0.042269 0.078163
1.000000 0.000000 0.092989
1.000000 0.000000 0.101948
1.000000 0.000000 0.106613
1.000000 0.000000 0.108545
1.000000 0.000000 0.109302
1.000000 0.000000 0.110439
0.000000 0.284911 0.000000
0.000000 0.284735 0.000000
0.000000 0.284506 0.000000
0.000000 0.284104 0.000000
0.115707 0.283243 0.000000
0.262725 0.281160 0.000000
0.416114 0.276623 0.000000
0.564099 0.269140 0.000000
0.706133 0.258176 0.001803
0.841991 0.243109 0.021583
0.968250 0.223649 0.044983
1.000000 0.205171 0.064643
1.000000 0.191533 0.076239
1.000000 0.183495 0.082109
1.000000 0.179947 0.084512
1.000000 0.178520 0.085448
1.000000 0.176333 0.086852
0.000000 0.412876 0.000000
0.000000 0.412770 0.000000
0.000000 0.412631 0.000000
0.000000 0.412387 0.000000
0.000000 0.411866 0.000000
0.193592 0.410608 0.000000
0.382723 0.407894 0.000000
0.543156 0.403486 0.000000
0.691334 0.397187 0.000000
0.830753 0.388852 0.000000
0.959237 0.378662 0.000000
1.000000 0.369614 0.000000
1.000000 0.363345 0.001404
1.000000 0.359816 0.008871
1.000000 0.358299 0.012052
1.000000 0.357695 0.013312
1.000000 0.356779 0.015221
0.000000 0.545084 0.000000
0.000000 0.545012 0.000000
0.000000 0.544920 0.000000
0.000000 0.544755 0.000000
0.000000 0.544406 0.000000
0.000000 0.543563 0.000000
0.318773 0.541750 0.000000
0.506851 0.538822 0.000000
0.666538 0.534676 0.000000
0.812216 0.529257 0.000000
0.944494 0.522741 0.000000
1.000000 0.517057 0.000000
1.000000 0.513177 0.000000
1.000000 0.511015 0.000000
1.000000 0.510089 0.000000
1.000000 0.509722 0.000000
1.000000 0.509166 0.000000
0.000000 0.675357 0.000000
0.000000 0.675304 0.000000
0.000000 0.675237 0.000000
0.000000 0.675117 0.000000
0.000000 0.674863 0.000000
0.000000 0.674252 0.000000
0.180176 0.672936 0.000000
0.448499 0.670819 0.000000
0.629223 0.667830 0.000000
0.785062 0.663946 0.000000
0.923186 0.659307 0.000000
1.000000 0.655289 0.000000
1.000000 0.652562 0.000000
1.000000 0.651048 0.000000
1.000000 0.650401 0.000000
1.000000 0.650145 0.000000
1.000000 0.649756 0.000000
0.000000 0.801503 0.000000
0.000000 0.801462 0.000000
0.000000 0.801410 0.000000
0.000000 0.801318 0.000000
0.000000 0.801122 0.000000
0.000000 0.800652 0.000000
0.000000 0.799640 0.000000
0.352024 0.798013 0.000000
0.575570 0.795722 0.000000
0.747749 0.792751 0.000000
0.894513 0.789215 0.000000
0.995737 0.786164 0.000000
1.000000 0.784098 0.000000
1.000000 0.782953 0.000000
1.000000 0.782464 0.000000
1.000000 0.782270 0.000000
1.000000 0.781977 0.000000
0.000000 0.919497 0.000000
0.000000 0.919464 0.000000
0.000000 0.919422 0.000000
0.000000 0.919348 0.000000
0.000000 0.919189 0.000000
0.000000 0.918809 0.000000
0.000000 0.917992 0.000000
0.138589 0.916679 0.000000
0.500645 0.914831 0.000000
0.699570 0.912441 0.000000
0.858629 0.909599 0.000000
0.965621 0.907152 0.000000
1.000000 0.905497 0.000000
1.000000 0.904581 0.000000
1.000000 0.904190 0.000000
1.000000 0.904036 0.000000
1.000000 0.903801 0.000000
0.000000 1.000000 0.000000
0.000000 1.000000 0.000000
0.000000 1.000000 0.000000
0.000000 1.000000 0.000000
0.000000 1.000000 0.000000
0.000000 1.000000 0.000000
0.000000 1.000000 0.000000
0.000000 1.000000 0.000000
0.420217 1.000000 0.000000
0.653843 0.998427 0.000000
0.825897 0.995960 0.000000
0.938572 0.993838 0.000000
1.000000 0.992404 0.000000
1.000000 0.991610 0.000000
1.000000 0.991272 0.000000
1.000000 0.991138 0.000000
1.000000 0.990934 0.000000
0.000000 1.000000 0.000000
0.000000 1.000000 0.000000
0.000000 1.000000 0.000000
0.000000 1.000000 0.000000
0.000000 1.000000 0.000000
0.000000 1.000000 0.000000
0.000000 1.000000 0.000000
0.000000 1.000000 0.000000
0.350706 1.000000 0.000000
0.620102 1.000000 0.000000
0.802666 1.000000 0.000000
0.919642 1.000000 0.000000
0.986938 1.000000 0.000000
1.000000 1.000000 0.000000
1.000000 1.000000 0.000000
1.000000 1.000000 0.000000
1.000000 1.000000 0.000000
0.000000 1.000000 0.000000
0.000000 1.000000 0.000000
0.000000 1.000000 0.000000
0.000000 1.000000 0.000000
0.000000 1.000000 0.000000
0.000000 1.000000 0.000000
0.000000 1.000000 0.000000
0.000000 1.000000 0.000000
0.302631 1.000000 0.000000
0.600223 1.000000 0.000000
0.789374 1.000000 0.000000
0.908915 1.000000 0.000000
0.977348 1.000000 0.000000
1.000000 1.000000 0.000000
1.000000 1.000000 0.000000
1.000000 1.000000 0.000000
1.000000 1.000000 0.000000
0.000000 1.000000 0.000000
0.000000 1.000000 0.000000
0.000000 1.000000 0.000000
0.000000 1.000000 0.000000
0.000000 1.000000 0.000000
0.000000 1.000000 0.000000
0.000000 1.000000 0.000000
0.000000 1.000000 0.000000
0.278755 1.000000 0.000000
0.591451 1.000000 0.000000
0.783606 1.000000 0.000000
0.904286 1.000000 0.000000
0.973219 1.000000 0.000000
1.000000 1.000000 0.000000
1.000000 1.000000 0.000000
1.000000 1.000000 0.000000
1.000000 1.000000 0.000000
0.000000 1.000000 0.000000
0.000000 1.000000 0.000000
0.000000 1.000000 0.000000
0.000000 1.000000 0.000000
0.000000 1.000000 0.000000
0.000000 1.000000 0.000000
0.000000 1.000000 0.000000
0.000000 1.000000 0.000000
0.268534 1.000000 0.000000
0.587923 1.000000 0.000000
0.781304 1.000000 0.000000
0.902443 1.000000 0.000000
0.971576 1.000000 0.000000
1.000000 1.000000 0.000000
1.000000 1.000000 0.000000
1.000000 1.000000 0.000000
1.000000 1.000000 0.000000
0.000000 1.000000 0.000000
0.000000 1.000000 0.000000
0.000000 1.000000 0.000000
0.000000 1.000000 0.000000
0.000000 1.000000 0.000000
0.000000 1.000000 0.000000
0.000000 1.000000 0.000000
0.000000 1.000000 0.000000
0.252034 1.000000 0.000000
0.582516 1.000000 0.000000
0.777795 1.000000 0.000000
0.899637 1.000000 0.000000
0.969078 1.000000 0.000000
1.000000 1.000000 0.000000
1.000000 1.000000 0.000000
1.000000 1.000000 0.000000
1.000000 1.000000 0.000000
0.000000 0.000000 0.063998
0.032559 0.000000 0.064247
0.078297 0.000000 0.064569
0.131159 0.000000 0.065132
0.202267 0.000000 0.066323
0.306431 0.000000 0.069128
0.441276 0.000000 0.074883
0.580686 0.000000 0.083475
0.718093 0.000000 0.094453
0.851166 0.000000 0.107182
0.975648 0.000000 0.120663
1.000000 0.000000 0.131172
1.000000 0.000000 0.137805
1.000000 0.000000 0.141336
1.000000 0.000000 0.142812
1.000000 0.000000 0.143393
1.000000 0.000000 0.144268
0.000000 0.017892 0.061132
0.022451 0.017042 0.061389
0.069944 0.015939 0.061721
0.125972 0.014002 0.062301
0.199052 0.009866 0.063529
0.304521 0.000000 0.066416
0.440117 0.000000 0.072329
0.579908 0.000000 0.081131
0.717528 0.000000 0.092340
0.850730 0.000000 0.105294
0.975297 0.000000 0.118975
1.000000 0.000000 0.129616
1.000000 0.000000 0.136325
1.000000 0.000000 0.139894
1.000000 0.000000 0.141386
1.000000 0.000000 0.141972
1.000000 0.000000 0.142856
0.000000 0.059782 0.057271
0.009328 0.058962 0.057539
0.057885 0.057885 0.057885
0.118909 0.055964 0.058491
0.194785 0.051828 0.059770
0.302016 0.041881 0.062775
0.438606 0.020551 0.068910
0.578895 0.000000 0.078005
0.716791 0.000000 0.089533
0.850164 0.000000 0.102796
0.974838 0.000000 0.116747
1.000000 0.000000 0.127568
1.000000 0.000000 0.134379
1.000000 0.000000 0.137998
1.000000 0.000000 0.139511
1.000000 0.000000 0.140105
1.000000 0.000000 0.141001
0.000000 0.113449 0.050272
0.000000 0.112957 0.050543
0.034869 0.112314 0.050896
0.105448 0.111178 0.051515
0.187025 0.108715 0.052836
0.297553 0.102574 0.056014
0.435934 0.088171 0.062598
0.577110 0.059901 0.072275
0.715497 0.011979 0.084424
0.849168 0.000000 0.098276
0.974034 0.000000 0.112737
1.000000 0.000000 0.123894
1.000000 0.000000 0.130893
1.000000 0.000000 0.134606
1.000000 0.000000 0.136157
1.000000 0.000000 0.136766
1.000000 0.000000 0.137684
0.000000 0.183045 0.035310
0.000000 0.182745 0.035583
0.000000 0.182353 0.035935
0.069855 0.181665 0.036553
0.169096 0.180183 0.037875
0.287719 0.176565 0.041052
0.430150 0.168513 0.047866
0.573271 0.154639 0.058762
0.712720 0.132612 0.072588
0.847035 0.097279 0.087964
0.972313 0.034119 0.103699
1.000000 0.000000 0.115670
1.000000 0.000000 0.123122
1.000000 0.000000 0.127059
1.000000 0.000000 0.128700
1.000000 0.000000 0.129344
1.000000 0.000000 0.130314
0.000000 0.283218 0.000000
0.000000 0.283040 0.000000
0.000000 0.282810 0.000000
0.000000 0.282405 0.000573
0.114141 0.281538 0.001894
0.262095 0.279438 0.005071
0.415773 0.274864 0.011886
0.563879 0.267318 0.022817
0.705975 0.256256 0.038151
0.841872 0.241039 0.057915
0.968153 0.221354 0.078454
1.000000 0.202627 0.093242
1.000000 0.188775 0.102181
1.000000 0.180597 0.106837
1.000000 0.176984 0.108766
1.000000 0.175530 0.109521
1.000000 0.173301 0.110656
0.000000 0.411850 0.000000
0.000000 0.411743 0.000000
0.000000 0.411604 0.000000
0.000000 0.411359 0.000000
0.000000 0.410836 0.000000
0.192681 0.409574 0.000000
0.382340 0.406850 0.000000
0.542923 0.402426 0.000000
0.691171 0.396104 0.000000
0.830630 0.387736 0.000000
0.959138 0.377505 0.004172
1.000000 0.368418 0.024235
1.000000 0.362120 0.037751
1.000000 0.358575 0.045219
1.000000 0.357051 0.048400
1.000000 0.356445 0.049659
1.000000 0.355523 0.051569
0.000000 0.544395 0.000000
0.000000 0.544323 0.000000
0.000000 0.544230 0.000000
0.000000 0.544066 0.000000
0.000000 0.543716 0.000000
0.000000 0.542871 0.000000
0.318282 0.541055 0.000000
0.506594 0.538121 0.000000
0.666367 0.533967 0.000000
0.812089 0.528538 0.000000
0.944393 0.522008 0.000000
1.000000 0.516313 0.000000
1.000000 0.512425 0.000000
1.000000 0.510258 0.000000
1.000000 0.509331 0.000000
1.000000 0.508963 0.000000
1.000000 0.508405 0.000000
0.000000 0.674856 0.000000
0.000000 0.674804 0.000000
0.000000 0.674735 0.000000
0.000000 0.674616 0.000000
0.000000 0.674362 0.000000
0.000000 0.673750 0.000000
0.179188 0.672433 0.000000
0.448192 0.670313 0.000000
0.629036 0.667322 0.000000
0.784928 0.663433 0.000000
0.923082 0.658788 0.000000
1.000000 0.654765 0.000000
1.000000 0.652034 0.000000
1.000000 0.650518 0.000000
1.000000 0.649871 0.000000
1.000000 0.649614 0.000000
1.000000 0.649226 0.000000
0.000000 0.801117 0.000000
0.000000 0.801076 0.000000
0.000000 0.801024 0.000000
0.000000 0.800932 0.000000
0.000000 0.800736 0.000000
0.000000 0.800265 0.000000
0.000000 0.799253 0.000000
0.351595 0.797625 0.000000
0.575357 0.795332 0.000000
0.747604 0.792359 0.000000
0.894403 0.788820 0.000000
0.995644 0.785766 0.000000
1.000000 0.783699 0.000000
1.000000 0.782553 0.000000
1.000000 0.782064 0.000000
1.000000 0.781870 0.000000
1.000000 0.781577 0.000000
0.000000 0.919184 0.000000
0.000000 0.919152 0.000000
0.000000 0.919110 0.000000
0.000000 0.919036 0.000000
0.000000 0.918878 0.000000
0.000000 0.918497 0.000000
0.000000 0.917679 0.000000
0.137278 0.916365 0.000000
0.500383 0.914518 0.000000
0.699411 0.912125 0.000000
0.858512 0.909282 0.000000
0.965523 0.906834 0.000000
1.000000 0.905178 0.000000
1.000000 0.904261 0.000000
1.000000 0.903870 0.000000
1.000000 0.903715 0.000000
1.000000 0.903481 0.000000
0.000000 1.000000 0.000000
0.000000 1.000000 0.000000
0.000000 1.000000 0.000000
0.000000 1.000000 0.000000
0.000000 1.000000 0.000000
0.000000 1.000000 0.000000
0.000000 1.000000 0.000000
0.000000 1.000000 0.000000
0.419881 1.000000 0.000000
0.653666 0.998153 0.000000
0.825774 0.995685 0.000000
0.938471 0.993562 0.000000
1.000000 0.992127 0.000000
1.000000 0.991333 0.000000
1.000000 0.990995 0.000000
1.000000 0.990861 0.000000
1.000000 0.990658 0.000000
0.000000 1.000000 0.000000
0.000000 1.000000 0.000000
0.000000 1.000000 0.000000
0.000000 1.000000 0.000000
0.000000 1.000000 0.000000
0.000000 1.000000 0.000000
0.000000 1.000000 0.000000
0.000000 1.000000 0.000000
0.350276 1.000000 0.000000
0.619911 1.000000 0.000000
0.802537 1.000000 0.000000
0.919537 1.000000 0.000000
0.986844 1.000000 0.000000
1.000000 1.000000 0.000000
1.000000 1.000000 0.000000
1.000000 1.000000 0.000000
1.000000 1.000000 0.000000
0.000000 1.000000 0.000000
0.000000 1.000000 0.000000
0.000000 1.000000 0.000000
0.000000 1.000000 0.000000
0.000000 1.000000 0.000000
0.000000 1.000000 0.000000
0.000000 1.000000 0.000000
0.000000 1.000000 0.000000
0.302106 1.000000 0.000000
0.600022 1.000000 0.000000
0.789241 1.000000 0.000000
0.908809 1.000000 0.000000
0.977253 1.000000 0.000000
1.000000 1.000000 0.000000
1.000000 1.000000 0.000000
1.000000 1.000000 0.000000
1.000000 1.000000 0.000000
0.000000 1.000000 0.000000
0.000000 1.000000 0.000000
0.000000 1.000000 0.000000
0.000000 1.000000 0.000000
0.000000 1.000000 0.000000
0.000000 1.000000 0.000000
0.000000 1.000000 0.000000
0.000000 1.000000 0.000000
0.278171 1.000000 0.000000
0.591246 1.000000 0.000000
0.783472 1.000000 0.000000
0.904179 1.000000 0.000000
0.973123 1.000000 0.000000
1.000000 1.000000 0.000000
1.000000 1.000000 0.000000
1.000000 1.000000 0.000000
1.000000 1.000000 0.000000
0.000000 1.000000 0.000000
0.000000 1.000000 0.000000
0.000000 1.000000 0.000000
0.000000 1.000000 0.000000
0.000000 1.000000 0.000000
0.000000 1.000000 0.000000
0.000000 1.000000 0.000000
0.000000 1.000000 0.000000
0.267921 1.000000 0.000000
0.587716 1.000000 0.000000
0.781169 1.000000 0.000000
0.902335 1.000000 0.000000
0.971479 1.000000 0.000000
1.000000 1.000000 0.000000
1.000000 1.000000 0.000000
1.000000 1.000000 0.000000
1.000000 1.000000 0.000000
0.000000 1.000000 0.000000
0.000000 1.000000 0.000000
0.000000 1.000000 0.000000
0.000000 1.000000 0.000000
0.000000 1.000000 0.000000
0.000000 1.000000 0.000000
0.000000 1.000000 0.000000
0.000000 1.000000 0.000000
0.251371 1.000000 0.000000
0.582306 1.000000 0.000000
0.777659 1.000000 0.000000
0.899529 1.000000 0.000000
0.968981 1.000000 0.000000
1.000000 1.000000 0.000000
1.000000 1.000000 0.000000
1.000000 1.000000 0.000000
1.000000 1.000000 0.000000
0.000000 0.000000 0.110305
0.027749 0.000000 0.110466
0.074409 0.000000 0.110675
0.128716 0.000000 0.111040
0.200744 0.000000 0.111818
0.305523 0.000000 0.113667
0.440725 0.000000 0.117540
0.580316 0.000000 0.123513
0.717824 0.000000 0.131448
0.850958 0.000000 0.141030
0.975481 0.000000 0.151569
1.000000 0.000000 0.160029
1.000000 0.000000 0.165467
1.000000 0.000000 0.168389
1.000000 0.000000 0.169618
1.000000 0.000000 0.170102
1.000000 0.000000 0.170832
0.000000 0.003589 0.108466
0.017641 0.002739 0.108629
0.065702 0.001636 0.108842
