test-footage/LUT/simpletest-lut.cube
# Alexa conversion LUT

LUT_3D_SIZE 2
1.000000 1.000000 1.000000
1.000000 1.000000 0.000000
1.000000 0.000000 1.000000
1.000000 0.000000 0.000000
0.000000 1.000000 1.000000
0.000000 1.000000 0.000000
0.000000 0.000000 1.000000
0.000000 0.000000 0.000000
