test-footage/LUT/simpletest2-lut.cube
# Alexa conversion LUT

LUT_3D_SIZE 2
0.000000 0.000000 0.000000
0.000000 0.000000 1.000000
0.000000 1.000000 0.000000
0.000000 1.000000 1.000000
1.000000 0.000000 0.000000
1.000000 0.000000 1.000000
1.000000 1.000000 0.000000
0.500000 0.500000 0.500000
#1.000000 1.000000 1.000000
